Shader/中性冷青.cube
TITLE "Generated by Resolve"
LUT_3D_SIZE 33
0 0 0
0 0 0
0 0 0
0 0 0
0 0 0
0.00213626 0 0
0.0163729 3.0518e-05 3.0518e-05
0.0463417 0.000289921 0.000946059
0.0956893 0.00228885 0.00288396
0.167926 0.00848402 0.00515755
0.249897 0.0150759 0.00834669
0.331243 0.0216678 0.0116274
0.412634 0.0308385 0.0149691
0.489693 0.0410468 0.0177005
0.561563 0.050721 0.0197452
0.62945 0.0594949 0.0214847
0.695048 0.0688029 0.0224308
0.764599 0.0774548 0.0243687
0.837873 0.0865187 0.0264897
0.903822 0.0948806 0.0286412
0.946624 0.0993973 0.0298619
0.962905 0.100343 0.0301366
0.96347 0.100328 0.0301518
0.96347 0.100328 0.0301518
0.96347 0.100328 0.0301518
0.96347 0.100328 0.0301518
0.96347 0.100328 0.0301518
0.96347 0.100328 0.0301518
0.96347 0.100328 0.0301518
0.96347 0.100328 0.0301518
0.96347 0.100328 0.0301518
0.96347 0.100328 0.0301518
0.96347 0.100328 0.0301518
0 0 0
0 0 0
0 0 0
0 0 0
1.5259e-05 0 0
0.00106813 0 0
0.0144961 1.5259e-05 1.5259e-05
0.0442512 0.00015259 0.0010071
0.0941482 0.00231937 0.0028687
0.165713 0.00843824 0.00509651
0.249989 0.0151217 0.00846876
0.331823 0.0215457 0.0117647
0.413962 0.0309148 0.0150912
0.491508 0.0412604 0.0177615
0.563577 0.0509804 0.0198672
0.632074 0.0599069 0.0215915
0.698695 0.0692302 0.0225528
0.768475 0.0780804 0.0245518
0.84242 0.0870832 0.0267033
0.908263 0.0955215 0.0288701
0.948974 0.0995499 0.0299382
0.963165 0.100328 0.0301518
0.96347 0.100328 0.0301518
0.96347 0.100328 0.0301518
0.96347 0.100328 0.0301518
0.96347 0.100328 0.0301518
0.96347 0.100328 0.0301518
0.96347 0.100328 0.0301518
0.96347 0.100328 0.0301518
0.96347 0.100328 0.0301518
0.96347 0.100328 0.0301518
0.96347 0.100328 0.0301518
0.96347 0.100328 0.0301518
0 0 0
0 0 0
0 0 0
0 0 0
1.5259e-05 0 0
0.000259403 0 0
0.0117037 1.5259e-05 1.5259e-05
0.0392615 4.57771e-05 0.000900282
0.0874037 0.00202945 0.00257877
0.156985 0.00772107 0.0047303
0.242435 0.0144808 0.00825513
0.324636 0.0208133 0.0115511
0.408026 0.0300603 0.0148928
0.48629 0.0404822 0.0176089
0.559411 0.0504311 0.0198367
0.628809 0.0594949 0.0216068
0.695994 0.0688182 0.0225528
0.765774 0.0779889 0.024567
0.840543 0.0868391 0.0267796
0.908446 0.0957046 0.0289921
0.949569 0.0995956 0.0299687
0.963272 0.100328 0.0301518
0.96347 0.100328 0.0301518
0.96347 0.100328 0.0301518
0.96347 0.100328 0.0301518
0.96347 0.100328 0.0301518
0.96347 0.100328 0.0301518
0.96347 0.100328 0.0301518
0.96347 0.100328 0.0301518
0.96347 0.100328 0.0301518
0.96347 0.100328 0.0301518
0.96347 0.100328 0.0301518
0.96347 0.100328 0.0301518
0 0 0
0 0 0
0 0 0
0 0 0
0 0 0
0 0 0
0.00910964 1.5259e-05 1.5259e-05
0.0338598 1.5259e-05 0.000686656
0.0785077 0.00163272 0.00204471
0.144411 0.00646983 0.00411994
0.230549 0.0134585 0.00775158
0.313863 0.019913 0.0110781
0.398001 0.0287175 0.0144198
0.477485 0.0392309 0.0172732
0.551537 0.0493935 0.0196536
0.621485 0.0585031 0.0214237
0.689265 0.0678264 0.0224918
0.758572 0.0772869 0.0243992
0.833356 0.085893 0.0266575
0.904479 0.0953994 0.0289158
0.948013 0.0995193 0.0299382
0.962676 0.100328 0.0301518
0.96347 0.100328 0.0301518
0.96347 0.100328 0.0301518
0.96347 0.100328 0.0301518
0.96347 0.100328 0.0301518
0.96347 0.100328 0.0301518
0.96347 0.100328 0.0301518
0.96347 0.100328 0.0301518
0.96347 0.100328 0.0301518
0.96347 0.100328 0.0301518
0.96347 0.100328 0.0301518
0.96347 0.100328 0.0301518
0 0 0
0 0 0
0 0 0
0 0 0
0 0 0
0 0 0
0.00666819 1.5259e-05 1.5259e-05
0.0280308 1.5259e-05 0.000366217
0.0686503 0.00114443 0.00140383
0.13048 0.00494392 0.00343328
0.216632 0.0122225 0.00703441
0.300801 0.0190433 0.0103761
0.385794 0.0271916 0.0137179
0.466545 0.037705 0.0168002
0.54165 0.0480964 0.0192416
0.612497 0.0572671 0.0210117
0.680842 0.0664988 0.0224613
0.749783 0.0760052 0.0239567
0.824796 0.0847181 0.0261845
0.898009 0.0944839 0.0284123
0.943771 0.0991989 0.0297551
0.960983 0.100328 0.0301518
0.96347 0.100328 0.0301518
0.96347 0.100328 0.0301518
0.96347 0.100328 0.0301518
0.96347 0.100328 0.0301518
0.96347 0.100328 0.0301518
0.96347 0.100328 0.0301518
0.96347 0.100328 0.0301518
0.96347 0.100328 0.0301518
0.96347 0.100328 0.0301518
0.96347 0.100328 0.0301518
0.96347 0.100328 0.0301518
0 0 0
0 0 0
0 0 0
0 0 0
0 0 0
0 0 0
0.00424201 1.5259e-05 1.5259e-05
0.0221714 3.0518e-05 9.15541e-05
0.0583658 0.000686656 0.00109865
0.116564 0.00349432 0.00357061
0.200809 0.0109865 0.00636301
0.286732 0.0180209 0.00975052
0.372 0.0254978 0.0131075
0.453422 0.0358892 0.0163272
0.530297 0.0465858 0.0188144
0.602426 0.0559243 0.0206455
0.671366 0.0650187 0.0224308
0.739834 0.0745708 0.0234684
0.814252 0.08336 0.0256657
0.889311 0.0932021 0.0278477
0.938567 0.0987564 0.0295872
0.959258 0.100328 0.0301671
0.96347 0.100328 0.0301518
0.96347 0.100328 0.0301518
0.96347 0.100328 0.0301518
0.96347 0.100328 0.0301518
0.96347 0.100328 0.0301518
0.96347 0.100328 0.0301518
0.96347 0.100328 0.0301518
0.96347 0.100328 0.0301518
0.96347 0.100328 0.0301518
0.96347 0.100328 0.0301518
0.96347 0.100328 0.0301518
0 0 0
0 0 0
0 1.5259e-05 0
0 0.000259403 0
1.5259e-05 0.00103761 0
1.5259e-05 0.00105287 0
0.00201419 0.000823987 1.5259e-05
0.016495 0.000427253 4.57771e-05
0.0489662 0.000411994 0.000976577
0.102602 0.00242618 0.00334173
0.184344 0.00985733 0.00581369
0.271107 0.0167391 0.00924697
0.356573 0.0237278 0.0126802
0.439521 0.0339361 0.0159457
0.517525 0.044831 0.0184939
0.590433 0.0544289 0.0205234
0.660258 0.0634012 0.0224155
0.728435 0.0731365 0.0232242
0.802136 0.0819867 0.0254368
0.877806 0.0916457 0.0276341
0.932586 0.0982834 0.0295415
0.957595 0.100328 0.0301671
0.96347 0.100328 0.0301518
0.96347 0.100328 0.0301518
0.96347 0.100328 0.0301518
0.96347 0.100328 0.0301518
0.96347 0.100328 0.0301518
0.96347 0.100328 0.0301518
0.96347 0.100328 0.0301518
0.96347 0.100328 0.0301518
0.96347 0.100328 0.0301518
0.96347 0.100328 0.0301518
0.96347 0.100328 0.0301518
0.000137331 0.00169375 0.00215152
0.000137331 0.00181582 0.00172427
0.000183108 0.00228885 0.000946059
0.000442512 0.00448615 0.000396735
0.00128176 0.0105592 0.00106813
0.00123598 0.0105287 0.00103761
0.0019379 0.0113069 0.00112917
0.0126497 0.0115358 0.00135805
0.0398108 0.0115206 0.00183108
0.0899977 0.0131991 0.00285344
0.172015 0.0202029 0.00512703
0.25948 0.0269169 0.00863661
0.343313 0.033051 0.0119326
0.425132 0.0411078 0.0151522
0.503487 0.0500496 0.0178683
0.577096 0.0581979 0.0200809
0.647379 0.0657359 0.0220035
0.715709 0.0742504 0.0230716
0.788983 0.0822003 0.0252995
0.86508 0.0908064 0.0274968
0.925597 0.0978561 0.0294652
0.955428 0.100237 0.0301366
0.963272 0.100328 0.0301518
0.96347 0.100328 0.0301518
0.96347 0.100328 0.0301518
0.96347 0.100328 0.0301518
0.96347 0.100343 0.0301518
0.96347 0.100679 0.0301518
0.96347 0.100954 0.0301518
0.96347 0.101167 0.0301518
0.96347 0.101305 0.0301518
0.96347 0.10135 0.0301518
0.96347 0.101411 0.0301518
0.00148013 0.0104677 0.0105745
0.0016022 0.0118868 0.00958267
0.00190738 0.0141604 0.0068513
0.00270085 0.0187533 0.00386053
0.0043946 0.0281834 0.00384527
0.00598154 0.0339208 0.00534066
0.00668345 0.0369268 0.0059205
0.0143893 0.038529 0.00624094
0.0350347 0.0390784 0.00616464
0.0763867 0.0394903 0.00550851
0.153307 0.0441749 0.00512703
0.245686 0.0514534 0.00769055
0.330358 0.0573892 0.0106661
0.410819 0.0632029 0.0138094
0.488212 0.0692302 0.0166934
0.561715 0.0748608 0.0191043
0.632074 0.080354 0.021149
0.701183 0.0863966 0.0228733
0.773816 0.0926223 0.0249638
0.850385 0.0997024 0.0273899
0.916426 0.106126 0.0294347
0.951812 0.108125 0.0301366
0.962524 0.107713 0.0301823
0.96347 0.107134 0.0301823
0.96347 0.106569 0.0301671
0.96347 0.106203 0.0301671
0.96347 0.105989 0.0301671
0.96347 0.106538 0.0301671
0.96347 0.107073 0.0301518
0.96347 0.107652 0.0301671
0.96347 0.108034 0.0301671
0.96347 0.108278 0.0301823
0.96347 0.108797 0.0301823
0.00529488 0.0334173 0.0303349
0.00550851 0.0373693 0.0291142
0.00633249 0.0423285 0.0236515
0.00798047 0.0480507 0.0159304
0.00999466 0.0527199 0.0108339
0.0161593 0.0728466 0.0151827
0.0178378 0.0780957 0.0164187
0.0243076 0.0804456 0.0165255
0.0388037 0.0821241 0.0162356
0.0652476 0.0800183 0.0142824
0.121111 0.0794385 0.0084535
0.21915 0.0863508 0.00799573
0.31107 0.09308 0.00932326
0.395163 0.0987106 0.0118563
0.472129 0.103532 0.0148165
0.544884 0.10808 0.0176242
0.614984 0.112398 0.0200351
0.684184 0.117037 0.0222934
0.756283 0.122454 0.0242771
0.833127 0.12929 0.0272984
0.90399 0.135393 0.0295872
0.945846 0.136599 0.0302739
0.961013 0.135058 0.0302739
0.963439 0.133288 0.0302739
0.963439 0.13193 0.0302586
0.963455 0.130724 0.0302586
0.963439 0.130144 0.0302586
0.963455 0.130083 0.0302586
0.963439 0.130358 0.0302434
0.963439 0.131121 0.0302434
0.963439 0.132128 0.0302586
0.963439 0.133974 0.0302586
0.963439 0.13666 0.0302739
0.00972 0.0711528 0.0651713
0.00987259 0.0756695 0.0635538
0.0114137 0.0817121 0.0571908
0.0149691 0.0886854 0.0459297
0.0198215 0.0938125 0.0305638
0.0311284 0.121721 0.0313268
0.0337377 0.128023 0.0315099
0.0380407 0.129686 0.0319829
0.0527199 0.132967 0.0310826
0.0788128 0.13521 0.0269017
0.10193 0.128298 0.0205081
0.176593 0.124971 0.0154421
0.277943 0.130236 0.00949111
0.37293 0.135561 0.0089723
0.455711 0.140169 0.0118715
0.5299 0.144579 0.0151064
0.600259 0.148852 0.0178073
0.668299 0.153475 0.0202182
0.739788 0.158267 0.0228275
0.815183 0.164508 0.025803
0.890028 0.17052 0.0286412
0.938979 0.172946 0.030045
0.95935 0.172396 0.030396
0.963394 0.170687 0.030396
0.963394 0.169299 0.0303807
0.963409 0.168154 0.0303807
0.963409 0.167361 0.0303807
0.963394 0.166812 0.0303807
0.963394 0.166827 0.0303655
0.963394 0.167224 0.0303807
0.963394 0.168612 0.0303044
0.963394 0.170657 0.0301976
0.963394 0.173907 0.0300908
0.0117647 0.112703 0.103044
0.0122835 0.118273 0.101488
0.0145418 0.125917 0.09514
0.0192874 0.134676 0.0824445
0.0267491 0.142657 0.0615091
0.0405585 0.158236 0.0475166
0.0498817 0.178241 0.0479591
0.0547494 0.187854 0.0502937
0.0663767 0.189471 0.0499275
0.0936751 0.19295 0.0476081
0.119875 0.194247 0.0412604
0.158602 0.179355 0.0338445
0.237201 0.172412 0.0270695
0.338888 0.178424 0.0156863
0.434501 0.184253 0.00920119
0.514138 0.185687 0.0104982
0.585306 0.188205 0.0140841
0.654368 0.192432 0.0168917
0.724178 0.196658 0.0198825
0.798535 0.202579 0.0228122
0.874098 0.208499 0.0257725
0.930724 0.212055 0.0276493
0.957504 0.212314 0.028275
0.963363 0.210925 0.028336
0.963363 0.209461 0.0284276
0.963363 0.208408 0.0284886
0.963363 0.207828 0.0285496
0.963363 0.207599 0.0285954
0.963363 0.207874 0.0286259
0.963363 0.208499 0.0286259
0.963363 0.209705 0.0285649
0.963348 0.211353 0.0284276
0.963348 0.214343 0.0282139
0.0129091 0.158801 0.145815
0.0146639 0.165957 0.144305
0.0183108 0.175143 0.137697
0.0243381 0.184955 0.123949
0.0338903 0.194491 0.0995346
0.0472114 0.20264 0.0782483
0.0671244 0.235294 0.0730297
0.0775616 0.253971 0.0731212
0.0859236 0.254398 0.0728771
0.109514 0.255802 0.0712902
0.139071 0.260502 0.0674754
0.169924 0.257572 0.0580606
0.226673 0.23563 0.0479438
0.310964 0.226947 0.0369726
0.407752 0.232502 0.0234989
0.498894 0.239292 0.0117342
0.574121 0.239078 0.00840772
0.640726 0.23772 0.0112306
0.708598 0.239445 0.0147097
0.781308 0.243977 0.018143
0.857069 0.249607 0.0216373
0.92047 0.253986 0.0242313
0.953933 0.254582 0.0252537
0.962783 0.253056 0.0254368
0.963317 0.251377 0.0256352
0.963302 0.250202 0.0257572
0.963317 0.249577 0.0256962
0.963317 0.249729 0.0255741
0.963317 0.250263 0.0254215
0.963302 0.251087 0.0252689
0.963302 0.252323 0.0250858
0.963317 0.253925 0.0248875
0.963302 0.257053 0.0245518
0.015198 0.209781 0.191669
0.0180056 0.218097 0.190066
0.0228428 0.22884 0.183673
0.0300603 0.239963 0.16997
0.0412299 0.251316 0.145525
0.0562753 0.25922 0.115618
0.081117 0.288792 0.102052
0.0987869 0.31545 0.0987716
0.109163 0.326101 0.0986343
0.126726 0.325795 0.0975509
0.160998 0.328496 0.0949569
0.183825 0.332631 0.0887007
0.233249 0.321767 0.0735332
0.30573 0.30135 0.0595712
0.39115 0.289464 0.0466163
0.47921 0.292302 0.0321965
0.562509 0.300404 0.0176547
0.631586 0.300526 0.00932326
0.69662 0.29688 0.00808728
0.765713 0.295796 0.0108492
0.840467 0.297917 0.0149538
0.907988 0.300755 0.0184176
0.948165 0.301289 0.0200961
0.961547 0.29958 0.0205692
0.963272 0.297948 0.0207828
0.963272 0.296635 0.0209506
0.963272 0.296223 0.0209201
0.963272 0.295979 0.0208896
0.963272 0.296361 0.0207828
0.963256 0.297108 0.0206607
0.963272 0.298589 0.0204166
0.963272 0.30074 0.0200961
0.963272 0.304311 0.0196231
0.0184024 0.266468 0.241398
0.0215305 0.275288 0.240024
0.0269932 0.28687 0.234028
0.0351568 0.299321 0.221424
0.0479133 0.312261 0.198276
0.0663615 0.322652 0.16054
0.0887922 0.339193 0.132433
0.114199 0.371664 0.123522
0.134203 0.400732 0.126406
0.145418 0.399832 0.124773
0.180682 0.399588 0.122515
0.203738 0.403555 0.119661
0.23534 0.405524 0.106844
0.307622 0.390539 0.0859388
0.389227 0.366094 0.0707256
0.465843 0.350378 0.0605173
0.546853 0.354543 0.0446174
0.622843 0.366094 0.0265049
0.688365 0.367605 0.0121309
0.753933 0.363165 0.00637827
0.825238 0.35935 0.00746166
0.894484 0.357076 0.010193
0.940871 0.355245 0.0122835
0.959899 0.353216 0.0132753
0.963226 0.351232 0.0135958
0.963226 0.349477 0.0139467
0.963226 0.348806 0.0141909
0.963211 0.34847 0.0143435
0.963211 0.34905 0.0142977
0.963211 0.350317 0.0141451
0.963211 0.352361 0.0137789
0.963226 0.355138 0.0132448
0.963226 0.359426 0.0125124
0.0205692 0.327535 0.295277
0.023682 0.336645 0.294514
0.0294499 0.348104 0.288838
0.0383001 0.361151 0.277409
0.0522621 0.374685 0.256016
0.0736858 0.38735 0.216251
0.0932479 0.394369 0.171466
0.124697 0.427115 0.152972
0.155703 0.468147 0.155947
0.16585 0.473671 0.151171
0.195254 0.471473 0.149096
0.228473 0.47303 0.147082
0.239963 0.477302 0.142138
0.29984 0.475227 0.117952
0.386755 0.45684 0.0939803
0.465888 0.426459 0.0830701
0.532631 0.405966 0.0767376
0.609232 0.417304 0.0607462
0.679576 0.433539 0.0374151
0.744625 0.43682 0.0174258
0.812329 0.432609 0.00691234
0.880766 0.426032 0.0041352
0.932647 0.420768 0.00488289
0.957916 0.417395 0.00584421
0.963134 0.414923 0.00619516
0.96318 0.412848 0.00657664
0.96318 0.411307 0.00697337
0.963165 0.411276 0.00708019
0.963165 0.412161 0.00695811
0.963165 0.413993 0.00666819
0.963165 0.416358 0.00622568
0.963165 0.419516 0.0055848
0.963165 0.424735 0.0047303
0.0204471 0.390814 0.351629
0.0236973 0.399634 0.351431
0.0297093 0.410864 0.346563
0.0387884 0.423682 0.336355
0.0533913 0.437232 0.317052
0.0758526 0.45008 0.280598
0.0991379 0.459342 0.228641
0.131945 0.483085 0.192966
0.166491 0.518578 0.181262
0.18645 0.543221 0.176928
0.206958 0.541512 0.173922
0.247196 0.540429 0.171618
0.264012 0.543633 0.169833
0.288106 0.5449 0.151629
0.369131 0.540566 0.11986
0.473732 0.519112 0.0977646
0.53315 0.479728 0.0996872
0.594247 0.46157 0.094316
0.665736 0.478141 0.0782635
0.733532 0.496696 0.0519265
0.80032 0.504417 0.0252232
0.867903 0.502602 0.0101472
0.923964 0.497322 0.00428778
0.954849 0.493202 0.00260929
0.962692 0.490791 0.00234989
0.963043 0.488792 0.00222782
0.963088 0.487556 0.00209049
0.963104 0.487129 0.0019379
0.963134 0.487556 0.00192264
0.963134 0.489174 0.00192264
0.963119 0.490898 0.00202945
0.963088 0.493538 0.00222782
0.963058 0.498497 0.00244144
0.0201724 0.452796 0.409445
0.0227359 0.461021 0.409445
0.0279698 0.472053 0.405402
0.0366522 0.48426 0.395987
0.0520485 0.497261 0.378317
0.0736706 0.510124 0.34728
0.0990921 0.520607 0.295521
0.128985 0.531594 0.229343
0.165286 0.557916 0.187427
0.204944 0.606424 0.206729
0.218128 0.607385 0.196887
0.257801 0.604395 0.193896
0.285588 0.604425 0.191974
0.297002 0.60473 0.182437
0.358083 0.603677 0.150393
0.468223 0.598474 0.116075
0.55317 0.581247 0.113542
0.597726 0.538415 0.118151
0.650645 0.518715 0.10927
0.71754 0.533532 0.0945296
0.786618 0.55555 0.0687266
0.854292 0.568124 0.0385443
0.912734 0.570413 0.0167697
0.948852 0.568276 0.00775158
0.961044 0.565774 0.00584421
0.962539 0.563714 0.00492866
0.962676 0.562387 0.00399786
0.962829 0.561852 0.00308232
0.963012 0.562585 0.00280766
0.963058 0.563897 0.00271611
0.962982 0.565728 0.00332647
0.962814 0.567956 0.004654
0.96257 0.57203 0.00639353
0.0178683 0.511223 0.46537
0.0201419 0.519127 0.465736
0.0246891 0.529625 0.462593
0.032105 0.540948 0.455009
0.0468299 0.552483 0.439597
0.0670939 0.564202 0.412741
0.0923629 0.574533 0.370901
0.12134 0.582361 0.305379
0.159762 0.602884 0.244694
0.211063 0.651362 0.235889
0.228641 0.665064 0.220066
0.263951 0.663569 0.214069
0.30222 0.661646 0.210605
0.302281 0.661418 0.206714
0.338491 0.659709 0.182849
0.443214 0.657053 0.138399
0.555169 0.655558 0.109514
0.621942 0.640787 0.139116
0.653391 0.592874 0.134951
0.702907 0.573129 0.125887
0.768643 0.586404 0.111559
0.838392 0.609262 0.0854658
0.899672 0.624811 0.0558633
0.941009 0.62974 0.0366674
0.958251 0.629038 0.0310674
0.961151 0.627802 0.0292363
0.961105 0.626963 0.0280156
0.961044 0.626215 0.0282902
0.961044 0.625467 0.0286564
0.961013 0.625605 0.0294499
0.961013 0.626505 0.0307012
0.961028 0.62797 0.0323339
0.961044 0.631235 0.0350652
0.0157778 0.566049 0.518181
0.0174105 0.57319 0.518334
0.0213474 0.582696 0.515267
0.0285649 0.59292 0.508537
0.0411078 0.603723 0.495705
0.0592813 0.614969 0.473671
0.0828565 0.625208 0.439124
0.110719 0.633417 0.384955
0.148791 0.646906 0.303746
0.202762 0.67924 0.213428
0.237995 0.718151 0.248463
0.268238 0.719982 0.234195
0.308949 0.717784 0.228367
0.319951 0.716243 0.226474
0.33402 0.713512 0.212299
0.41033 0.708888 0.173617
0.547051 0.706401 0.125643
0.622995 0.708141 0.124056
0.673915 0.688182 0.154421
0.707927 0.646647 0.150881
0.756848 0.628687 0.142275
0.820523 0.638804 0.126604
0.884398 0.658351 0.103639
0.931456 0.670619 0.0842145
0.95433 0.672999 0.0763104
0.958999 0.671687 0.0747082
0.959045 0.670649 0.0736248
0.959075 0.669902 0.0731365
0.95903 0.669566 0.073167
0.958938 0.669734 0.0737621
0.958831 0.670405 0.0748455
0.958679 0.671656 0.076524
0.958495 0.673976 0.0793317
0.0124819 0.617212 0.568124
0.0137636 0.623835 0.568521
0.0175021 0.632563 0.565728
0.0246586 0.642039 0.559716
0.0352636 0.652552 0.549249
0.0516518 0.663127 0.530114
0.0729686 0.673167 0.501076
0.0991379 0.681483 0.456031
0.134783 0.689174 0.385351
0.187274 0.705455 0.292958
0.244114 0.766629 0.277058
0.272755 0.774655 0.260563
0.313497 0.773938 0.248829
0.341253 0.771054 0.2439
0.334234 0.768429 0.238239
0.368765 0.763561 0.211444
0.520714 0.757153 0.156817
0.612314 0.762295 0.1234
0.681361 0.760784 0.151476
0.726726 0.736858 0.172137
0.762173 0.699733 0.170336
0.810834 0.683162 0.159579
0.869535 0.689082 0.144549
0.920485 0.700328 0.130449
0.94902 0.704631 0.122805
0.955779 0.70367 0.121157
0.956039 0.702678 0.119921
0.9561 0.702007 0.119203
0.9561 0.701701 0.118898
0.956085 0.701869 0.119249
0.956054 0.702541 0.120302
0.955993 0.703624 0.121904
0.955856 0.705226 0.124163
0.00961318 0.665782 0.615442
0.0113832 0.671946 0.615839
0.0155032 0.680262 0.613275
0.0222477 0.689403 0.607752
0.0315709 0.699199 0.598062
0.0458534 0.709377 0.581659
0.0649577 0.719188 0.556527
0.0887312 0.727794 0.519234
0.121279 0.734066 0.463737
0.170077 0.742962 0.384207
0.238956 0.798932 0.266072
0.275578 0.82475 0.281956
0.317723 0.829282 0.273472
0.356191 0.826963 0.263218
0.356588 0.823819 0.259586
0.364004 0.819303 0.243992
0.468147 0.811597 0.196109
0.599664 0.811719 0.138842
0.675441 0.817472 0.13817
0.737148 0.811994 0.174929
0.781216 0.787823 0.194232
0.818311 0.754757 0.19144
0.862211 0.73521 0.179782
0.908919 0.732311 0.169543
0.941192 0.734279 0.16408
0.951522 0.733303 0.162173
0.952575 0.732128 0.160891
0.952651 0.731456 0.160204
0.952682 0.73106 0.159884
0.952682 0.731075 0.160082
0.952651 0.731441 0.1608
0.952605 0.732403 0.161837
0.952483 0.733898 0.163348
0.0084535 0.712551 0.660029
0.0107271 0.718517 0.660487
0.0152438 0.726787 0.658122
0.0214542 0.735821 0.652918
0.0301976 0.745571 0.643931
0.0431373 0.75555 0.629465
0.0602731 0.765377 0.607477
0.0816968 0.774472 0.575753
0.110307 0.781353 0.530785
0.154025 0.788113 0.460975
0.225818 0.823774 0.29987
0.276448 0.870695 0.309514
0.321477 0.882445 0.301472
0.365209 0.880568 0.286091
0.384649 0.877577 0.27834
0.382849 0.873625 0.269306
0.421698 0.866163 0.236179
0.579049 0.859602 0.177111
0.663981 0.865934 0.137987
0.73373 0.869917 0.155215
0.793133 0.864012 0.197894
0.835172 0.8383 0.217014
0.868849 0.803784 0.212467
0.903273 0.77908 0.202304
0.933318 0.770474 0.196841
0.94754 0.768154 0.195163
0.949615 0.766537 0.194125
0.94963 0.765332 0.193408
0.949645 0.764675 0.193042
0.949691 0.764508 0.19295
0.949706 0.764828 0.193179
0.949722 0.765835 0.193668
0.949691 0.767544 0.194583
0.00819409 0.758709 0.703532
0.0105745 0.764599 0.704097
0.015259 0.773083 0.702052
0.0214084 0.782055 0.696971
0.0301671 0.791867 0.68835
0.0428779 0.802075 0.674876
0.0589761 0.812131 0.654749
0.0783551 0.821469 0.626825
0.103578 0.82919 0.587839
0.141115 0.834958 0.529458
0.210666 0.849928 0.408515
0.271839 0.904952 0.336446
0.32076 0.922026 0.322393
0.368597 0.921935 0.311025
0.402487 0.919402 0.296864
0.401038 0.916609 0.288518
0.398169 0.911727 0.268986
0.547997 0.902449 0.218952
0.656657 0.905608 0.160952
0.724392 0.913771 0.132296
0.79176 0.915648 0.184192
0.845609 0.904372 0.227268
0.879789 0.871366 0.235233
0.90518 0.833432 0.225879
0.929778 0.812406 0.218509
0.945983 0.807523 0.216632
0.94905 0.805753 0.215976
0.948989 0.804685 0.215747
0.948974 0.803937 0.215457
0.94902 0.803571 0.215183
0.949035 0.803632 0.215045
0.949065 0.804334 0.215091
0.949111 0.805539 0.215396
0.00856031 0.804837 0.747921
0.011017 0.810727 0.748257
0.0157626 0.819272 0.745922
0.0218509 0.828275 0.740795
0.0306249 0.838239 0.732158
0.0432441 0.848432 0.718944
0.058854 0.858457 0.700069
0.0774853 0.867872 0.674067
0.100389 0.875837 0.638926
0.132357 0.881193 0.591241
0.196872 0.882261 0.523934
0.260578 0.925124 0.35079
0.312001 0.943343 0.32874
0.36321 0.946044 0.331106
0.406073 0.944244 0.314275
0.410391 0.942687 0.301305
0.389807 0.941451 0.28893
0.512917 0.933562 0.242298
0.654078 0.932357 0.1879
0.71809 0.942275 0.127108
0.785626 0.945739 0.171206
0.844266 0.938506 0.223819
0.882979 0.911971 0.242527
0.907759 0.874601 0.236881
0.929244 0.847028 0.227878
0.946319 0.839582 0.22504
0.95024 0.838849 0.225025
0.950256 0.838209 0.22501
0.950256 0.837629 0.22501
0.95024 0.837125 0.224918
0.950179 0.836561 0.224674
0.950103 0.836271 0.224399
0.950057 0.836408 0.224186
0.00982681 0.85156 0.791089
0.011902 0.857496 0.791714
0.0160983 0.865965 0.789517
0.0217899 0.874968 0.784466
0.0303502 0.884703 0.775952
0.0426795 0.894148 0.763073
0.0576181 0.903075 0.744961
0.0752117 0.911162 0.720119
0.0967727 0.918196 0.687083
0.126024 0.92282 0.643748
0.18471 0.923232 0.586587
0.24622 0.943145 0.388251
0.295598 0.956725 0.336843
0.347555 0.960418 0.337881
0.397055 0.958968 0.327169
0.41265 0.957549 0.309133
0.393286 0.956497 0.295003
0.47953 0.950957 0.252949
0.648554 0.946685 0.193454
0.715984 0.955749 0.136294
0.781445 0.959625 0.167178
0.839857 0.952743 0.218631
0.879957 0.927611 0.24239
0.905135 0.890379 0.238331
0.926268 0.860945 0.228626
0.945174 0.852384 0.225147
0.950103 0.852125 0.22504
0.950256 0.851743 0.225025
0.950256 0.851041 0.225025
0.950271 0.850416 0.225025
0.950256 0.849958 0.225025
0.950271 0.849668 0.225025
0.950271 0.849577 0.225025
0.00874342 0.8981 0.834455
0.0104372 0.903166 0.834852
0.0142367 0.910689 0.832502
0.0196384 0.91902 0.827558
0.0280156 0.928038 0.819043
0.0387274 0.935256 0.805783
0.0505531 0.940551 0.787976
0.0644541 0.944503 0.764508
0.083238 0.947982 0.733639
0.112047 0.950469 0.692851
0.165698 0.950988 0.641016
0.224811 0.956725 0.527581
0.274708 0.962005 0.38172
0.329366 0.963897 0.33109
0.384588 0.963378 0.338064
0.412741 0.962676 0.321004
0.40238 0.962097 0.298665
0.440848 0.959304 0.263111
0.635279 0.952041 0.197482
0.713664 0.958846 0.139574
0.7785 0.962264 0.161349
0.83653 0.955367 0.213779
0.877455 0.93109 0.242115
0.902739 0.893599 0.239384
0.923323 0.86244 0.229313
0.942901 0.852811 0.22536
0.949737 0.852186 0.225025
0.950271 0.852186 0.225025
0.950271 0.852186 0.225025
0.950271 0.852186 0.225025
