Shader/中性冷青.cube
TITLE "Generated by Resolve"
LUT_3D_SIZE 9
0 0 0
0 0 0
0.0956893 0.00228885 0.00288396
0.412634 0.0308385 0.0149691
0.695048 0.0688029 0.0224308
0.946624 0.0993973 0.0298619
0.96347 0.100328 0.0301518
0.96347 0.100328 0.0301518
0.96347 0.100328 0.0301518
0 0 0
0 0 0
0.0686503 0.00114443 0.00140383
0.385794 0.0271916 0.0137179
0.680842 0.0664988 0.0224613
0.943771 0.0991989 0.0297551
0.96347 0.100328 0.0301518
0.96347 0.100328 0.0301518
0.96347 0.100328 0.0301518
0.00148013 0.0104677 0.0105745
0.0043946 0.0281834 0.00384527
0.0350347 0.0390784 0.00616464
0.330358 0.0573892 0.0106661
0.632074 0.080354 0.021149
0.916426 0.106126 0.0294347
0.96347 0.106569 0.0301671
0.96347 0.107073 0.0301518
0.96347 0.108797 0.0301823
0.0129091 0.158801 0.145815
0.0338903 0.194491 0.0995346
0.0859236 0.254398 0.0728771
0.226673 0.23563 0.0479438
0.574121 0.239078 0.00840772
0.857069 0.249607 0.0216373
0.963317 0.251377 0.0256352
0.963317 0.250263 0.0254215
0.963302 0.257053 0.0245518
0.0204471 0.390814 0.351629
0.0533913 0.437232 0.317052
0.166491 0.518578 0.181262
0.264012 0.543633 0.169833
0.53315 0.479728 0.0996872
0.80032 0.504417 0.0252232
0.962692 0.490791 0.00234989
0.963134 0.487556 0.00192264
0.963058 0.498497 0.00244144
0.0124819 0.617212 0.568124
0.0352636 0.652552 0.549249
0.134783 0.689174 0.385351
0.313497 0.773938 0.248829
0.520714 0.757153 0.156817
0.762173 0.699733 0.170336
0.94902 0.704631 0.122805
0.9561 0.701701 0.118898
0.955856 0.705226 0.124163
0.00856031 0.804837 0.747921
0.0306249 0.838239 0.732158
0.100389 0.875837 0.638926
0.312001 0.943343 0.32874
0.389807 0.941451 0.28893
0.785626 0.945739 0.171206
0.929244 0.847028 0.227878
0.950256 0.837629 0.22501
0.950057 0.836408 0.224186
0.000381476 0.956069 0.913039
0.00167849 0.963317 0.900862
0.0323949 0.966094 0.823987
0.235477 0.965164 0.508858
0.41178 0.962737 0.32253
0.776425 0.96228 0.160464
0.919356 0.864378 0.230564
0.950271 0.852186 0.225025
0.950271 0.852186 0.225025
0 0.967178 0.956191
0 0.967178 0.956085
0.00291447 0.967147 0.948196
0.158404 0.966323 0.780346
0.410773 0.963592 0.366903
0.77348 0.961654 0.164981
0.921355 0.862989 0.229664
0.950271 0.852186 0.225025
0.950271 0.852186 0.225025
0 1.5259e-05 7.62951e-05
0 0 0
0.0914778 0.00205997 0.00277714
0.408576 0.0302739 0.0148775
0.693049 0.068513 0.0224155
0.946517 0.0993973 0.0299077
0.96347 0.100328 0.0301518
0.96347 0.100328 0.0301518
0.96347 0.100328 0.0301518
0 0 0
0 0 0
0.0672618 0.00105287 0.00138857
0.385763 0.0271763 0.0136568
0.682536 0.0666667 0.0225376
0.944488 0.0993057 0.0297551
0.96347 0.100328 0.0301518
0.96347 0.100328 0.0301518
0.96347 0.100328 0.0301518
0.00376898 0.0241398 0.00347906
0.00386053 0.0236057 0.0225986
0.0348821 0.0377356 0.00593576
0.330053 0.0562142 0.0107118
0.632578 0.079057 0.0212558
0.916381 0.106172 0.0293889
0.96347 0.107057 0.0301671
0.96347 0.107591 0.0301671
0.963455 0.10811 0.0301671
0.0257877 0.189578 0.123278
0.0167239 0.194644 0.183078
0.0695659 0.238025 0.0785229
0.226261 0.233768 0.0470741
0.574914 0.238666 0.00859083
0.858167 0.249775 0.0217136
0.963317 0.251133 0.0256809
0.963317 0.249775 0.0253758
0.963302 0.256977 0.0246281
0.0280003 0.420356 0.357763
0.0162661 0.433997 0.40061
0.0853742 0.477272 0.297383
0.263218 0.544961 0.171252
0.534173 0.479011 0.0994583
0.801144 0.503731 0.0256962
0.9626 0.490379 0.0021973
0.963149 0.48687 0.0019379
0.963027 0.497581 0.00254826
0.0126802 0.635752 0.583612
0.00772107 0.650492 0.607477
0.0500496 0.686625 0.555276
0.281071 0.764157 0.270329
0.520058 0.756832 0.155993
0.761624 0.697856 0.169863
0.94905 0.703929 0.122316
0.956176 0.701076 0.117952
0.956039 0.70454 0.122942
0.00769055 0.819547 0.767346
0.00605783 0.836179 0.783001
0.0442817 0.871229 0.74258
0.234821 0.907042 0.517388
0.408545 0.942397 0.305455
0.786923 0.945052 0.173205
0.929213 0.846616 0.227863
0.950195 0.835935 0.22472
0.949935 0.834257 0.223667
0 0.958968 0.929427
0 0.96347 0.936034
0.0102541 0.966323 0.910674
0.136599 0.966354 0.768261
0.404639 0.963607 0.363622
0.772717 0.961715 0.165026
0.919203 0.865446 0.230869
0.950271 0.852186 0.225025
0.950271 0.852186 0.225025
0 0.967178 0.956191
0.00239567 0.967178 0.956252
0.0274357 0.967102 0.95639
0.122087 0.966781 0.92221
0.339803 0.964065 0.388525
0.749187 0.959823 0.170001
0.920668 0.864118 0.230137
0.950271 0.852186 0.225025
0.950271 0.852186 0.225025
0.0180819 0.0375677 0.140246
0.0158999 0.0330205 0.127169
0.0701457 0.0198367 0.107851
0.389059 0.0142367 0.0645151
0.693645 0.0487526 0.0546883
0.944198 0.0908064 0.0467689
0.9635 0.0953078 0.039826
0.9635 0.0956436 0.0395514
0.963516 0.0957046 0.0402228
0.0131685 0.0269017 0.10837
0.0124056 0.0249027 0.100938
0.0554818 0.0181582 0.0883192
0.367239 0.0142367 0.0561532
0.684215 0.0479744 0.053666
0.942184 0.090074 0.0487678
0.963531 0.0946059 0.0423438
0.963561 0.0967117 0.0378882
0.963623 0.0944839 0.0419165
0.00578317 0.0577401 0.0670787
0.00538643 0.0552224 0.0648508
0.0326543 0.0427863 0.0573281
0.314916 0.0464485 0.0308385
0.633692 0.0697185 0.0337987
0.914244 0.102358 0.036347
0.96347 0.104417 0.03505
0.963485 0.104295 0.0352483
0.963485 0.103914 0.0351415
0.0532235 0.245289 0.10605
0.0435035 0.239231 0.124529
0.0382849 0.227512 0.210239
0.221225 0.229709 0.0522469
0.571176 0.234119 0.0117189
0.855024 0.246143 0.0229191
0.963317 0.248157 0.0267185
0.963317 0.246571 0.0265507
0.963302 0.253834 0.0256046
0.11754 0.485115 0.205188
0.0645762 0.48275 0.340139
0.0435492 0.471061 0.439796
0.222782 0.52874 0.232502
0.531502 0.475502 0.0990005
0.797772 0.498451 0.0250706
0.962402 0.484306 0.00196841
0.963149 0.480583 0.0019379
0.963027 0.491508 0.00248722
0.0974136 0.688457 0.467674
0.0253147 0.682353 0.592981
0.0373388 0.678843 0.6421
0.143328 0.708934 0.544762
0.465278 0.756893 0.1935
0.757641 0.692195 0.167971
0.947829 0.700801 0.1187
0.956558 0.698268 0.113512
0.956466 0.701671 0.118379
0.0687724 0.872145 0.694926
0.0157168 0.862486 0.785595
0.0468605 0.863294 0.816556
0.130877 0.89514 0.749477
0.384146 0.942657 0.341756
0.783886 0.941909 0.174044
0.927535 0.846021 0.228428
0.94995 0.831586 0.223758
0.949737 0.830167 0.222889
0.00343328 0.966323 0.890837
1.5259e-05 0.965957 0.939849
0.0570077 0.966186 0.949874
0.139162 0.96672 0.918273
0.298497 0.965255 0.601434
0.731243 0.959564 0.199893
0.917601 0.867704 0.231662
0.950271 0.852186 0.225025
0.950271 0.852186 0.225025
0 0.967178 0.956191
0.00366217 0.967163 0.956252
0.101076 0.966918 0.957122
0.193301 0.966674 0.957931
0.415366 0.96585 0.858381
0.636515 0.958236 0.254994
0.91841 0.867842 0.233707
0.950271 0.852186 0.225025
0.950271 0.852186 0.225025
0.0662547 0.166873 0.433768
0.064622 0.160311 0.419532
0.103899 0.109773 0.397665
0.367803 0.00328069 0.398276
0.697978 0.0197299 0.307897
0.943786 0.0295262 0.209384
0.966628 0.031693 0.186328
0.96672 0.0332494 0.17525
0.96669 0.0296788 0.177478
0.0617685 0.151385 0.399496
0.0606546 0.147814 0.391638
0.0925307 0.10721 0.375799
0.34612 0.00325017 0.383902
0.689708 0.0195926 0.303563
0.941421 0.0316625 0.205203
0.966613 0.0319982 0.187015
0.966644 0.0309758 0.183673
0.966583 0.0321965 0.191684
0.0102693 0.167773 0.322133
0.0131838 0.165545 0.320348
0.0509804 0.140719 0.315785
0.277134 0.0244144 0.329107
0.646052 0.0276493 0.248142
0.915557 0.0385443 0.164965
0.966827 0.0400549 0.158923
0.966827 0.0416724 0.157
0.966827 0.0402533 0.15845
0.0195773 0.290517 0.302083
0.0196078 0.292241 0.302724
0.0247196 0.27921 0.288655
0.20119 0.257435 0.268437
0.571313 0.240848 0.19649
0.855268 0.263691 0.172412
0.963714 0.263539 0.158633
0.96376 0.260929 0.154879
0.963607 0.271702 0.164691
0.0899672 0.541955 0.343008
0.088365 0.54139 0.346258
0.0772717 0.525017 0.365652
0.205447 0.503059 0.478004
0.52256 0.500282 0.220844
0.786114 0.488746 0.13756
0.962371 0.472648 0.112108
0.963348 0.468696 0.107759
0.963348 0.477363 0.112566
0.130434 0.734813 0.435294
0.113436 0.734524 0.475349
0.059556 0.720485 0.580743
0.223484 0.702327 0.674449
0.363577 0.7467 0.387335
0.752331 0.699397 0.232853
0.947524 0.709178 0.156832
0.95845 0.704936 0.14728
0.958343 0.7093 0.153933
0.140841 0.914916 0.585214
0.109499 0.915908 0.656168
0.0487221 0.899855 0.78407
0.250324 0.884062 0.848188
0.366354 0.911574 0.725338
0.739712 0.935836 0.237842
0.925338 0.850172 0.258244
0.950164 0.831296 0.247364
0.950134 0.829923 0.247013
0.07364 0.966476 0.75082
0.021561 0.966842 0.842344
0.0319371 0.96701 0.944488
0.292927 0.9664 0.955612
0.413886 0.966003 0.918074
0.603082 0.953674 0.31339
0.915846 0.88191 0.290364
0.950286 0.854109 0.235004
0.950286 0.854032 0.234226
0.00131228 0.967071 0.91046
0 0.967163 0.951843
0.0692302 0.96701 0.956847
0.35378 0.966262 0.959335
0.458595 0.965988 0.959915
0.545541 0.963745 0.624796
0.914611 0.901411 0.360143
0.950301 0.855772 0.245258
0.950271 0.852918 0.229862
0.0851911 0.289815 0.699489
0.0855879 0.284657 0.689998
0.154742 0.238346 0.683177
0.312978 0.0465095 0.695857
0.684291 0.000442512 0.686824
0.933379 0.0104219 0.649317
0.961242 0.0133364 0.623667
0.961303 0.0138857 0.613626
0.961242 0.0130007 0.622065
0.0851759 0.278325 0.676997
0.084535 0.275975 0.671351
0.144793 0.24004 0.669245
0.293233 0.0510567 0.686778
0.678401 0.000442512 0.684337
0.932296 0.00988785 0.654108
0.961166 0.012253 0.633341
0.961227 0.0131075 0.625757
0.961166 0.0125582 0.634195
0.0218509 0.285832 0.593057
0.0246738 0.284459 0.592126
0.0749371 0.266911 0.602274
0.22034 0.0961929 0.634165
0.635111 0.00889601 0.646433
0.905882 0.0162661 0.611582
0.961486 0.0178683 0.588586
0.961517 0.0178531 0.583047
0.961425 0.0178225 0.597086
0.0314794 0.420478 0.643488
0.0320897 0.422309 0.644602
0.0340887 0.410605 0.63006
0.163622 0.370565 0.542779
0.575174 0.218067 0.591257
0.858763 0.199405 0.534707
0.962921 0.187243 0.494362
0.962966 0.184619 0.490761
0.962753 0.195926 0.505257
0.00581369 0.570047 0.570626
0.0112154 0.575479 0.575265
0.0135195 0.566201 0.565255
0.122316 0.550332 0.549569
0.497673 0.532403 0.542382
0.782284 0.501045 0.463386
0.963058 0.503105 0.440696
0.964233 0.498116 0.433921
0.96408 0.513924 0.449653
0.0617533 0.780209 0.618997
0.0610666 0.78143 0.621103
0.0600137 0.770077 0.612192
0.124041 0.74876 0.613458
0.508339 0.72546 0.701396
0.743862 0.727306 0.477333
0.949767 0.722911 0.396872
0.963027 0.717266 0.38323
0.963073 0.723049 0.387884
0.110674 0.950423 0.681941
0.108553 0.949935 0.685512
0.102541 0.941436 0.696117
0.142535 0.924666 0.775174
0.531518 0.902174 0.875105
0.643565 0.927565 0.554925
0.924758 0.879576 0.46247
0.953048 0.857832 0.446235
0.953079 0.856641 0.44445
0.0646372 0.966537 0.766308
0.0536355 0.966613 0.785595
0.029099 0.966796 0.83386
0.175128 0.966674 0.938735
0.561624 0.965682 0.960815
0.67483 0.965286 0.904158
0.9131 0.922164 0.510475
0.952987 0.884352 0.416358
0.952865 0.883619 0.410468
0.00633249 0.966949 0.875853
0.000274662 0.967041 0.9037
0.0101015 0.967132 0.946746
0.245853 0.966537 0.958389
0.602396 0.965621 0.961517
0.679423 0.965423 0.961715
0.87805 0.946654 0.609873
0.953094 0.887419 0.437095
0.952712 0.880262 0.390463
0.103944 0.365194 0.876234
0.103319 0.365087 0.874327
0.186709 0.336034 0.8925
0.257176 0.180453 0.896452
0.671077 0.00114443 0.94548
0.92575 0.000610361 0.932128
0.960662 0.000518807 0.920104
0.960784 0.000503548 0.915541
0.960616 0.000518807 0.919982
0.102281 0.364904 0.871168
0.102129 0.364874 0.870741
0.173709 0.341939 0.888075
0.255268 0.199756 0.889891
0.667552 0.00103761 0.943221
0.926375 0.000610361 0.934569
0.96025 0.000534066 0.925353
0.960525 0.000518807 0.919936
0.960342 0.000534066 0.925917
0.0394293 0.385 0.817548
0.0413062 0.384344 0.817411
0.0918288 0.37232 0.83595
0.25098 0.257298 0.867079
0.624231 0.00817884 0.918395
0.898039 0.00451667 0.906935
0.960876 0.0028687 0.897932
0.96083 0.00282292 0.895979
0.961059 0.00299077 0.903624
0.0210117 0.521706 0.852262
0.0208438 0.523156 0.855344
0.0162661 0.512078 0.837736
0.136263 0.459846 0.749279
0.502754 0.229374 0.856764
0.850431 0.19144 0.859022
0.96173 0.178378 0.848569
0.961929 0.175402 0.845441
0.961883 0.186374 0.854749
0.0492103 0.654047 0.862058
0.0496529 0.657572 0.864302
0.0482795 0.648157 0.854047
0.165499 0.639673 0.841337
0.450233 0.595438 0.748012
0.788846 0.496712 0.796948
0.961151 0.481971 0.773602
0.962127 0.477638 0.768811
0.962142 0.488014 0.777813
0.0089723 0.804807 0.802853
0.00883497 0.808515 0.804639
0.00868238 0.798672 0.79382
0.0630808 0.783017 0.777462
0.411658 0.764874 0.759808
0.722637 0.745998 0.742885
0.948455 0.729778 0.704692
0.964309 0.723156 0.695048
0.964309 0.728069 0.698375
0.0157626 0.962661 0.851102
0.0142977 0.963928 0.852674
0.0201419 0.95967 0.841306
0.068925 0.951308 0.823117
0.379049 0.936355 0.816831
0.735561 0.91635 0.897612
0.921492 0.907317 0.699138
0.957855 0.888792 0.686046
0.9579 0.888655 0.683619
0.000411994 0.967071 0.914488
0.000228885 0.967071 0.916579
0.00108339 0.967056 0.907179
0.0743114 0.966827 0.896956
0.432258 0.966003 0.936004
0.758633 0.965225 0.962875
0.861875 0.956222 0.808759
0.957168 0.919402 0.653223
0.957168 0.918425 0.647578
0 0.967178 0.950759
0 0.967163 0.950561
0.000656138 0.967163 0.949676
0.124498 0.966857 0.953826
0.4813 0.965927 0.960449
0.786542 0.965148 0.963134
0.864225 0.964645 0.944198
0.957595 0.922667 0.679103
0.956695 0.914748 0.624292
0.103944 0.365194 0.876234
0.103944 0.365194 0.876234
0.183444 0.339971 0.897322
0.25481 0.192264 0.905303
0.663615 0.00134279 0.967056
0.921035 0.000701915 0.969024
0.959045 0.000640879 0.969299
0.959045 0.000640879 0.969299
0.959045 0.000640879 0.969299
0.103944 0.365194 0.876234
0.103944 0.365194 0.876234
0.170687 0.344488 0.89427
0.255955 0.20943 0.902724
0.66212 0.00109865 0.967178
0.922713 0.000686656 0.969039
0.959045 0.000640879 0.969299
0.959045 0.000640879 0.969299
0.959045 0.000640879 0.969299
0.0498207 0.386145 0.841611
0.0525216 0.385458 0.84329
0.0971542 0.374304 0.86334
0.252323 0.264637 0.898528
0.617411 0.00766003 0.96585
0.893767 0.00408942 0.968795
0.959045 0.00273136 0.969284
0.959045 0.00256352 0.969284
0.959045 0.00280766 0.969284
0 0.52282 0.863355
0 0.524422 0.865705
0 0.516197 0.852979
0.142535 0.479713 0.818998
0.461692 0.249149 0.934981
0.844907 0.187106 0.967575
0.959655 0.173114 0.96846
0.95964 0.170611 0.968475
0.959686 0.181659 0.968429
0.0572671 0.688045 0.982971
0.0570382 0.690013 0.982666
0.0579538 0.685313 0.983917
0.178073 0.677043 0.9776
0.422553 0.620432 0.851652
0.775814 0.493446 0.961151
0.959747 0.477317 0.9664
0.960723 0.471504 0.966461
0.960769 0.481422 0.965286
0.0326848 0.823804 0.957794
0.0324407 0.8262 0.957687
0.0343023 0.818982 0.958373
0.100099 0.810483 0.960067
0.421958 0.810758 0.964935
0.693843 0.781979 0.908553
0.945129 0.722271 0.950881
0.9617 0.714946 0.951019
0.961944 0.718746 0.950607
0 0.967178 0.955917
0 0.966476 0.954726
0 0.963424 0.951995
0.0250553 0.959564 0.948837
0.326726 0.953597 0.946136
0.670146 0.941573 0.936172
0.914763 0.926543 0.925155
0.962768 0.917174 0.910475
0.962921 0.916136 0.90898
0 0.967178 0.956191
0 0.967178 0.956191
0 0.967178 0.956176
0.0143282 0.967132 0.955627
0.289021 0.966415 0.955413
0.659632 0.965469 0.957549
0.919432 0.964813 0.964248
0.96231 0.953185 0.874418
0.962051 0.95172 0.866728
0 0.967178 0.956191
0 0.967178 0.956191
0 0.967178 0.956191
0.0266575 0.967117 0.956466
0.342153 0.966293 0.959213
0.688334 0.965408 0.962264
0.935271 0.964767 0.964431
0.963775 0.96173 0.930877
0.961028 0.947402 0.839994
0.103944 0.365194 0.876234
0.103944 0.365194 0.876234
0.182254 0.341619 0.897307
0.25388 0.197452 0.904067
0.660929 0.00144961 0.967025
0.920241 0.000701915 0.969009
0.959045 0.000640879 0.969299
0.959045 0.000640879 0.969299
0.959045 0.000640879 0.969299
0.103944 0.365194 0.876234
0.103944 0.365194 0.876234
0.169497 0.345403 0.894316
0.256321 0.21033 0.903334
0.660349 0.00109865 0.967163
0.92163 0.000686656 0.969024
0.959045 0.000640879 0.969299
0.959045 0.000640879 0.969299
0.959045 0.000640879 0.969299
0.0532235 0.385138 0.843626
0.0567178 0.383917 0.84593
0.0959335 0.372992 0.86363
0.25124 0.263005 0.89839
0.616007 0.0081178 0.965682
0.893584 0.00407416 0.968795
0.959045 0.00283818 0.969284
0.959045 0.00233463 0.969284
0.959045 0.00283818 0.969284
0 0.522301 0.862638
0 0.523476 0.86453
0 0.515465 0.852003
0.142657 0.479088 0.819669
0.465293 0.250721 0.935286
0.844923 0.186297 0.967575
0.959655 0.172778 0.968475
0.959655 0.169833 0.96849
0.959686 0.180972 0.968429
0.0572366 0.6878 0.983185
0.0570993 0.689647 0.982849
0.0581521 0.685161 0.983871
0.178302 0.67689 0.97763
0.419974 0.61886 0.851164
0.774563 0.49279 0.961669
0.960494 0.475731 0.967025
0.960723 0.470436 0.967041
0.960754 0.479805 0.966995
0.0328527 0.823743 0.957931
0.0325628 0.825483 0.957839
0.0344854 0.818204 0.958587
0.100282 0.809812 0.960342
0.419745 0.810193 0.969131
0.694011 0.780697 0.918944
0.945068 0.720455 0.965728
0.961593 0.712825 0.965881
0.961608 0.716258 0.965866
0 0.967178 0.956191
0 0.965438 0.956222
0 0.962829 0.956252
0.0251774 0.959136 0.956558
0.32607 0.952483 0.959274
0.667887 0.940627 0.962097
0.908904 0.927535 0.961883
0.963211 0.916777 0.964904
0.963348 0.915679 0.96492
0 0.967178 0.956191
0 0.967178 0.956191
0 0.967178 0.956191
0.0142672 0.967147 0.956359
0.274662 0.966476 0.958648
0.626444 0.965576 0.96173
0.87216 0.964935 0.963882
0.964691 0.964691 0.964691
0.964691 0.964691 0.964691
0 0.967178 0.956191
0 0.967178 0.956191
0 0.967178 0.956191
0.00994888 0.967147 0.956298
0.251255 0.966537 0.958434
0.608148 0.965606 0.961563
0.869688 0.964935 0.963867
0.964691 0.964691 0.964691
0.964691 0.964691 0.964492
0.103944 0.365194 0.876234
0.103944 0.365194 0.876234
0.184115 0.3411 0.897398
0.256458 0.197528 0.90428
0.663828 0.00144961 0.967056
0.92282 0.000701915 0.969039
0.959045 0.000640879 0.969299
0.959045 0.000640879 0.969299
0.959045 0.000640879 0.969299
0.103944 0.365194 0.876234
0.103944 0.365194 0.876234
0.171649 0.344594 0.895033
0.256596 0.204562 0.904524
0.663539 0.00109865 0.967193
0.923079 0.000686656 0.969039
0.959045 0.000640879 0.969299
0.959045 0.000640879 0.969299
0.959045 0.000640879 0.969299
0.0521859 0.385763 0.842664
0.0530098 0.385519 0.843244
0.0975662 0.374792 0.863828
0.252338 0.26302 0.898436
0.620615 0.0100404 0.965774
0.897902 0.00460822 0.968841
0.95906 0.0031281 0.969284
0.959045 0.00228885 0.969284
0.95906 0.00352483 0.969284
0.000137331 0.52578 0.867399
0 0.526833 0.869383
0 0.518532 0.855833
0.147158 0.481025 0.820233
0.477104 0.254063 0.93695
0.849546 0.19147 0.96759
0.95967 0.177737 0.96846
0.95967 0.174273 0.96846
0.959701 0.186389 0.968414
0.0568093 0.69044 0.982651
0.0567025 0.692012 0.982269
0.0577554 0.687495 0.983215
0.182773 0.679881 0.978012
0.42649 0.622156 0.852689
0.778927 0.497566 0.961639
0.960449 0.480049 0.966995
0.960739 0.474525 0.967025
0.960769 0.484352 0.96698
0.0320897 0.826902 0.957717
0.0318761 0.827939 0.957839
0.0339208 0.820539 0.958556
0.102785 0.812177 0.960113
0.424002 0.812284 0.968963
0.698177 0.782361 0.920577
0.947982 0.723079 0.965728
0.961608 0.715328 0.965866
0.961608 0.718425 0.965866
0 0.966934 0.956191
0 0.965179 0.956222
0 0.963211 0.956252
0.0259403 0.959915 0.956558
0.329686 0.952575 0.959258
0.6701 0.94052 0.96202
0.910246 0.928832 0.961349
0.963287 0.917815 0.964904
0.963363 0.915587 0.96492
0 0.967178 0.956191
0 0.967178 0.956191
0 0.967178 0.956191
0.014725 0.967147 0.956359
0.276127 0.966476 0.958663
0.627497 0.96556 0.96173
0.873686 0.96492 0.963897
0.964691 0.964691 0.964691
0.964691 0.964691 0.964691
0 0.967178 0.956191
0 0.967178 0.956191
0 0.967178 0.956191
0.0141756 0.967147 0.956344
0.260395 0.966506 0.958511
0.604898 0.965621 0.961532
0.846662 0.964996 0.963653
0.964691 0.964691 0.964691
0.964691 0.964691 0.964691
