Shader/中性冷青.cube
TITLE "Generated by Resolve"
LUT_3D_SIZE 5
0 0 0
0.0956893 0.00228885 0.00288396
0.695048 0.0688029 0.0224308
0.96347 0.100328 0.0301518
0.96347 0.100328 0.0301518
0.00148013 0.0104677 0.0105745
0.0350347 0.0390784 0.00616464
0.632074 0.080354 0.021149
0.96347 0.106569 0.0301671
0.96347 0.108797 0.0301823
0.0204471 0.390814 0.351629
0.166491 0.518578 0.181262
0.53315 0.479728 0.0996872
0.962692 0.490791 0.00234989
0.963058 0.498497 0.00244144
0.00856031 0.804837 0.747921
0.100389 0.875837 0.638926
0.389807 0.941451 0.28893
0.929244 0.847028 0.227878
0.950057 0.836408 0.224186
0 0.967178 0.956191
0.00291447 0.967147 0.948196
0.410773 0.963592 0.366903
0.921355 0.862989 0.229664
0.950271 0.852186 0.225025
0.0180819 0.0375677 0.140246
0.0701457 0.0198367 0.107851
0.693645 0.0487526 0.0546883
0.9635 0.0953078 0.039826
0.963516 0.0957046 0.0402228
0.00578317 0.0577401 0.0670787
0.0326543 0.0427863 0.0573281
0.633692 0.0697185 0.0337987
0.96347 0.104417 0.03505
0.963485 0.103914 0.0351415
0.11754 0.485115 0.205188
0.0435492 0.471061 0.439796
0.531502 0.475502 0.0990005
0.962402 0.484306 0.00196841
0.963027 0.491508 0.00248722
0.0687724 0.872145 0.694926
0.0468605 0.863294 0.816556
0.384146 0.942657 0.341756
0.927535 0.846021 0.228428
0.949737 0.830167 0.222889
0 0.967178 0.956191
0.101076 0.966918 0.957122
0.415366 0.96585 0.858381
0.91841 0.867842 0.233707
0.950271 0.852186 0.225025
0.0851911 0.289815 0.699489
0.154742 0.238346 0.683177
0.684291 0.000442512 0.686824
0.961242 0.0133364 0.623667
0.961242 0.0130007 0.622065
0.0218509 0.285832 0.593057
0.0749371 0.266911 0.602274
0.635111 0.00889601 0.646433
0.961486 0.0178683 0.588586
0.961425 0.0178225 0.597086
0.00581369 0.570047 0.570626
0.0135195 0.566201 0.565255
0.497673 0.532403 0.542382
0.963058 0.503105 0.440696
0.96408 0.513924 0.449653
0.110674 0.950423 0.681941
0.102541 0.941436 0.696117
0.531518 0.902174 0.875105
0.924758 0.879576 0.46247
0.953079 0.856641 0.44445
0.00633249 0.966949 0.875853
0.0101015 0.967132 0.946746
0.602396 0.965621 0.961517
0.87805 0.946654 0.609873
0.952712 0.880262 0.390463
0.103944 0.365194 0.876234
0.183444 0.339971 0.897322
0.663615 0.00134279 0.967056
0.959045 0.000640879 0.969299
0.959045 0.000640879 0.969299
0.0498207 0.386145 0.841611
0.0971542 0.374304 0.86334
0.617411 0.00766003 0.96585
0.959045 0.00273136 0.969284
0.959045 0.00280766 0.969284
0.0572671 0.688045 0.982971
0.0579538 0.685313 0.983917
0.422553 0.620432 0.851652
0.959747 0.477317 0.9664
0.960769 0.481422 0.965286
0 0.967178 0.955917
0 0.963424 0.951995
0.326726 0.953597 0.946136
0.914763 0.926543 0.925155
0.962921 0.916136 0.90898
0 0.967178 0.956191
0 0.967178 0.956191
0.342153 0.966293 0.959213
0.935271 0.964767 0.964431
0.961028 0.947402 0.839994
0.103944 0.365194 0.876234
0.184115 0.3411 0.897398
0.663828 0.00144961 0.967056
0.959045 0.000640879 0.969299
0.959045 0.000640879 0.969299
0.0521859 0.385763 0.842664
0.0975662 0.374792 0.863828
0.620615 0.0100404 0.965774
0.95906 0.0031281 0.969284
0.95906 0.00352483 0.969284
0.0568093 0.69044 0.982651
0.0577554 0.687495 0.983215
0.42649 0.622156 0.852689
0.960449 0.480049 0.966995
0.960769 0.484352 0.96698
0 0.966934 0.956191
0 0.963211 0.956252
0.329686 0.952575 0.959258
0.910246 0.928832 0.961349
0.963363 0.915587 0.96492
0 0.967178 0.956191
0 0.967178 0.956191
0.260395 0.966506 0.958511
0.846662 0.964996 0.963653
0.964691 0.964691 0.964691
