Shader/动漫风格.cube
TITLE "Generated by Resolve"
LUT_3D_SIZE 9
0.0157321 0 0
0.0416419 0 0
0.171649 0 0
0.387259 0.00375372 0
0.458442 0.00172427 0
0.458396 0.00169375 0
0.458396 0.00169375 0
0.458396 0.00169375 0
0.458396 0.00169375 0
0.0147555 0.00549325 0
0.0213169 0.00234989 0
0.121675 0.00108339 0
0.327642 0.00366217 0
0.458228 0.00170901 0
0.458427 0.00170901 0
0.458396 0.00169375 0
0.458396 0.00169375 0
0.458396 0.00169375 0
0.0291752 0.0797284 0
0.0253605 0.0697337 0
0.0711223 0.0751507 0
0.377325 0.0818341 0.00407416
0.52166 0.0524453 0.00706493
0.4869 0.0185092 0.000656138
0.469322 0.00787366 0.000137331
0.462669 0.00399786 0
0.461326 0.00328069 0
0.100008 0.241764 0.00534066
0.0935683 0.224826 0.00105287
0.0842145 0.199481 0.000213626
0.229435 0.255055 1.5259e-05
0.677287 0.241764 0.0597238
0.699275 0.21033 0.0746014
0.669154 0.179721 0.0630961
0.648966 0.159243 0.0549935
0.640589 0.150774 0.0514076
0.203525 0.476539 0.0676585
0.193362 0.457069 0.0608682
0.178729 0.428214 0.0516365
0.216449 0.445365 0.0478218
0.568414 0.471427 0.0322271
0.903761 0.430259 0.112261
0.883207 0.392981 0.114168
0.86276 0.372137 0.112215
0.853956 0.363272 0.111116
0.342321 0.721294 0.161837
0.336248 0.711666 0.15758
0.326589 0.69633 0.15079
0.303426 0.658289 0.134798
0.460548 0.721004 0.103243
0.808042 0.670268 0.094789
1 0.59939 0.116381
0.999969 0.576043 0.116381
0.999939 0.56672 0.11635
0.346746 0.728145 0.165026
0.346746 0.728145 0.165026
0.346746 0.72813 0.165026
0.346731 0.72813 0.165011
0.395499 0.762188 0.161791
0.656779 0.860166 0.126757
0.953231 0.809491 0.123583
0.980835 0.790875 0.122911
0.98291 0.783978 0.122148
0.346746 0.728145 0.165026
0.346746 0.728145 0.165026
0.346746 0.728145 0.165026
0.346731 0.72813 0.165011
0.354299 0.733989 0.165515
0.565881 0.844404 0.137713
0.869627 0.840604 0.123156
0.97612 0.806256 0.124681
0.97612 0.806256 0.124681
0.346746 0.728145 0.165026
0.346746 0.728145 0.165026
0.346746 0.728145 0.165026
0.346731 0.72813 0.165011
0.348837 0.72987 0.165408
0.535592 0.833875 0.140719
0.836347 0.849485 0.122805
0.97612 0.806256 0.124681
0.97612 0.806256 0.124681
0.0134279 0 0.00375372
0.0355535 0 0.00225834
0.155459 0 0.000213626
0.371374 0.00257877 0
0.457771 0.00164797 0
0.45832 0.00169375 0
0.458442 0.00172427 0
0.458427 0.00170901 0
0.458427 0.00170901 0
0.0139315 0.00349432 9.15541e-05
0.0192416 0.00166323 0
0.114046 0.000488289 0
0.320653 0.00343328 0
0.458 0.00170901 0
0.458427 0.00170901 0
0.458412 0.00170901 0
0.458412 0.00169375 0
0.458396 0.00169375 0
0.0273594 0.0751354 0
0.0241398 0.066041 0
0.0660868 0.0702068 0
0.365179 0.0776837 0.00309758
0.512596 0.0468605 0.0047303
0.482322 0.0157168 0.000503548
0.465461 0.00556954 3.0518e-05
0.461585 0.00341802 0
0.460227 0.00268559 0
0.0971695 0.234272 0.00343328
0.0908217 0.217655 0.000274662
0.0814679 0.192432 0.000137331
0.221866 0.246342 1.5259e-05
0.66714 0.233417 0.0564584
0.692836 0.20383 0.0721752
0.662196 0.172656 0.0603647
0.642206 0.152407 0.0521096
0.63386 0.143984 0.0485389
0.199023 0.467887 0.0646525
0.188907 0.448508 0.0578927
0.174853 0.420233 0.0492256
0.208896 0.434684 0.0453498
0.558282 0.462989 0.0296483
0.897154 0.424201 0.111482
0.87628 0.385916 0.113512
0.855741 0.365057 0.11136
0.846815 0.35613 0.11014
0.339971 0.717556 0.160204
0.333272 0.706981 0.155489
0.323354 0.691051 0.148577
0.29836 0.649775 0.13138
0.45156 0.711482 0.100587
0.799725 0.663798 0.0934005
1 0.592447 0.116396
0.999939 0.568597 0.11635
0.998825 0.559472 0.11635
0.346746 0.728145 0.165026
0.346746 0.728145 0.165026
0.346746 0.72813 0.165026
0.346731 0.728115 0.165011
0.391501 0.759579 0.162325
0.649882 0.859388 0.127565
0.949859 0.809689 0.123384
0.982513 0.78529 0.122286
0.984588 0.778393 0.121508
0.346746 0.728145 0.165026
0.346746 0.728145 0.165026
0.346746 0.728145 0.165026
0.346731 0.72813 0.165011
0.352407 0.732525 0.165362
0.558251 0.84213 0.138567
0.861433 0.842939 0.123079
0.97612 0.806256 0.124681
0.97612 0.806256 0.124681
0.346746 0.728145 0.165026
0.346746 0.728145 0.165026
0.346746 0.728145 0.165026
0.346731 0.72813 0.165011
0.348379 0.729488 0.165347
0.52874 0.831205 0.141405
0.828565 0.851026 0.122683
0.97612 0.806256 0.124681
0.97612 0.806256 0.124681
0.00627146 0 0.131914
0.0210422 0 0.10219
0.136217 0 0.0871901
0.32221 0 0.0561837
0.425147 0 0.0328069
0.426795 0 0.0196994
0.427543 0 0.0131228
0.427924 0 0.00762951
0.428351 0 0.00572213
0.00924697 0.00251774 0.0940719
0.0123598 0.000900282 0.0726787
0.0991684 0 0.0525521
0.273579 0 0.0311589
0.426596 0 0.0139162
0.428656 0 0.00508125
0.429816 1.5259e-05 0.00209049
0.432547 1.5259e-05 0.000671397
0.434043 3.0518e-05 0.000259403
0.0142519 0.0789044 0.0883803
0.0135958 0.0683452 0.0738842
0.0698863 0.0694743 0.0608225
0.326925 0.0727855 0.04448
0.479133 0.0343633 0.0118868
0.463386 0.00903334 0.000335698
0.455329 0.00259403 0
0.455695 0.00183108 0
0.456138 0.00154116 0
0.0787366 0.209201 0.00750744
0.0755016 0.196658 0.00344854
0.0728923 0.17789 0.000854505
0.209064 0.23238 0.00015259
0.65095 0.219913 0.0512398
0.683085 0.193912 0.0684825
0.652323 0.162615 0.0564431
0.632959 0.143069 0.0481575
0.624811 0.134859 0.0446632
0.192203 0.454795 0.0601663
0.182574 0.435935 0.0539254
0.169299 0.40882 0.0458381
0.198459 0.419608 0.0415198
0.543191 0.451362 0.0257115
0.887648 0.416007 0.110155
0.867689 0.377157 0.112688
0.847059 0.356374 0.110185
0.838117 0.347463 0.108919
0.336004 0.711299 0.157412
0.329168 0.700496 0.152605
0.317617 0.681651 0.144625
0.292165 0.639353 0.127184
0.44036 0.699718 0.0975662
0.789548 0.656214 0.0916152
0.999985 0.584207 0.116381
0.998993 0.560281 0.11635
0.996994 0.551476 0.116365
0.346746 0.728145 0.165026
0.346746 0.728145 0.165026
0.346746 0.72813 0.165026
0.346731 0.728115 0.165011
0.386938 0.756573 0.162936
0.6421 0.858534 0.12842
0.946212 0.809537 0.123125
0.98439 0.779049 0.121584
0.986374 0.772152 0.120836
0.346746 0.728145 0.165026
0.346746 0.728145 0.165026
0.346746 0.728145 0.165026
0.346731 0.72813 0.165011
0.350835 0.731319 0.165316
0.549996 0.839323 0.139376
0.852354 0.845396 0.122988
0.97612 0.806256 0.124681
0.97612 0.806256 0.124681
0.346746 0.728145 0.165026
0.346746 0.728145 0.165026
0.346746 0.728145 0.165026
0.346731 0.72813 0.165011
0.347967 0.729152 0.16527
0.520989 0.828168 0.142184
0.819913 0.852689 0.122576
0.97612 0.806256 0.124681
0.97612 0.806256 0.124681
0.00627146 0.021912 0.336919
0.0135042 0.00767529 0.295293
0.100481 0.00552377 0.277775
0.283574 1.5259e-05 0.23743
0.429923 0 0.170275
0.428214 0 0.145144
0.426657 0 0.130526
0.425101 0 0.11725
0.424475 0 0.111971
0.00712596 0.0207523 0.292836
0.00741588 0.0115358 0.266804
0.0694133 0.000366217 0.223011
0.242237 0 0.194018
0.424582 0 0.13228
0.424277 0 0.110338
0.422889 0 0.0981613
0.421942 0 0.0878767
0.421637 0 0.0836347
0.0158389 0.102998 0.30518
0.0149386 0.0905623 0.286442
0.0337987 0.0833906 0.269154
0.246052 0.0419013 0.199039
0.424933 0.017731 0.110491
0.4262 0.0016022 0.0673075
0.423117 0.000183108 0.0564279
0.422965 3.0518e-05 0.0492409
0.423209 0 0.0462806
0.0252384 0.219501 0.286168
0.024155 0.206363 0.267353
0.0227512 0.184634 0.23743
0.205692 0.26183 0.272557
0.618921 0.290013 0.253651
0.664454 0.194797 0.155077
0.626322 0.152789 0.11487
0.602609 0.127275 0.0910048
0.592721 0.117159 0.0820935
0.0958267 0.358389 0.118456
0.09691 0.345205 0.104051
0.0964675 0.326787 0.08365
0.19588 0.379675 0.090425
0.55555 0.454108 0.0612955
0.882338 0.41474 0.118975
0.855894 0.365301 0.113405
0.833844 0.343297 0.109346
0.824582 0.334112 0.107729
0.325933 0.693187 0.153719
0.319814 0.684596 0.147112
0.306111 0.662226 0.137469
0.282048 0.621836 0.120394
0.420996 0.679896 0.0925612
0.773037 0.644312 0.088716
0.999573 0.571435 0.11632
0.996063 0.547662 0.11635
0.993759 0.539178 0.116411
0.346746 0.728145 0.165026
0.346731 0.72813 0.165011
0.346731 0.72813 0.165026
0.346716 0.728115 0.164996
0.379736 0.751736 0.163714
0.630594 0.856687 0.129595
0.939879 0.80441 0.121874
0.986893 0.770245 0.120638
0.988708 0.763333 0.119936
0.346746 0.728145 0.165026
0.346746 0.728145 0.165026
0.346746 0.728145 0.165026
0.346731 0.72813 0.165011
0.349538 0.730373 0.165377
0.539559 0.835401 0.140337
0.841108 0.848371 0.122881
0.97612 0.806256 0.124681
0.97612 0.806256 0.124681
0.346746 0.728145 0.165026
0.346746 0.728145 0.165026
0.346746 0.728145 0.165026
0.346731 0.72813 0.165011
0.347494 0.728771 0.165179
0.511803 0.824094 0.142947
0.809369 0.854704 0.122423
0.976135 0.806271 0.124681
0.976135 0.806271 0.124681
0.00627146 0.0238346 0.349187
0.0108034 0.0149844 0.330694
0.0767376 0.0135195 0.32462
0.256474 0.00761425 0.351843
0.362753 0 0.305989
0.362799 0 0.305913
0.363272 0 0.305394
0.365667 0 0.302647
0.367803 0 0.300191
0.00657664 0.0264744 0.352148
0.00662242 0.0229496 0.347265
0.0464179 0.0113832 0.316503
0.210513 0.0115969 0.34934
0.36025 0 0.307256
0.368353 0 0.299565
0.375433 0 0.29131
0.385458 0 0.279316
0.390082 0 0.273411
0.016495 0.127367 0.44622
0.0156405 0.117617 0.438041
0.0289616 0.104921 0.43064
0.138735 0.0714122 0.390494
0.357183 0.00808728 0.310765
0.408698 0 0.245945
0.416938 0 0.227039
0.421851 0 0.212192
0.423468 0 0.205844
0.0271916 0.246159 0.504234
0.026215 0.235019 0.48893
0.0245975 0.214832 0.463584
0.0958572 0.272267 0.494713
0.459754 0.244129 0.450294
0.639826 0.177035 0.323583
0.599191 0.132235 0.269184
0.573159 0.105974 0.236454
0.561868 0.0953994 0.222965
0.0392309 0.377188 0.472572
0.0378424 0.364843 0.458732
0.0361028 0.347265 0.438834
0.0481727 0.347967 0.422248
0.452781 0.517281 0.516655
0.844541 0.515663 0.477607
0.834165 0.432929 0.394705
0.816098 0.40087 0.361501
0.808042 0.387594 0.34815
0.103426 0.521385 0.325521
0.105379 0.511345 0.309209
0.104967 0.495506 0.288762
0.104952 0.46891 0.253056
0.407309 0.633814 0.316121
0.822248 0.708522 0.274342
1 0.651911 0.283162
1 0.612757 0.24654
1 0.598856 0.234043
0.276921 0.585397 0.182254
0.290074 0.600397 0.179217
0.301518 0.617899 0.17789
0.314336 0.644373 0.176699
0.360586 0.713588 0.190448
0.619913 0.859068 0.150805
0.93193 0.799664 0.123186
0.9906 0.758129 0.120653
0.992309 0.748745 0.119554
0.321874 0.661738 0.175601
0.327337 0.678828 0.174533
0.333501 0.694697 0.172442
0.33991 0.711681 0.169085
0.345983 0.724758 0.166888
0.525399 0.829816 0.142214
0.825666 0.851804 0.122683
0.97612 0.806256 0.124681
0.97612 0.806256 0.124681
0.331945 0.690593 0.173098
0.336996 0.704097 0.170748
0.340246 0.713069 0.169009
0.343618 0.72137 0.166995
0.346365 0.727077 0.165499
0.498863 0.818128 0.144121
0.79469 0.857191 0.122225
0.976135 0.806256 0.124681
0.97612 0.806256 0.124681
0.00627146 0.0238346 0.349187
0.00926223 0.0172732 0.335683
0.0694896 0.0131685 0.322576
0.24596 0.00889601 0.352148
0.362753 0 0.305989
0.362737 0 0.305989
0.362737 0 0.305989
0.362737 0 0.305989
0.362737 0 0.305989
0.00637827 0.0247349 0.350195
0.00639353 0.0233463 0.348226
0.0419928 0.0109102 0.315526
0.200687 0.0121157 0.348028
0.357565 0 0.309483
0.362737 0 0.305989
0.362737 0 0.305989
0.362737 0 0.305989
0.362737 0 0.305989
0.0155947 0.117388 0.438468
0.014725 0.107637 0.430655
0.0255131 0.0921035 0.42089
0.122454 0.0568551 0.382071
0.325277 0.00793469 0.345464
0.362753 0 0.305989
0.362753 0 0.306004
0.362753 0 0.306004
0.362753 0 0.305989
0.0265354 0.240208 0.532387
0.0256657 0.230762 0.524697
0.0242618 0.214847 0.5122
0.074815 0.258198 0.565148
0.283375 0.238834 0.554589
0.541588 0.136187 0.474022
0.506889 0.0859388 0.430503
0.486 0.0602426 0.40528
0.476341 0.050309 0.394797
0.0417487 0.374304 0.599207
0.0404212 0.36379 0.595499
0.0386816 0.349447 0.590051
0.046952 0.345708 0.590906
0.258396 0.494545 0.711131
0.652415 0.470542 0.697032
0.763272 0.402609 0.605341
0.757275 0.371145 0.567376
0.753414 0.358343 0.551766
0.0663462 0.528206 0.634211
0.0641031 0.51664 0.623011
0.0611887 0.501778 0.607919
0.0566262 0.477882 0.582834
0.155138 0.564813 0.622797
0.730983 0.759716 0.736553
0.984543 0.752911 0.714702
0.973571 0.717449 0.677485
0.969894 0.704784 0.664698
0.0719158 0.558816 0.537194
0.0717632 0.556817 0.519936
0.0721599 0.555001 0.501457
0.0737621 0.55259 0.472786
0.0992599 0.565698 0.433722
0.632624 0.853147 0.53608
0.988937 0.931426 0.515755
1 0.895354 0.500511
1 0.885939 0.493797
0.0759442 0.551186 0.44976
0.0806592 0.5505 0.42742
0.08748 0.550149 0.400931
0.101991 0.55021 0.363928
0.133028 0.551553 0.308431
0.530358 0.796994 0.413199
0.866575 0.936034 0.365728
0.997238 0.887999 0.283604
0.996155 0.882521 0.267277
0.0850843 0.550134 0.408301
0.0934462 0.550149 0.384054
0.105211 0.550195 0.355444
0.126574 0.551141 0.317021
0.165377 0.553033 0.264485
0.496498 0.777478 0.370901
0.823102 0.925307 0.319127
0.993729 0.869139 0.231083
0.992767 0.863432 0.216815
0.00627146 0.0238346 0.349187
0.00866712 0.018143 0.337514
0.0646525 0.0128939 0.321248
0.238758 0.00949111 0.351705
0.362753 0 0.305989
0.362737 0 0.305989
0.362737 0 0.305989
0.362737 0 0.305989
0.362737 0 0.305989
0.00627146 0.0238346 0.349187
0.00636301 0.0234531 0.348455
0.0394141 0.0106355 0.314977
0.194675 0.0124056 0.347189
0.355367 0 0.310994
0.362737 0 0.305989
0.362737 0 0.305989
0.362737 0 0.305989
0.362737 0 0.305989
0.0151064 0.11191 0.434089
0.0142214 0.102205 0.426276
0.0238804 0.0862745 0.415305
0.116945 0.0491493 0.373159
0.316457 0.00509651 0.343297
0.362753 0 0.306004
0.362753 0 0.306004
0.362753 0 0.305989
0.362753 0 0.305989
0.0259709 0.234058 0.527367
0.0251011 0.224475 0.519738
0.0236973 0.208576 0.507347
0.0690623 0.244068 0.555062
0.267475 0.224399 0.543023
0.527184 0.119722 0.460594
0.489265 0.0674907 0.414618
0.46334 0.0436103 0.390021
0.452216 0.033875 0.37969
0.0407568 0.366217 0.596551
0.0394293 0.355459 0.593011
0.0377356 0.341146 0.588174
0.0436408 0.33312 0.588922
0.230991 0.472694 0.704799
0.573373 0.451835 0.722087
0.688075 0.378576 0.659083
0.674464 0.347265 0.636912
0.668254 0.334478 0.627604
0.0644999 0.517205 0.658381
0.0621653 0.504601 0.652888
0.0594492 0.48957 0.646357
0.0554818 0.466346 0.636332
0.125338 0.530175 0.689876
0.556863 0.737484 0.893263
0.871077 0.699565 0.856825
0.84126 0.661158 0.834592
0.831327 0.648203 0.827054
0.074876 0.570748 0.681758
0.074876 0.570748 0.681743
0.0748608 0.570733 0.681498
0.0747845 0.570459 0.68101
0.07953 0.576455 0.683299
0.335592 0.795316 0.831067
0.977081 0.98674 0.969177
1 0.976867 0.962448
1 0.968277 0.952972
0.0748913 0.570809 0.680308
0.0748913 0.570855 0.678904
0.0749065 0.570962 0.675227
0.0748455 0.570932 0.668635
0.0745708 0.570306 0.650233
0.212512 0.716655 0.703288
0.838087 0.969802 0.801724
1 0.999191 0.785718
1 0.998932 0.768475
0.0749218 0.570947 0.676356
0.0749065 0.570962 0.672663
0.074876 0.570993 0.665232
0.0746929 0.570687 0.653178
0.074052 0.568887 0.628565
0.184543 0.68748 0.655497
0.800641 0.953277 0.752148
1 0.997848 0.728283
1 0.996399 0.71191
0.00627146 0.0238346 0.349187
0.00805676 0.0189975 0.3393
0.0601053 0.0126345 0.320104
0.231617 0.0100862 0.351263
0.362112 0 0.306416
0.362737 0 0.305989
0.362737 0 0.305989
0.362737 0 0.305989
0.362737 0 0.305989
0.00627146 0.0238346 0.349187
0.00634775 0.0235447 0.348623
0.0373693 0.0104067 0.314809
0.188693 0.0126802 0.346334
0.353185 0 0.31249
0.362737 0 0.305989
0.362737 0 0.305989
0.362737 0 0.305989
0.362737 0 0.305989
0.0146334 0.106722 0.429923
0.0137484 0.0970932 0.422156
0.0223239 0.0796216 0.408148
0.112032 0.0426642 0.365499
0.310933 0.00479133 0.343923
0.362753 0 0.306004
0.362753 0 0.306004
0.362753 0 0.305989
0.362753 0 0.305989
0.0254826 0.228824 0.523125
0.0246433 0.219226 0.515648
0.02327 0.203647 0.503548
0.0652171 0.234531 0.547936
0.256962 0.214267 0.534752
0.518273 0.109041 0.451621
0.478614 0.057023 0.404211
0.452155 0.0337835 0.379614
0.441337 0.0242771 0.369558
0.0400092 0.360296 0.594614
0.0387427 0.34966 0.591043
0.0370947 0.335592 0.586313
0.0419623 0.325765 0.586053
0.220096 0.461173 0.697078
0.558297 0.441032 0.715084
0.683101 0.366049 0.650355
0.667964 0.333852 0.627161
0.661646 0.320943 0.617746
0.0632029 0.51017 0.655329
0.0608988 0.497642 0.649882
0.0583352 0.483024 0.64358
0.0544442 0.460105 0.633661
0.118975 0.518639 0.683436
0.541772 0.725185 0.885893
0.85716 0.685191 0.849256
0.827359 0.645151 0.826337
0.817166 0.631815 0.81886
0.0749065 0.570809 0.681804
0.0748913 0.570794 0.681788
0.074876 0.570718 0.681743
0.0747539 0.570321 0.681529
0.0780499 0.573663 0.684047
0.318624 0.782574 0.834211
0.9635 0.978729 0.997726
0.999985 0.964004 0.994797
0.999878 0.954345 0.993301
0.0749065 0.570809 0.681819
0.0749065 0.570809 0.681819
0.0749065 0.570809 0.681819
0.074876 0.570764 0.681758
0.0748608 0.570718 0.681727
0.191318 0.704631 0.768414
0.729152 0.958175 0.973373
1 1 1
1 1 1
0.0749065 0.570809 0.681819
0.0749065 0.570809 0.681819
0.0749065 0.570809 0.681819
0.074876 0.570764 0.681758
0.0748608 0.570733 0.681727
0.160464 0.675334 0.748302
0.651347 0.933257 0.955856
1 1 1
1 1 1
0.00627146 0.0238346 0.349187
0.0078584 0.0195468 0.340398
0.0581826 0.0125124 0.319615
0.22855 0.0103456 0.351064
0.361837 0 0.3066
0.362737 0 0.305989
0.362737 0 0.305989
0.362737 0 0.305989
0.362737 0 0.305989
0.00627146 0.0238346 0.349187
0.00633249 0.0235904 0.348699
0.0364996 0.0102998 0.314733
0.186053 0.0127871 0.345922
0.352071 0 0.313252
0.362737 0 0.305989
0.362737 0 0.305989
0.362737 0 0.305989
0.362737 0 0.305989
0.0144198 0.104524 0.428153
0.01355 0.0949264 0.420371
0.0216526 0.0768902 0.405203
0.110002 0.0404364 0.362799
0.308629 0.00479133 0.344335
0.362753 0 0.306004
0.362753 0 0.306004
0.362753 0 0.305989
0.362753 0 0.305989
0.0252995 0.226551 0.52137
0.024445 0.216983 0.513893
0.0230869 0.201541 0.501976
0.0637522 0.230961 0.545266
0.252888 0.210224 0.531121
0.514611 0.104509 0.447791
0.473884 0.0528725 0.399817
0.447547 0.0297398 0.375326
0.436683 0.0209964 0.365408
0.0396887 0.357748 0.593774
0.0384375 0.347189 0.590219
0.03682 0.333196 0.585504
0.0412909 0.322728 0.584833
0.215808 0.456611 0.694072
0.551949 0.436591 0.712139
0.680797 0.360723 0.646571
0.665278 0.328374 0.623163
0.658976 0.315465 0.613748
0.0626535 0.50724 0.654047
0.0603799 0.494774 0.64863
0.0578622 0.480232 0.64239
0.0540322 0.457557 0.632578
0.11632 0.513909 0.680766
0.535775 0.720241 0.882826
0.852003 0.679881 0.846372
0.822873 0.639414 0.823102
0.812879 0.626123 0.815686
0.0749065 0.570809 0.681804
0.0748913 0.570779 0.681788
0.0748608 0.570687 0.681727
0.0747387 0.570291 0.681514
0.0776837 0.572519 0.683513
0.313481 0.778363 0.831418
0.958618 0.974365 0.997345
0.999954 0.959869 0.994171
0.999817 0.950179 0.992645
0.0749065 0.570809 0.681819
0.0749065 0.570809 0.681819
0.0749065 0.570809 0.681819
0.074876 0.570764 0.681758
0.0748608 0.570718 0.681727
0.187045 0.700755 0.765698
0.718807 0.955352 0.971405
1 1 1
1 1 1
0.0749065 0.570809 0.681819
0.0749065 0.570809 0.681819
0.0749065 0.570809 0.681819
0.074876 0.570764 0.681773
0.0748608 0.570733 0.681727
0.156909 0.67158 0.7458
0.64126 0.929854 0.953414
1 1 1
1 1 1
