Shader/动漫风格.cube
TITLE "Generated by Resolve"
LUT_3D_SIZE 33
0.0157321 0 0
0.0158083 0 0
0.0179294 0 0
0.0272374 0 0
0.0416419 0 0
0.0609293 0 0
0.0881819 0 0
0.12604 0 0
0.171649 0 0
0.221698 0.000381476 0
0.276387 0.00216678 0
0.332799 0.0037232 0
0.387259 0.00375372 0
0.431586 0.00202945 0
0.453727 0.00157168 0
0.458274 0.00170901 0
0.458442 0.00172427 0
0.458427 0.00170901 0
0.458427 0.00170901 0
0.458427 0.00170901 0
0.458396 0.00169375 0
0.458396 0.00169375 0
0.458396 0.00169375 0
0.458396 0.00169375 0
0.458396 0.00169375 0
0.458396 0.00169375 0
0.458396 0.00169375 0
0.458396 0.00169375 0
0.458396 0.00169375 0
0.458396 0.00169375 0
0.458396 0.00169375 0
0.458396 0.00169375 0
0.458396 0.00169375 0
0.0157321 0 0
0.0157473 0 0
0.0167391 0 0
0.0241855 0 0
0.0373693 0 0
0.0550088 0 0
0.0798199 0 0
0.115038 0 0
0.159518 0 0
0.208545 3.0518e-05 0
0.262486 0.00161746 0
0.318959 0.0034638 0
0.374578 0.00393683 0
0.422354 0.00242618 0
0.45066 0.00155642 0
0.457877 0.00169375 0
0.458442 0.00172427 0
0.458427 0.00170901 0
0.458427 0.00170901 0
0.458427 0.00170901 0
0.458396 0.00169375 0
0.458396 0.00169375 0
0.458396 0.00169375 0
0.458396 0.00169375 0
0.458396 0.00169375 0
0.458396 0.00169375 0
0.458396 0.00169375 0
0.458396 0.00169375 0
0.458396 0.00169375 0
0.458396 0.00169375 0
0.458396 0.00169375 0
0.458396 0.00169375 0
0.458396 0.00169375 0
0.0156863 0 0
0.0157015 0 0
0.0161898 0 0
0.0210574 0 0
0.03299 0 0
0.0498054 0 0
0.072694 0 0
0.10544 0 0
0.148699 0 0
0.19704 0 0
0.250126 0.00120546 0
0.3066 0.00314336 0
0.362921 0.00401312 0
0.413794 0.00277714 0
0.446204 0.00161746 0
0.457435 0.00167849 0
0.458442 0.00172427 0
0.458427 0.00170901 0
0.458427 0.00170901 0
0.458427 0.00170901 0
0.458412 0.00170901 0
0.458396 0.00169375 0
0.458396 0.00169375 0
0.458396 0.00169375 0
0.458396 0.00169375 0
0.458396 0.00169375 0
0.458396 0.00169375 0
0.458396 0.00169375 0
0.458396 0.00169375 0
0.458396 0.00169375 0
0.458396 0.00169375 0
0.458396 0.00169375 0
0.458396 0.00169375 0
0.0152895 0.000534066 0
0.0153353 0.000320439 0
0.0155184 0.000274662 0
0.0178836 0.00015259 0
0.026978 6.10361e-05 0
0.0427558 3.0518e-05 0
0.0637369 3.0518e-05 0
0.0931563 1.5259e-05 0
0.133669 1.5259e-05 0
0.181308 0 0
0.233722 0.000732433 0
0.290349 0.00262455 0
0.34789 0.0039826 0
0.401099 0.00328069 0
0.440162 0.00175479 0
0.455879 0.00163272 0
0.458427 0.00172427 0
0.458427 0.00170901 0
0.458427 0.00170901 0
0.458427 0.00170901 0
0.458412 0.00170901 0
0.458396 0.00169375 0
0.458396 0.00169375 0
0.458396 0.00169375 0
0.458396 0.00169375 0
0.458396 0.00169375 0
0.458396 0.00169375 0
0.458396 0.00169375 0
0.458396 0.00169375 0
0.458396 0.00169375 0
0.458396 0.00169375 0
0.458396 0.00169375 0
0.458396 0.00169375 0
0.0147555 0.00549325 0
0.014786 0.00448615 0
0.014847 0.00396735 0
0.015671 0.00308232 0
0.0213169 0.00234989 0
0.035935 0.00213626 0
0.0580606 0.00178531 0
0.0857557 0.00132753 0
0.121675 0.00108339 0
0.16553 0.000686656 0
0.214771 0.00062562 0
0.269856 0.00205997 0
0.327642 0.00366217 0
0.383673 0.00383001 0
0.42887 0.00218204 0
0.452674 0.00158694 0
0.458228 0.00170901 0
0.458442 0.00172427 0
0.458442 0.00172427 0
0.458442 0.00172427 0
0.458427 0.00170901 0
0.458412 0.00169375 0
0.458396 0.00169375 0
0.458396 0.00169375 0
0.458396 0.00169375 0
0.458396 0.00169375 0
0.458396 0.00169375 0
0.458396 0.00169375 0
0.458396 0.00169375 0
0.458396 0.00169375 0
0.458396 0.00169375 0
0.458396 0.00169375 0
0.458396 0.00169375 0
0.0145724 0.0180514 0
0.0145876 0.0167239 0
0.0145876 0.0154879 0
0.014725 0.0137636 0
0.0171054 0.0119631 0
0.0276493 0.0114748 0
0.0511177 0.0111543 0
0.0855726 0.00972 0
0.124163 0.00885023 0
0.165545 0.00779736 0
0.20972 0.00660716 0
0.257893 0.00587472 0
0.308843 0.00491341 0
0.363882 0.00450141 0
0.413947 0.00311284 0
0.446632 0.00175479 0
0.45745 0.00169375 0
0.458442 0.00172427 0
0.458442 0.00172427 0
0.458442 0.00172427 0
0.458442 0.00172427 0
0.458427 0.00170901 0
0.458412 0.00169375 0
0.458412 0.00169375 0
0.458412 0.00169375 0
0.458412 0.00169375 0
0.458412 0.00169375 0
0.458412 0.00169375 0
0.458412 0.00169375 0
0.458396 0.00169375 0
0.458396 0.00169375 0
0.458396 0.00169375 0
0.458396 0.00169375 0
0.0157473 0.0343175 0
0.0155795 0.0328069 0
0.0154269 0.0314488 0
0.0152438 0.0296635 0
0.0157015 0.0270848 0
0.0209812 0.0257115 0
0.0373999 0.0271153 0
0.0738994 0.0278019 0
0.127642 0.0270848 0
0.181399 0.0272679 0
0.230594 0.0273594 0
0.274968 0.0248875 1.5259e-05
0.316487 0.0191501 3.0518e-05
0.363027 0.014023 0
0.408392 0.00921645 0
0.442023 0.00494392 0
0.457801 0.00296025 0
0.459403 0.00222782 0
0.458946 0.00198367 0
0.458747 0.00187686 0
0.458579 0.00180056 0
0.458473 0.00173953 0
0.458427 0.00170901 0
0.458427 0.00170901 0
0.458427 0.00170901 0
0.458412 0.00170901 0
0.458412 0.00170901 0
0.458412 0.00170901 0
0.458412 0.00170901 0
0.458412 0.00170901 0
0.458412 0.00170901 0
0.458412 0.00170901 0
0.458412 0.00170901 0
0.0203708 0.0544289 0
0.019791 0.0524758 0
0.0193637 0.0508278 0
0.0188754 0.0488899 0
0.018204 0.0460212 0
0.0199741 0.043122 0
0.0291752 0.0436255 0
0.0516976 0.0480049 0
0.106004 0.0504768 0
0.180926 0.0521248 0
0.248951 0.0558175 0
0.303487 0.0551461 0.000213626
0.349966 0.049012 0.000823987
0.394293 0.0398108 0.000442512
0.432715 0.0303349 0.00015259
0.462242 0.0227817 0.000411994
0.476371 0.0162814 0.000427253
0.474159 0.0104677 6.10361e-05
0.46836 0.00706493 0
0.465034 0.0052491 0
0.462699 0.00401312 0
0.460945 0.00306706 0
0.459983 0.00254826 0
0.459312 0.00218204 0
0.458869 0.0019379 0
0.458762 0.00189212 0
0.458717 0.0018616 0
0.45864 0.00181582 0
0.458595 0.00180056 0
0.458534 0.00175479 0
0.458488 0.00173953 0
0.458488 0.00173953 0
0.458488 0.00173953 0
0.0291752 0.0797284 0
0.0281987 0.0773175 0
0.0273899 0.075227 0
0.0264744 0.0728466 0
0.0253605 0.0697337 0
0.024567 0.0658579 0
0.0292058 0.0635691 0
0.0411994 0.0675212 0
0.0711223 0.0751507 0
0.145708 0.0803235 0
0.242329 0.0852064 0
0.320333 0.0870375 0.000869764
0.377325 0.0818341 0.00407416
0.428916 0.0720684 0.00383001
0.47248 0.0630655 0.00276188
0.505013 0.0587015 0.00523384
0.52166 0.0524453 0.00706493
0.518029 0.0414893 0.00486763
0.504921 0.0306706 0.002121
0.494514 0.0233158 0.000961318
0.4869 0.0185092 0.000656138
0.480232 0.0143893 0.000427253
0.47567 0.0116274 0.000289921
0.472343 0.00965896 0.000198367
0.469322 0.00787366 0.000137331
0.466545 0.00621042 4.57771e-05
0.464271 0.00486763 0
0.463478 0.00444038 0
0.462669 0.00399786 0
0.46186 0.00357061 0
0.461326 0.00328069 0
0.461326 0.00328069 0
0.461326 0.00328069 0
0.0425879 0.11043 0
0.0412451 0.107607 0
0.040116 0.10518 0
0.0387732 0.102327 0
0.037171 0.0988479 0
0.035172 0.0942702 0
0.0353552 0.0897383 0
0.0429694 0.090425 0
0.0559243 0.0991379 0
0.0959945 0.110552 0
0.193973 0.118639 0
0.312657 0.121035 0.000610361
0.395438 0.116823 0.00631724
0.456214 0.106126 0.00903334
0.506294 0.0980392 0.00927749
0.545541 0.0991379 0.0158236
0.569589 0.0993057 0.0231937
0.574121 0.0904555 0.0234226
0.562158 0.0765545 0.0183566
0.548363 0.0644999 0.0134279
0.537423 0.0554513 0.00976577
0.527169 0.0473793 0.00679026
0.519234 0.0414893 0.00511177
0.51339 0.0372778 0.00422675
0.507942 0.033341 0.00344854
0.502373 0.0293278 0.00267033
0.497139 0.0255436 0.00190738
0.492607 0.0221866 0.0011902
0.488212 0.0190433 0.000579843
0.484779 0.0170138 0.000488289
0.482383 0.0155947 0.000442512
0.482383 0.0155947 0.000442512
0.482383 0.0155947 0.000442512
0.0605936 0.14696 0
0.0590066 0.143816 0
0.0575875 0.140978 0
0.0560006 0.137835 0
0.054078 0.134035 0
0.051545 0.128969 0
0.0489509 0.123033 0
0.0511788 0.119432 0
0.059144 0.125353 0
0.0747082 0.138338 0
0.128161 0.153246 0
0.254017 0.159487 7.62951e-05
0.392065 0.156329 0.0039826
0.476158 0.145724 0.01178
0.534066 0.136522 0.016556
0.578317 0.140566 0.0272374
0.609415 0.14638 0.0396124
0.623026 0.141726 0.0447852
0.617853 0.129107 0.0417334
0.605371 0.116167 0.0361944
0.594781 0.106004 0.0315862
0.585107 0.09691 0.027512
0.576974 0.0893873 0.0242771
0.57084 0.0838941 0.0219272
0.56492 0.0787976 0.0196689
0.558907 0.0736553 0.0173953
0.552926 0.0685588 0.0151064
0.546822 0.0633402 0.0127871
0.540887 0.0583047 0.010544
0.535225 0.0535744 0.00843824
0.531258 0.0502632 0.00697337
0.531258 0.0502632 0.00697337
0.531258 0.0502632 0.00697337
0.0803998 0.191241 6.10361e-05
0.0788281 0.187289 3.0518e-05
0.0774243 0.183841 1.5259e-05
0.0757763 0.180072 0
0.0739147 0.175952 0
0.0714733 0.170596 0
0.0684367 0.163973 0
0.0664378 0.157382 0
0.0695811 0.15848 0
0.0780804 0.16968 0
0.102129 0.185367 0
0.171511 0.202045 0
0.328817 0.200763 0.000701915
0.47837 0.193042 0.00860609
0.555795 0.184024 0.0216983
0.60798 0.186084 0.0364691
0.644984 0.194385 0.0526436
0.666148 0.193332 0.062501
0.668742 0.182254 0.0632639
0.657908 0.168475 0.0585946
0.647089 0.157427 0.0540932
0.637949 0.14818 0.050248
0.629755 0.139925 0.0467689
0.624002 0.134157 0.0442969
0.618952 0.129152 0.0421302
0.613855 0.124147 0.0399481
0.608591 0.119127 0.037644
0.603311 0.114061 0.0353246
0.598001 0.108995 0.0330053
0.59263 0.103853 0.0306554
0.588998 0.100389 0.0290684
0.588998 0.100389 0.0290684
0.588998 0.100389 0.0290684
0.100008 0.241764 0.00534066
0.0983749 0.237491 0.00424201
0.0969711 0.233738 0.00329595
0.0953689 0.229511 0.00221256
0.0935683 0.224826 0.00105287
0.0913863 0.21915 0.000289921
0.0886702 0.212192 0.000274662
0.0855573 0.204105 0.000259403
0.0842145 0.199481 0.000213626
0.0901961 0.208042 0.00015259
0.106859 0.223041 3.0518e-05
0.144594 0.241856 0
0.229435 0.255055 1.5259e-05
0.414328 0.245304 0.00192264
0.558373 0.237217 0.0184787
0.631388 0.23537 0.0400702
0.677287 0.241764 0.0597238
0.706386 0.244297 0.0744488
0.717205 0.236408 0.0803388
0.710994 0.222843 0.0786755
0.699275 0.21033 0.0746014
0.689555 0.200443 0.070985
0.680827 0.191592 0.0676585
0.674357 0.185016 0.0651408
0.669154 0.179721 0.0630961
0.664073 0.174563 0.0611124
0.658991 0.16939 0.0591135
0.65391 0.164233 0.0570993
0.648966 0.159243 0.0549935
0.643946 0.154177 0.052842
0.640589 0.150774 0.0514076
0.640589 0.150774 0.0514076
0.640589 0.150774 0.0514076
0.121248 0.29659 0.0180209
0.119448 0.292027 0.0170291
0.117876 0.288045 0.0161288
0.116106 0.283558 0.0151522
0.114199 0.278706 0.0140688
0.111971 0.273045 0.0128023
0.109163 0.265843 0.0111391
0.105928 0.257389 0.00915541
0.10251 0.248432 0.0071107
0.104341 0.249668 0.00556954
0.120516 0.265339 0.00192264
0.146685 0.283513 0.00047303
0.195331 0.304006 0.000274662
0.309209 0.30782 0.00015259
0.499443 0.294423 0.00843824
0.632181 0.288289 0.03505
0.700999 0.289342 0.0597696
0.741283 0.293355 0.078996
0.762844 0.290135 0.0911269
0.764614 0.278416 0.0941482
0.754437 0.265217 0.0919051
0.743877 0.254643 0.0890669
0.734356 0.245289 0.0862898
0.72694 0.237934 0.0839094
0.721355 0.232364 0.0820478
0.71606 0.22707 0.0802625
0.710765 0.221775 0.0784924
0.70547 0.21648 0.0766918
0.700191 0.2112 0.0749065
0.694926 0.205905 0.073106
0.691386 0.202335 0.0717937
0.691386 0.202335 0.0717937
0.691386 0.202335 0.0717937
0.144579 0.354284 0.0308232
0.142504 0.349462 0.0295872
0.140826 0.345327 0.0286717
0.138918 0.340673 0.0276493
0.13695 0.33576 0.0265812
0.134722 0.330236 0.025391
0.131899 0.323232 0.0238499
0.128618 0.315068 0.0220645
0.124681 0.305364 0.0199588
0.122332 0.297963 0.0175174
0.133715 0.30898 0.0130617
0.158511 0.32929 0.00901808
0.193149 0.349752 0.0071107
0.262257 0.36556 0.00323491
0.404135 0.35903 0.00248722
0.575402 0.346929 0.0202487
0.695781 0.341466 0.0515145
0.763897 0.341955 0.0762341
0.800381 0.342123 0.0940719
0.81471 0.333959 0.103197
0.810117 0.32076 0.104295
0.799451 0.309178 0.102434
0.789578 0.299458 0.100389
0.781384 0.291417 0.0986496
0.775448 0.285603 0.0973526
0.770031 0.280293 0.0959487
0.764645 0.274998 0.0945144
0.759258 0.269718 0.0930495
0.753841 0.264424 0.0915694
0.74844 0.259113 0.0901045
0.744732 0.255497 0.0890974
0.744732 0.255497 0.0890974
0.744732 0.255497 0.0890974
0.172061 0.41474 0.0474556
0.169696 0.409964 0.0460365
0.167514 0.405539 0.0447089
0.165148 0.400717 0.0432746
0.162768 0.395682 0.0418097
0.160281 0.390051 0.0402838
0.15729 0.383276 0.0384527
0.153811 0.375326 0.0363775
0.149798 0.365972 0.0339971
0.145281 0.355291 0.0313268
0.148577 0.355612 0.0290837
0.17055 0.375006 0.0287175
0.203708 0.398093 0.0271153
0.254292 0.417777 0.0195621
0.350515 0.424262 0.00875868
0.491875 0.413977 0.0134279
0.641382 0.401175 0.0375372
0.754452 0.394537 0.0664683
0.820981 0.393011 0.0899367
0.854978 0.388098 0.105135
0.862715 0.376623 0.111025
0.855039 0.364477 0.111162
0.845228 0.354528 0.109941
0.836439 0.345769 0.108736
0.830243 0.339605 0.107851
0.824826 0.334218 0.107057
0.819425 0.328847 0.106264
0.814145 0.323644 0.105303
0.808713 0.318288 0.104219
0.803174 0.31284 0.10309
0.799451 0.309178 0.102312
0.799451 0.309178 0.102312
0.799451 0.309178 0.102312
0.203525 0.476539 0.0676585
0.200916 0.471534 0.065919
0.198627 0.467155 0.0643931
0.196078 0.462257 0.0626841
0.193362 0.457069 0.0608682
0.190478 0.45153 0.0589456
0.187137 0.445045 0.0567788
0.183185 0.437186 0.0543374
0.178729 0.428214 0.0516365
0.173678 0.417884 0.0485847
0.16994 0.408804 0.045655
0.183276 0.419684 0.0469215
0.216449 0.445365 0.0478218
0.261418 0.46836 0.0411688
0.333959 0.482109 0.0277256
0.440925 0.484657 0.0227054
0.568414 0.471427 0.0322271
0.702251 0.454032 0.053666
0.80882 0.446052 0.0801404
0.873533 0.440513 0.100786
0.903761 0.430259 0.112261
0.905974 0.418189 0.115587
0.897871 0.408103 0.115389
0.889448 0.399374 0.114717
0.883207 0.392981 0.114168
0.878035 0.387701 0.11368
0.872938 0.382498 0.113191
0.867872 0.377325 0.112718
0.86276 0.372137 0.112215
0.857572 0.366888 0.111604
0.853956 0.363272 0.111116
0.853956 0.363272 0.111116
0.853956 0.363272 0.111116
0.238361 0.542763 0.0910201
0.235508 0.537408 0.0891127
0.232975 0.532662 0.0874189
0.230198 0.527413 0.0855421
0.227268 0.521828 0.0835737
0.224262 0.516106 0.0815595
0.220752 0.509392 0.0791943
0.216434 0.501167 0.0762798
0.211688 0.492134 0.0730297
0.206378 0.482017 0.0694896
0.200366 0.470481 0.0655375
0.201328 0.467292 0.0638743
0.227207 0.489433 0.065919
0.272068 0.516732 0.0618143
0.331426 0.53521 0.0496681
0.415961 0.548775 0.0418555
0.519493 0.547921 0.043183
0.635874 0.52575 0.0505684
0.75819 0.505318 0.0691081
0.859113 0.49427 0.0919966
0.922835 0.482475 0.108339
0.946319 0.468986 0.115618
0.944152 0.458244 0.117128
0.937026 0.449821 0.117174
0.931044 0.443229 0.117037
0.926452 0.438239 0.116854
0.92192 0.433356 0.116655
0.917357 0.428565 0.116411
0.912734 0.423697 0.116182
0.908125 0.418845 0.115953
0.904952 0.415488 0.115785
0.904952 0.415488 0.115785
0.904952 0.415488 0.115785
0.277455 0.61384 0.117327
0.274281 0.608286 0.11519
0.271397 0.60325 0.113252
0.268238 0.597681 0.111116
0.264973 0.591821 0.108919
0.261616 0.585794 0.106661
0.257908 0.579019 0.104158
0.253452 0.570779 0.101183
0.248432 0.56144 0.0977951
0.242878 0.55108 0.0940719
0.236515 0.539178 0.0897993
0.230106 0.526879 0.0853437
0.239826 0.533196 0.084596
0.279652 0.562142 0.0831617
0.333471 0.585229 0.0724804
0.402197 0.6038 0.0637675
0.489143 0.616114 0.0627298
0.588159 0.605539 0.0635996
0.696498 0.577752 0.0684977
0.810407 0.553735 0.0831617
0.909972 0.536843 0.100786
0.968124 0.521294 0.112428
0.980148 0.50837 0.11632
0.976181 0.499016 0.116854
0.97145 0.4916 0.116976
0.96791 0.486564 0.117067
0.964385 0.481743 0.117128
0.960662 0.476905 0.117113
0.956924 0.47216 0.117113
0.952819 0.467536 0.117128
0.94995 0.464317 0.117128
0.94995 0.464317 0.117128
0.94995 0.464317 0.117128
0.317876 0.682078 0.144839
0.314702 0.676905 0.142672
0.311925 0.672358 0.140764
0.308782 0.667231 0.138613
0.30544 0.661753 0.136324
0.302007 0.656138 0.133989
0.298405 0.65008 0.131518
0.294072 0.642664 0.128542
0.288914 0.633783 0.125032
0.283223 0.62388 0.121187
0.276814 0.612604 0.116854
0.269474 0.599573 0.111894
0.264759 0.58938 0.107546
0.287938 0.605585 0.106767
0.337987 0.633265 0.0976577
0.397055 0.653941 0.0859236
0.470024 0.672007 0.0828107
0.555413 0.676722 0.0827649
0.649271 0.658701 0.0818341
0.752224 0.626535 0.0841688
0.863951 0.59736 0.0936141
0.957046 0.577676 0.106676
0.993927 0.563241 0.114626
0.996933 0.552193 0.116304
0.995209 0.543374 0.116411
0.993713 0.537392 0.116426
0.992279 0.532113 0.116457
0.990829 0.52694 0.116487
0.989334 0.521782 0.116533
0.987335 0.516701 0.116579
0.985931 0.513222 0.116609
0.985931 0.513222 0.116609
0.985931 0.513222 0.116609
0.342321 0.721294 0.161837
0.340978 0.719142 0.160906
0.339773 0.71722 0.160052
0.338048 0.714504 0.158846
0.336248 0.711666 0.15758
0.334386 0.708721 0.156268
0.332433 0.705653 0.154894
0.329946 0.701701 0.15314
0.326589 0.69633 0.15079
0.322621 0.689937 0.148043
0.317906 0.682261 0.144762
0.311192 0.671214 0.140093
0.303426 0.658289 0.134798
0.306477 0.655573 0.131777
0.344381 0.678065 0.126253
0.398596 0.701473 0.111543
0.460548 0.721004 0.103243
0.533227 0.734279 0.100954
0.614679 0.731426 0.0987259
0.705226 0.707118 0.0955825
0.808042 0.670268 0.094789
0.913466 0.63949 0.101259
0.982589 0.621256 0.11136
0.999237 0.608972 0.115785
1 0.59939 0.116381
0.999985 0.592462 0.116426
0.999985 0.586954 0.116411
0.999969 0.581506 0.116396
0.999969 0.576043 0.116381
0.999954 0.570504 0.116365
0.999939 0.56672 0.11635
0.999939 0.56672 0.11635
0.999939 0.56672 0.11635
0.346685 0.728054 0.164965
0.34667 0.728038 0.164965
0.346639 0.727977 0.164935
0.346365 0.727565 0.164736
0.34609 0.727153 0.164538
0.3458 0.726711 0.16434
0.345495 0.726238 0.164111
0.345052 0.725551 0.16379
0.34435 0.724468 0.163272
0.343404 0.723033 0.162585
0.342153 0.721096 0.161685
0.339681 0.717189 0.15993
0.336309 0.711788 0.15758
0.33315 0.705684 0.154681
0.35111 0.71519 0.152026
0.399542 0.740429 0.139971
0.455543 0.762707 0.126802
0.517693 0.780728 0.120089
0.589334 0.789288 0.115236
0.670848 0.779538 0.109438
0.763516 0.750286 0.104036
0.860502 0.712322 0.102571
0.948348 0.682551 0.108034
0.99324 0.665644 0.11426
0.999893 0.655299 0.116045
1 0.647639 0.116197
1 0.642313 0.116197
1 0.636957 0.116213
1 0.631678 0.116228
1 0.626245 0.116258
1 0.622522 0.116289
1 0.622522 0.116289
1 0.622522 0.116289
0.346731 0.72813 0.165026
0.346731 0.72813 0.165026
0.346731 0.72813 0.165026
0.346731 0.72813 0.165026
0.346731 0.72813 0.165011
0.346731 0.72813 0.165011
0.346716 0.728115 0.165011
0.346716 0.728099 0.164996
0.346716 0.728084 0.164996
0.346685 0.728069 0.164981
0.34667 0.728038 0.164965
0.346578 0.727886 0.164889
0.346273 0.727398 0.164675
0.345449 0.72607 0.164019
0.351934 0.730007 0.163882
0.387503 0.752712 0.15903
0.442512 0.781674 0.146181
0.500191 0.806012 0.136873
0.565698 0.824735 0.130205
0.641886 0.829694 0.121675
0.727504 0.817029 0.114427
0.813886 0.789883 0.110979
0.898497 0.755093 0.110933
0.968582 0.726848 0.114122
0.996399 0.711803 0.116442
0.998947 0.702876 0.116487
0.999161 0.697139 0.116381
0.999374 0.691752 0.116258
0.999619 0.68632 0.116167
0.999832 0.680903 0.116075
1 0.677119 0.115999
1 0.677119 0.115999
1 0.677119 0.115999
0.346746 0.728145 0.165026
0.346746 0.728145 0.165026
0.346746 0.728145 0.165026
0.346746 0.728145 0.165026
0.346746 0.728145 0.165026
0.346746 0.72813 0.165026
0.346731 0.72813 0.165026
0.346731 0.72813 0.165026
0.346731 0.72813 0.165011
0.346716 0.728115 0.165011
0.346716 0.728115 0.164996
0.346716 0.728115 0.165011
0.346731 0.728099 0.165011
0.3467 0.728084 0.164996
0.348913 0.729809 0.165316
0.369787 0.745052 0.165087
0.419684 0.776059 0.156298
0.477363 0.806378 0.145708
0.538613 0.832303 0.139361
0.610559 0.849958 0.131029
0.691478 0.852827 0.122316
0.772244 0.843275 0.11899
0.850004 0.821927 0.118654
0.927123 0.792325 0.119036
0.978821 0.770123 0.120027
0.989181 0.760021 0.119738
0.990814 0.753674 0.119249
0.992065 0.748119 0.118837
0.993301 0.742641 0.118425
0.994568 0.737102 0.118013
0.995407 0.733364 0.117723
0.995407 0.733364 0.117723
0.995407 0.733364 0.117723
0.346746 0.728145 0.165026
0.346746 0.728145 0.165026
0.346746 0.728145 0.165026
0.346746 0.728145 0.165026
0.346746 0.728145 0.165026
0.346746 0.728145 0.165026
0.346746 0.728145 0.165026
0.346746 0.728145 0.165026
0.346746 0.72813 0.165026
0.346731 0.72813 0.165011
0.346731 0.72813 0.165011
0.346731 0.72813 0.165011
0.346731 0.72813 0.165011
0.346716 0.728115 0.165011
0.347234 0.728542 0.165103
0.356878 0.735958 0.165667
0.395499 0.762188 0.161791
0.452995 0.795041 0.150317
0.511604 0.823728 0.142779
0.578988 0.84773 0.136141
0.656779 0.860166 0.126757
0.737011 0.860319 0.121828
0.81178 0.851896 0.122103
0.887633 0.832212 0.122866
0.953231 0.809491 0.123583
0.9776 0.799023 0.123751
0.979156 0.796429 0.123522
0.979675 0.794736 0.123354
0.980835 0.790875 0.122911
0.982071 0.786755 0.122454
0.98291 0.783978 0.122148
0.98291 0.783978 0.122148
0.98291 0.783978 0.122148
0.346746 0.728145 0.165026
0.346746 0.728145 0.165026
0.346746 0.728145 0.165026
0.346746 0.728145 0.165026
0.346746 0.728145 0.165026
0.346746 0.728145 0.165026
0.346746 0.728145 0.165026
0.346746 0.728145 0.165026
0.346746 0.728145 0.165026
0.346746 0.72813 0.165026
0.346731 0.72813 0.165011
0.346731 0.72813 0.165011
0.346731 0.72813 0.165011
0.346731 0.72813 0.165011
0.346746 0.728145 0.165011
0.350378 0.730938 0.165225
0.379248 0.751568 0.163989
0.432517 0.783993 0.154208
0.489845 0.813748 0.144961
0.552529 0.840177 0.139101
0.626307 0.857755 0.130449
0.706523 0.86215 0.123003
0.7823 0.858 0.121981
0.856336 0.844007 0.123003
0.930587 0.821225 0.123842
0.971176 0.807752 0.124575
0.976196 0.805997 0.124651
0.976226 0.805936 0.124636
0.976272 0.805753 0.12462
0.976364 0.805478 0.12459
0.976471 0.805127 0.124559
0.976471 0.805127 0.124559
0.976471 0.805127 0.124559
0.346746 0.728145 0.165026
0.346746 0.728145 0.165026
0.346746 0.728145 0.165026
0.346746 0.728145 0.165026
0.346746 0.728145 0.165026
0.346746 0.728145 0.165026
0.346746 0.728145 0.165026
0.346746 0.728145 0.165026
0.346746 0.728145 0.165026
0.346746 0.72813 0.165026
0.346731 0.72813 0.165011
0.346731 0.72813 0.165011
0.346731 0.72813 0.165011
0.346731 0.72813 0.165011
0.346731 0.72813 0.165011
0.348486 0.729549 0.16527
0.367575 0.743557 0.165179
0.416739 0.774899 0.157351
0.473625 0.805844 0.147005
0.53373 0.833097 0.14078
0.604593 0.85417 0.132998
0.683909 0.862104 0.124422
0.76173 0.859861 0.121813
0.83418 0.849744 0.122759
0.908736 0.828565 0.123583
0.964981 0.809979 0.124514
0.97612 0.806256 0.124681
0.97612 0.806256 0.124681
0.97612 0.806256 0.124681
0.97612 0.806256 0.124681
0.97612 0.806256 0.124681
0.97612 0.806256 0.124681
0.97612 0.806256 0.124681
0.346746 0.728145 0.165026
0.346746 0.728145 0.165026
0.346746 0.728145 0.165026
0.346746 0.728145 0.165026
0.346746 0.728145 0.165026
0.346746 0.728145 0.165026
0.346746 0.728145 0.165026
0.346746 0.728145 0.165026
0.346746 0.728145 0.165026
