Shader/动漫风格.cube
TITLE "Generated by Resolve"
LUT_3D_SIZE 5
0.0157321 0 0
0.171649 0 0
0.458442 0.00172427 0
0.458396 0.00169375 0
0.458396 0.00169375 0
0.0291752 0.0797284 0
0.0711223 0.0751507 0
0.52166 0.0524453 0.00706493
0.469322 0.00787366 0.000137331
0.461326 0.00328069 0
0.203525 0.476539 0.0676585
0.178729 0.428214 0.0516365
0.568414 0.471427 0.0322271
0.883207 0.392981 0.114168
0.853956 0.363272 0.111116
0.346746 0.728145 0.165026
0.346746 0.72813 0.165026
0.395499 0.762188 0.161791
0.953231 0.809491 0.123583
0.98291 0.783978 0.122148
0.346746 0.728145 0.165026
0.346746 0.728145 0.165026
0.348837 0.72987 0.165408
0.836347 0.849485 0.122805
0.97612 0.806256 0.124681
0.00627146 0 0.131914
0.136217 0 0.0871901
0.425147 0 0.0328069
0.427543 0 0.0131228
0.428351 0 0.00572213
0.0142519 0.0789044 0.0883803
0.0698863 0.0694743 0.0608225
0.479133 0.0343633 0.0118868
0.455329 0.00259403 0
0.456138 0.00154116 0
0.192203 0.454795 0.0601663
0.169299 0.40882 0.0458381
0.543191 0.451362 0.0257115
0.867689 0.377157 0.112688
0.838117 0.347463 0.108919
0.346746 0.728145 0.165026
0.346746 0.72813 0.165026
0.386938 0.756573 0.162936
0.946212 0.809537 0.123125
0.986374 0.772152 0.120836
0.346746 0.728145 0.165026
0.346746 0.728145 0.165026
0.347967 0.729152 0.16527
0.819913 0.852689 0.122576
0.97612 0.806256 0.124681
0.00627146 0.0238346 0.349187
0.0767376 0.0135195 0.32462
0.362753 0 0.305989
0.363272 0 0.305394
0.367803 0 0.300191
0.016495 0.127367 0.44622
0.0289616 0.104921 0.43064
0.357183 0.00808728 0.310765
0.416938 0 0.227039
0.423468 0 0.205844
0.0392309 0.377188 0.472572
0.0361028 0.347265 0.438834
0.452781 0.517281 0.516655
0.834165 0.432929 0.394705
0.808042 0.387594 0.34815
0.276921 0.585397 0.182254
0.301518 0.617899 0.17789
0.360586 0.713588 0.190448
0.93193 0.799664 0.123186
0.992309 0.748745 0.119554
0.331945 0.690593 0.173098
0.340246 0.713069 0.169009
0.346365 0.727077 0.165499
0.79469 0.857191 0.122225
0.97612 0.806256 0.124681
0.00627146 0.0238346 0.349187
0.0646525 0.0128939 0.321248
0.362753 0 0.305989
0.362737 0 0.305989
0.362737 0 0.305989
0.0151064 0.11191 0.434089
0.0238804 0.0862745 0.415305
0.316457 0.00509651 0.343297
0.362753 0 0.306004
0.362753 0 0.305989
0.0407568 0.366217 0.596551
0.0377356 0.341146 0.588174
0.230991 0.472694 0.704799
0.688075 0.378576 0.659083
0.668254 0.334478 0.627604
0.074876 0.570748 0.681758
0.0748608 0.570733 0.681498
0.07953 0.576455 0.683299
0.977081 0.98674 0.969177
1 0.968277 0.952972
0.0749218 0.570947 0.676356
0.074876 0.570993 0.665232
0.074052 0.568887 0.628565
0.800641 0.953277 0.752148
1 0.996399 0.71191
0.00627146 0.0238346 0.349187
0.0581826 0.0125124 0.319615
0.361837 0 0.3066
0.362737 0 0.305989
0.362737 0 0.305989
0.0144198 0.104524 0.428153
0.0216526 0.0768902 0.405203
0.308629 0.00479133 0.344335
0.362753 0 0.306004
0.362753 0 0.305989
0.0396887 0.357748 0.593774
0.03682 0.333196 0.585504
0.215808 0.456611 0.694072
0.680797 0.360723 0.646571
0.658976 0.315465 0.613748
0.0749065 0.570809 0.681804
0.0748608 0.570687 0.681727
0.0776837 0.572519 0.683513
0.958618 0.974365 0.997345
0.999817 0.950179 0.992645
0.0749065 0.570809 0.681819
0.0749065 0.570809 0.681819
0.0748608 0.570733 0.681727
0.64126 0.929854 0.953414
1 1 1
