Shader/明暗调节.cube
TITLE "Generated by Resolve"
LUT_3D_SIZE 33
0 0.00030518 0.0272068
0 0.00030518 0.0272068
0 0.00030518 0.0272068
0.000610361 0.000289921 0.0270542
0.00885023 0.000213626 0.0251469
0.0218051 0.000106813 0.0223239
0.0355688 0 0.0197299
0.0513161 0 0.019379
0.0700847 0 0.0190585
0.0920119 0 0.018616
0.117586 1.5259e-05 0.0180056
0.144869 6.10361e-05 0.0173495
0.172198 0.000106813 0.0166781
0.199557 0.000335698 0.0161593
0.228443 0.00140383 0.0163577
0.260426 0.00451667 0.0178836
0.295567 0.00869764 0.0203861
0.334035 0.0136873 0.0237888
0.37644 0.0198978 0.0280156
0.419608 0.026215 0.0328832
0.46334 0.0327764 0.038407
0.507469 0.0396124 0.0446784
0.555627 0.0488594 0.0523842
0.60473 0.0589303 0.0611734
0.654856 0.0698863 0.0712291
0.705028 0.0816815 0.0828412
0.75642 0.0968948 0.0978866
0.808148 0.115511 0.115984
0.860166 0.138125 0.137713
0.909255 0.163897 0.162997
0.95581 0.191913 0.191058
0.991516 0.222751 0.221988
1 0.256641 0.255772
0 0.00030518 0.0272068
0 0.00030518 0.0272068
1.5259e-05 0.00030518 0.0272068
1.5259e-05 0.00030518 0.0272068
0.0091249 0.000213626 0.0250858
0.0211795 0.000106813 0.0222934
0.0354009 0 0.0197147
0.0513924 0 0.0193942
0.0713359 0 0.019028
0.0944076 0 0.018555
0.120378 3.0518e-05 0.0179599
0.148409 6.10361e-05 0.017258
0.175998 0.000122072 0.0166018
0.204074 0.000579843 0.0162509
0.233097 0.00167849 0.016434
0.265888 0.00512703 0.018204
0.302571 0.00958267 0.0210422
0.342229 0.0148928 0.0246128
0.384314 0.0210117 0.028748
0.428473 0.0275425 0.0339208
0.472648 0.0342565 0.0397803
0.518212 0.0417182 0.0464027
0.566598 0.0509346 0.0540475
0.616846 0.0615091 0.0634623
0.667948 0.0729534 0.0742504
0.71931 0.0855726 0.0866712
0.772045 0.101686 0.102632
0.825071 0.122606 0.122774
0.877455 0.147158 0.146548
0.927459 0.173846 0.172808
0.973846 0.203311 0.202564
0.999908 0.236362 0.235584
1 0.260365 0.259464
0 0.00030518 0.0272068
0 0.00030518 0.0272068
0 0.00030518 0.0272068
0.0009308 0.000289921 0.0269932
0.00820935 0.000228885 0.0252995
0.0208743 0.000106813 0.0223697
0.0357824 3.0518e-05 0.0202487
0.0524758 0 0.0193484
0.0728466 0 0.0190127
0.0974746 1.5259e-05 0.0184939
0.124285 3.0518e-05 0.0178531
0.152651 6.10361e-05 0.0171511
0.180545 0.000137331 0.016495
0.209247 0.000732433 0.0162661
0.239551 0.0024567 0.016846
0.272511 0.00576791 0.0185245
0.310567 0.0105898 0.0217441
0.351492 0.0162356 0.0255131
0.394644 0.0225071 0.0299535
0.439353 0.0291752 0.0352178
0.484138 0.0360113 0.0413977
0.531487 0.0442664 0.0485084
0.58085 0.0538491 0.0565957
0.632532 0.0648508 0.066453
0.68455 0.0768749 0.0781109
0.73753 0.0911574 0.092195
0.791501 0.108431 0.109194
0.846418 0.131975 0.131762
0.898314 0.158145 0.157351
0.94786 0.186603 0.185657
0.994537 0.216876 0.216266
1 0.248524 0.2477
1 0.260365 0.259464
0 0.00030518 0.0272068
0 0.00030518 0.0272068
0 0.00030518 0.0272068
0.0016022 0.000289921 0.0268406
0.00650034 0.000244144 0.0256962
0.0206912 0.000106813 0.0224002
0.036408 3.0518e-05 0.0204013
0.0543526 0 0.0193179
0.0750591 0 0.0189975
0.100771 1.5259e-05 0.0184329
0.12874 3.0518e-05 0.0177462
0.157351 7.62951e-05 0.0170443
0.185809 0.000167849 0.0163882
0.214862 0.000854505 0.0162203
0.246693 0.00320439 0.0172274
0.2813 0.00686656 0.0193027
0.319463 0.0116884 0.0224918
0.362051 0.0177157 0.0265049
0.406287 0.0242466 0.0313268
0.451621 0.0310674 0.0368811
0.497383 0.0380407 0.0432288
0.546746 0.0471656 0.0509194
0.598291 0.057557 0.0599374
0.650935 0.0689555 0.0703288
0.704158 0.081529 0.0827497
0.758602 0.0977646 0.0987106
0.813703 0.117708 0.11809
0.868757 0.141878 0.141283
0.920424 0.170077 0.169116
0.967178 0.20032 0.199451
1 0.230686 0.229999
1 0.25832 0.257435
1 0.260365 0.259464
0 0.00267033 0.0266728
0 0.00233463 0.0267491
0 0.00196841 0.0268254
0.000915541 0.00141909 0.0267338
0.00610361 0.000747692 0.0256809
0.0204318 0.000122072 0.0224613
0.0369573 3.0518e-05 0.0202182
0.0560311 0 0.0193027
0.078172 0.000244144 0.0189364
0.104173 0.000350958 0.0183719
0.133532 0.000198367 0.0176089
0.162478 0.000122072 0.0169223
0.191608 0.000320439 0.0163729
0.220783 0.0009308 0.0161288
0.254063 0.00390631 0.0175784
0.29044 0.00802625 0.0200809
0.330343 0.0132296 0.0234989
0.373861 0.0194095 0.0276188
0.419562 0.026215 0.0328832
0.465797 0.0332341 0.0388647
0.512947 0.0407416 0.045594
0.564294 0.0505379 0.0537575
0.617517 0.061677 0.0636759
0.671031 0.0737011 0.0750134
0.725139 0.0869612 0.0881208
0.780636 0.104952 0.105745
0.836484 0.127749 0.127718
0.890211 0.153292 0.152483
0.941756 0.182025 0.180941
0.9832 0.213931 0.213138
1 0.241733 0.24097
1 0.260365 0.259464
1 0.260365 0.259464
0 0.0109865 0.0248112
0 0.0110933 0.0247807
0 0.0112764 0.0247501
0.000183108 0.0113069 0.0247044
0.00654612 0.0113069 0.0235447
0.0188754 0.011017 0.021622
0.0346532 0.00991836 0.0196841
0.0560311 0.00686656 0.0193179
0.080705 0.0043946 0.0188602
0.10808 0.00268559 0.0182498
0.13814 0.00148013 0.0175021
0.16759 0.00184634 0.0168002
0.197116 0.0024567 0.0163272
0.227665 0.00352483 0.016434
0.261707 0.00602731 0.0179141
0.300191 0.00981155 0.0209049
0.341787 0.0148623 0.0245823
0.386511 0.0212558 0.0289921
0.433265 0.028275 0.0345006
0.480293 0.0354467 0.0408789
0.52961 0.0439155 0.048249
0.58175 0.0540322 0.0567483
0.635782 0.0656138 0.0672465
0.69015 0.0782788 0.0795605
0.744701 0.0933089 0.0942702
0.800763 0.111727 0.112306
0.856031 0.136324 0.135912
0.908751 0.163592 0.162676
0.956771 0.193378 0.192386
0.996612 0.225772 0.225071
1 0.24976 0.248936
1 0.260365 0.259464
1 0.260365 0.259464
0 0.0246281 0.0219577
0 0.0250248 0.0218662
0 0.0254368 0.0217441
0 0.0258946 0.0216068
0.00560006 0.0260929 0.0209659
0.0157473 0.0258488 0.0202335
0.0312352 0.0241703 0.0196231
0.0552529 0.0176699 0.0193179
0.081651 0.0144045 0.0188296
0.110475 0.0127565 0.0181888
0.140749 0.012253 0.0174868
0.171374 0.0117494 0.0168002
0.201831 0.011368 0.0163424
0.234226 0.0119936 0.0168765
0.269642 0.0140536 0.018555
0.308965 0.017731 0.0217746
0.352407 0.0240177 0.0257725
0.398306 0.0310521 0.030808
0.445304 0.0378882 0.0364996
0.492897 0.0444953 0.0430915
0.543542 0.052781 0.0509194
0.596094 0.0621347 0.0599832
0.649989 0.0724651 0.0704051
0.704326 0.0843214 0.0832685
0.760143 0.099855 0.0996109
0.815793 0.119677 0.119036
0.870878 0.144442 0.142168
0.922408 0.173526 0.170428
0.967651 0.204562 0.201251
1 0.234806 0.231662
1 0.259236 0.255863
1 0.263279 0.259648
1 0.263569 0.259693
0 0.0393835 0.0200046
0 0.040116 0.0200046
0 0.0409094 0.0200046
0.000228885 0.0416571 0.0200046
0.00250248 0.0422522 0.0199741
0.0110018 0.0428779 0.0199435
0.0269169 0.0415198 0.019791
0.0507057 0.0380713 0.0194705
0.0806592 0.0336156 0.018967
0.111528 0.0310826 0.0183261
0.142473 0.0292668 0.0176699
0.173251 0.0280919 0.0170596
0.204608 0.0279393 0.0166171
0.238972 0.0301213 0.0174868
0.276387 0.0336004 0.0196841
0.316945 0.0384527 0.023209
0.361334 0.0443275 0.0274968
0.407721 0.0505379 0.0328222
0.454994 0.0568093 0.038819
0.502586 0.0631876 0.0453956
0.554101 0.071809 0.053666
0.60705 0.0814832 0.0631266
0.660945 0.092134 0.0739757
0.714992 0.103624 0.0864271
0.771023 0.119738 0.1037
0.826764 0.139712 0.124559
0.881453 0.163241 0.148898
0.93312 0.190326 0.176883
0.977569 0.219898 0.208026
1 0.247852 0.237079
1 0.270771 0.260517
1 0.27126 0.260578
1 0.271763 0.26067
0.000137331 0.055436 0.0200046
0.000198367 0.0569162 0.0200046
0.000259403 0.0583352 0.0200046
0.000320439 0.059678 0.0200046
0.000701915 0.0611429 0.0200046
0.00714122 0.0627909 0.0200656
0.021561 0.0636912 0.0200656
0.0444648 0.063508 0.0198978
0.076463 0.06215 0.0196078
0.111116 0.0574807 0.0188144
0.143221 0.0547341 0.0182803
0.17435 0.0531014 0.0178531
0.20618 0.0527504 0.0175631
0.242252 0.0550088 0.0184024
0.281559 0.0590372 0.0212863
0.323735 0.0641337 0.0252537
0.36846 0.0701457 0.0298466
0.415167 0.0763867 0.0353857
0.462745 0.0825971 0.0416571
0.511757 0.0895399 0.0487831
0.562493 0.0975662 0.0567941
0.616327 0.107118 0.0665141
0.669963 0.117189 0.0775769
0.724254 0.128634 0.0907301
0.780179 0.142992 0.107515
0.835828 0.1626 0.12961
0.88957 0.185107 0.15491
0.940795 0.209949 0.182925
0.987625 0.236912 0.212985
1 0.266148 0.244358
1 0.282979 0.261997
1 0.283955 0.262272
1 0.284779 0.262425
0.000976577 0.0751507 0.0200504
0.00114443 0.0773785 0.0200809
0.00132753 0.0797589 0.0201114
0.00149538 0.0818647 0.0201572
0.002533 0.084062 0.0202182
0.00505074 0.0862287 0.0203098
0.0162661 0.0883192 0.0205692
0.0388647 0.0929274 0.0212711
0.069749 0.0949111 0.0211795
0.107729 0.0897841 0.0195621
0.142687 0.0849775 0.0189822
0.175723 0.082475 0.0187839
0.209094 0.0823377 0.0189975
0.244694 0.0843214 0.0196231
0.285939 0.0886702 0.0235447
0.329473 0.0939193 0.0280156
0.374792 0.0998093 0.033051
0.421607 0.105837 0.038529
0.469978 0.112566 0.0452888
0.520043 0.120165 0.052903
0.571725 0.128756 0.061326
0.624949 0.138079 0.0706493
0.678264 0.147753 0.0817578
0.732799 0.159319 0.0956741
0.788571 0.173358 0.112902
0.844221 0.191394 0.134844
0.896834 0.212528 0.160616
0.946624 0.235264 0.188586
0.990662 0.259922 0.218891
1 0.291035 0.254582
1 0.299962 0.26392
1 0.301869 0.264927
1 0.303181 0.265156
0.00280766 0.0992599 0.0203708
0.00309758 0.102098 0.0205081
0.00341802 0.105165 0.020676
0.00373846 0.108186 0.0208286
0.00427253 0.110765 0.0209812
0.00682078 0.113146 0.0211795
0.0137179 0.114946 0.0215457
0.03505 0.123827 0.0233463
0.0647593 0.125536 0.023743
0.0995193 0.122713 0.0226444
0.138186 0.117922 0.0195163
0.175128 0.114046 0.0195926
0.211582 0.11371 0.0200656
0.248966 0.116136 0.0217288
0.288731 0.120089 0.0251316
0.333654 0.126101 0.0306401
0.380301 0.132723 0.0364843
0.428061 0.139895 0.0427405
0.477302 0.147326 0.0497597
0.528527 0.156374 0.0580911
0.580972 0.16585 0.0670024
0.633844 0.175036 0.0763561
0.686519 0.184344 0.0869459
0.741543 0.195987 0.101457
0.796994 0.21004 0.119493
0.852293 0.226535 0.141176
0.904219 0.245655 0.166644
0.952499 0.266331 0.194583
0.990417 0.289738 0.225437
1 0.315526 0.258335
1 0.322545 0.266087
1 0.325978 0.26894
1 0.327459 0.269261
0.00573739 0.127504 0.0218357
0.00611887 0.130861 0.0220188
0.00650034 0.134173 0.0222019
0.00689708 0.137346 0.022385
0.00724804 0.140139 0.0225528
0.00985733 0.142458 0.0228733
0.016846 0.145388 0.0234989
0.0326848 0.15108 0.0248264
0.0599069 0.15491 0.027039
0.0923171 0.15436 0.0266728
0.128603 0.15082 0.0246586
0.170336 0.148165 0.0215457
0.211948 0.147463 0.0214389
0.252796 0.149355 0.0229496
0.293935 0.153872 0.0263523
0.33756 0.160037 0.0321965
0.384665 0.167834 0.0391394
0.433951 0.17644 0.0466468
0.484825 0.186038 0.0546731
0.53666 0.196277 0.0635538
0.589593 0.206775 0.0731212
0.642145 0.216541 0.082826
0.695064 0.226108 0.0936599
0.750286 0.237629 0.108202
0.805615 0.251667 0.127123
0.859739 0.267247 0.14902
0.911116 0.283894 0.173205
0.958038 0.301839 0.200488
0.994339 0.323537 0.231739
1 0.342428 0.258213
1 0.354696 0.274281
1 0.356146 0.274815
1 0.357778 0.275181
0.00932326 0.156573 0.0235752
0.00975052 0.160006 0.0237888
0.0101778 0.163439 0.0240024
0.0105898 0.166598 0.0242161
0.0109865 0.169421 0.0244144
0.0124361 0.171618 0.0247044
0.0184939 0.174273 0.0253452
0.03122 0.17792 0.026566
0.0558175 0.184161 0.0289769
0.0864424 0.185351 0.0318456
0.121492 0.184329 0.0315404
0.160998 0.182666 0.0292515
0.207706 0.183368 0.0254978
0.253834 0.185504 0.0251011
0.298924 0.189685 0.0275425
0.343511 0.196567 0.0330663
0.390478 0.205097 0.0404364
0.440238 0.215259 0.0492714
0.491035 0.226184 0.0586557
0.543374 0.237995 0.0682536
0.596353 0.249454 0.0782177
0.649729 0.260273 0.088838
0.703487 0.271153 0.100938
0.758389 0.282902 0.115724
0.814252 0.29691 0.135302
0.866743 0.311254 0.157046
0.916579 0.325933 0.180835
0.963211 0.340902 0.206455
1 0.360265 0.237476
1 0.377554 0.264027
1 0.389914 0.281956
1 0.391455 0.282277
1 0.393011 0.282612
0.0131991 0.185153 0.0255741
0.0137789 0.188968 0.0258793
0.014313 0.192462 0.026154
0.0148318 0.19585 0.0264286
0.0152895 0.198749 0.0266575
0.0156863 0.201099 0.0268559
0.0197299 0.203067 0.027451
0.0322423 0.207462 0.0289006
0.0538491 0.21384 0.0314336
0.0836042 0.217472 0.0352331
0.116747 0.218173 0.0392462
0.15462 0.217929 0.0390784
0.198413 0.218738 0.0361944
0.249729 0.222614 0.0314946
0.300557 0.228367 0.0310674
0.350057 0.235584 0.0341039
0.398215 0.244678 0.0412757
0.447868 0.255451 0.0500038
0.498192 0.26743 0.0600137
0.549416 0.279728 0.0706951
0.601862 0.29247 0.0816052
0.655802 0.304616 0.09308
0.710597 0.316884 0.106691
0.766308 0.330037 0.123247
0.822126 0.343679 0.142794
0.873106 0.356588 0.164431
0.92166 0.369726 0.188113
0.967468 0.383856 0.214191
1 0.399969 0.243717
1 0.41883 0.275624
1 0.427863 0.28983
1 0.429877 0.291112
1 0.431479 0.291432
0.0186007 0.216251 0.0283513
0.0194553 0.220615 0.028809
0.0203098 0.224857 0.0292363
0.0210574 0.228595 0.029633
0.0217288 0.231937 0.029984
0.0225681 0.234531 0.0302892
0.0254826 0.236515 0.0307927
0.0368811 0.241382 0.0325475
0.0561227 0.246632 0.0351263
0.0831311 0.251408 0.0387121
0.115389 0.252995 0.0442817
0.151492 0.254047 0.0495766
0.192279 0.255253 0.0494392
0.240726 0.259174 0.0451972
0.297124 0.26717 0.0399023
0.352483 0.27657 0.0398108
0.405783 0.286427 0.043122
0.456931 0.297597 0.0509651
0.5075 0.310155 0.0606088
0.558251 0.323003 0.0710613
0.609522 0.336049 0.0825208
0.661616 0.348775 0.0951705
0.717525 0.362646 0.110552
0.772946 0.376272 0.128603
0.826902 0.389395 0.148592
0.878279 0.401541 0.169848
0.926207 0.413916 0.194186
0.972137 0.427482 0.221317
1 0.442557 0.251423
1 0.460502 0.285603
1 0.466865 0.296315
1 0.470192 0.300694
1 0.471489 0.300999
0.0261387 0.250919 0.0322728
0.0273136 0.255756 0.0328832
0.0284733 0.260502 0.0334936
0.0295109 0.264759 0.0340429
0.0303502 0.268223 0.0344854
0.0316014 0.27129 0.0349279
0.0338293 0.273823 0.0354314
0.0431678 0.277836 0.0369116
0.061326 0.28278 0.0400092
0.0860609 0.286671 0.0440223
0.116533 0.288853 0.0488746
0.1514 0.290669 0.0569314
0.190799 0.293111 0.0622721
0.235065 0.296574 0.0616159
0.288075 0.304097 0.0560159
0.349096 0.316152 0.0506294
0.408438 0.329183 0.0505684
0.464988 0.341588 0.0535286
0.517571 0.354192 0.0609903
0.568383 0.367864 0.0708171
0.620172 0.381216 0.0822003
0.671748 0.394095 0.0951095
0.723507 0.406439 0.110887
0.777752 0.420127 0.13077
0.830518 0.433051 0.151659
0.881407 0.445182 0.173968
0.929534 0.456977 0.198245
0.975814 0.470054 0.226703
1 0.484657 0.258061
1 0.498985 0.288609
1 0.507988 0.306767
1 0.510399 0.31017
1 0.511406 0.310384
0.0357214 0.28896 0.0372931
0.0371405 0.29427 0.0380255
0.0384527 0.299199 0.0387121
0.0397345 0.30396 0.0393835
0.0407416 0.307729 0.0399176
0.0416724 0.310552 0.0403296
0.0444495 0.313527 0.0409857
0.0504311 0.316777 0.0420996
0.0678874 0.320974 0.0454719
0.0915694 0.324102 0.0500801
0.120745 0.326421 0.0556802
0.154986 0.328389 0.0621805
0.192493 0.332036 0.0720836
0.234668 0.335943 0.0762493
0.282536 0.341878 0.0745098
0.340887 0.353323 0.067689
0.405859 0.369039 0.0627604
0.467536 0.384863 0.0623026
0.525444 0.399481 0.0642863
0.578683 0.412726 0.0704204
0.631037 0.426505 0.0821698
0.682521 0.439414 0.0960098
0.733944 0.451743 0.112322
0.783856 0.462928 0.130892
0.833982 0.474983 0.152804
0.883589 0.486748 0.176364
0.932021 0.498527 0.201663
0.978927 0.510918 0.230411
1 0.525216 0.263722
1 0.53814 0.294301
1 0.548699 0.319158
1 0.549554 0.319356
1 0.550134 0.319448
0.0466163 0.329656 0.0432441
0.0481575 0.335378 0.0441444
0.0495918 0.340658 0.0449683
0.0508583 0.345388 0.045716
0.0518807 0.349218 0.0463417
0.0526131 0.351965 0.0467842
0.055375 0.354589 0.0474403
0.0622873 0.357595 0.0488441
0.0756237 0.360861 0.051545
0.098909 0.363622 0.0569314
0.127428 0.365805 0.0628061
0.160754 0.368261 0.0696269
0.198245 0.371664 0.0779126
0.237461 0.376532 0.087953
0.282689 0.38172 0.090135
0.335561 0.390173 0.087129
0.400153 0.405478 0.0801709
0.465507 0.424826 0.0761578
0.528084 0.44271 0.0749218
0.586404 0.457664 0.0757458
0.641108 0.47097 0.0826276
0.693446 0.483772 0.0977646
0.743954 0.495689 0.115282
0.793317 0.506493 0.134432
0.840635 0.516533 0.154482
0.887343 0.526848 0.177646
0.934569 0.538048 0.20441
0.981704 0.550408 0.234623
1 0.56408 0.269245
1 0.578271 0.305226
1 0.586908 0.326925
1 0.588464 0.329946
1 0.589181 0.330175
0.057969 0.372564 0.0503853
0.0594949 0.378576 0.0514992
0.0608682 0.384024 0.0525063
0.0620279 0.388678 0.0533913
0.062974 0.392508 0.0541238
0.0636606 0.3953 0.0546731
0.0662394 0.397726 0.0552682
0.0741283 0.400305 0.056733
0.0876173 0.40264 0.0593576
0.108003 0.404593 0.0639048
0.136004 0.406531 0.0701305
0.168978 0.409033 0.0769513
0.205798 0.412512 0.0848402
0.244892 0.41738 0.0949569
0.286824 0.423056 0.103471
0.335943 0.429511 0.103639
0.394293 0.441245 0.100282
0.460456 0.460868 0.094789
0.525872 0.481697 0.0908675
0.588678 0.499947 0.0894179
0.647379 0.513939 0.0899519
0.702159 0.525917 0.100633
0.753063 0.537591 0.119249
0.801694 0.548104 0.139681
0.849073 0.55787 0.1608
0.894102 0.566613 0.182101
0.939773 0.577173 0.209171
0.986236 0.589578 0.241886
1 0.603708 0.279179
1 0.618219 0.317632
1 0.625208 0.335653
1 0.628183 0.342779
1 0.628901 0.343053
0.0692149 0.417807 0.0590219
0.0707408 0.424125 0.0602121
0.0721599 0.429984 0.0613413
0.0731975 0.434241 0.0621347
0.0740673 0.437858 0.0628214
0.0751507 0.440787 0.0634012
0.0770733 0.443122 0.0638895
0.0856794 0.444984 0.0650339
0.100145 0.446845 0.0675517
0.120287 0.448356 0.0715801
0.146151 0.449912 0.0777752
0.178714 0.451469 0.0845808
0.215106 0.454292 0.092195
0.254368 0.458762 0.100969
0.29427 0.464271 0.112139
0.33875 0.47126 0.11899
0.391394 0.480156 0.118547
0.453452 0.494759 0.115419
0.519432 0.516152 0.11075
0.585611 0.53753 0.10782
0.64799 0.554528 0.107393
0.706722 0.566888 0.110185
0.759869 0.577676 0.124651
0.809201 0.588251 0.145464
0.855756 0.597696 0.167651
0.900954 0.606485 0.190005
0.947143 0.617517 0.219059
0.993378 0.630243 0.253574
1 0.643946 0.29102
1 0.658 0.330129
1 0.665263 0.349737
1 0.668055 0.356664
1 0.668742 0.356893
0.080766 0.465736 0.0681163
0.0822766 0.471763 0.0692302
0.0836194 0.477089 0.0701915
0.0847028 0.481407 0.070985
0.085481 0.484474 0.0715496
0.0865339 0.486763 0.0719921
0.0892195 0.488716 0.0725109
0.0965591 0.490089 0.0733196
0.112352 0.49099 0.0754559
0.132998 0.491905 0.0793469
0.158206 0.492622 0.0849165
0.188785 0.493965 0.0921492
0.22501 0.496315 0.0994736
0.263584 0.50016 0.107805
0.304219 0.505348 0.117494
0.34522 0.512154 0.129473
0.391333 0.520546 0.134966
0.446494 0.531502 0.134463
0.511757 0.54844 0.131868
0.577066 0.571008 0.129015
0.643198 0.591089 0.127764
0.704723 0.606531 0.129168
0.762768 0.617548 0.135058
0.814084 0.627588 0.152789
0.861921 0.637278 0.175158
0.908186 0.647822 0.202136
0.954772 0.659373 0.233188
1 0.671931 0.268742
1 0.684703 0.30544
1 0.696422 0.339834
1 0.706386 0.368765
1 0.707073 0.370077
1 0.707515 0.370291
0.0926986 0.513191 0.0767834
0.0941482 0.518868 0.077821
0.0954147 0.523705 0.0786755
0.0964218 0.527626 0.0793774
0.0971847 0.53048 0.079881
0.0979629 0.532479 0.0802472
0.101183 0.533669 0.0806744
0.108354 0.534508 0.0813916
0.123842 0.534859 0.082887
0.145281 0.535012 0.0865949
0.170657 0.535729 0.0921645
0.199664 0.536797 0.0993515
0.23444 0.538811 0.106752
0.272923 0.542306 0.114656
0.313313 0.547387 0.12401
0.354528 0.553719 0.134981
0.396399 0.561837 0.146838
0.444373 0.571725 0.152102
0.501045 0.584527 0.152331
0.568185 0.602579 0.14995
0.633417 0.624338 0.148394
0.697978 0.642466 0.149371
0.75845 0.656474 0.15375
0.815366 0.666499 0.162814
0.866041 0.676722 0.185565
0.914839 0.688624 0.215579
0.962112 0.701411 0.25037
1 0.713741 0.286305
1 0.725582 0.322683
1 0.736614 0.357427
1 0.744549 0.383017
1 0.744976 0.383322
1 0.745434 0.383642
0.105104 0.560983 0.0852674
0.106584 0.566629 0.0862593
0.107683 0.570825 0.0869917
0.108568 0.574212 0.0875868
0.109285 0.576852 0.0880751
0.109712 0.578424 0.088365
0.112764 0.579278 0.0886397
0.121004 0.579385 0.0892653
0.135409 0.579309 0.0905928
0.157458 0.579171 0.0935683
0.183215 0.579705 0.0992599
0.212299 0.581018 0.10631
0.244739 0.582864 0.114229
0.282902 0.585657 0.121721
0.32311 0.590478 0.130709
0.364202 0.596963 0.141314
0.405753 0.604593 0.153796
0.448798 0.614191 0.165499
0.497612 0.623987 0.170779
0.554864 0.636896 0.171435
0.623148 0.654658 0.168566
0.686427 0.674495 0.168841
0.750011 0.69099 0.172656
0.810346 0.70454 0.181659
0.867384 0.715572 0.198795
0.919585 0.728923 0.232151
0.968093 0.741833 0.267781
1 0.754131 0.304829
1 0.765621 0.341344
1 0.775723 0.375555
1 0.780819 0.3935
1 0.782406 0.398322
1 0.782727 0.398337
0.118425 0.611078 0.0942092
0.119905 0.616541 0.095201
0.120958 0.620523 0.0959029
0.121675 0.623163 0.096376
0.122118 0.624918 0.0966659
0.122744 0.626093 0.0969406
0.124788 0.626413 0.0970932
0.133623 0.626322 0.0978103
0.14873 0.626017 0.0992294
0.170169 0.625513 0.101579
0.196719 0.626154 0.106905
0.225879 0.627344 0.114168
0.258 0.628779 0.122042
0.293492 0.630854 0.1299
0.333562 0.634836 0.13817
0.374762 0.64094 0.148486
0.416159 0.648295 0.160479
0.457328 0.656962 0.174731
0.500618 0.664836 0.184527
0.550347 0.674189 0.189914
0.608499 0.686763 0.191394
0.6757 0.703609 0.18854
0.738384 0.721752 0.191608
0.802563 0.739147 0.202869
0.864485 0.754437 0.221424
0.922087 0.767681 0.249744
0.971847 0.780819 0.286229
1 0.792935 0.323354
1 0.804211 0.360082
1 0.813825 0.394293
1 0.817884 0.409613
1 0.819776 0.416037
1 0.820096 0.416052
0.133333 0.663371 0.104479
0.134768 0.668284 0.105486
0.135851 0.672007 0.106249
0.136431 0.674144 0.106661
0.136751 0.67541 0.106874
0.137484 0.676112 0.106996
0.139361 0.676051 0.107103
0.147143 0.675639 0.107774
0.16321 0.675212 0.109377
0.184909 0.674907 0.112062
0.211612 0.674617 0.115999
0.240787 0.674861 0.122927
0.272435 0.675746 0.130724
0.306752 0.677012 0.138735
0.344442 0.679103 0.146304
0.385153 0.684871 0.15639
0.426062 0.691508 0.168154
0.466819 0.698558 0.181033
0.506432 0.705547 0.1953
0.551064 0.712551 0.203616
0.601968 0.72134 0.209125
0.660716 0.734157 0.212665
0.727382 0.751324 0.213687
0.793301 0.771267 0.225864
0.858045 0.789319 0.245365
0.919249 0.804761 0.271107
0.973236 0.817563 0.304646
1 0.829908 0.341985
1 0.840925 0.378561
1 0.850095 0.411612
1 0.854688 0.430533
1 0.856046 0.43473
1 0.856428 0.434897
0.149889 0.715221 0.11606
0.151263 0.719249 0.117006
0.152224 0.722179 0.117693
0.152865 0.724163 0.118135
0.15314 0.725216 0.118334
0.153811 0.725765 0.118425
0.156588 0.725948 0.1187
0.16286 0.725719 0.119371
0.17847 0.724865 0.121004
0.2009 0.72372 0.123415
0.22742 0.722606 0.126986
0.256825 0.721828 0.132082
0.287587 0.721752 0.139849
0.321035 0.722438 0.147662
0.356954 0.724361 0.156024
0.395712 0.72784 0.16492
0.435813 0.73373 0.17615
0.475517 0.739483 0.18851
0.515084 0.745235 0.201511
0.554543 0.750729 0.215686
0.601038 0.757519 0.223072
0.654353 0.767727 0.230671
0.715267 0.78265 0.239979
0.782559 0.801297 0.249958
0.848157 0.82034 0.268681
0.911452 0.837705 0.294011
0.96968 0.851865 0.324071
1 0.864622 0.360693
1 0.876051 0.397772
1 0.884672 0.429557
1 0.890135 0.452918
1 0.890425 0.453071
1 0.8907 0.453193
0.168063 0.764736 0.128756
0.16939 0.768109 0.129686
0.170275 0.770336 0.130282
0.17084 0.771862 0.130694
0.17116 0.772793 0.130907
0.171527 0.773098 0.130938
0.174594 0.7729 0.131136
0.181704 0.772305 0.13167
0.194476 0.771328 0.132815
0.216953 0.769833 0.135149
0.243626 0.768139 0.138354
0.272953 0.766949 0.142855
0.303761 0.766308 0.149111
0.335958 0.766995 0.15758
0.370199 0.768277 0.165911
0.406546 0.770718 0.174685
0.444923 0.774624 0.184482
0.483894 0.779477 0.196078
0.523003 0.784268 0.208682
0.562814 0.788968 0.221973
0.605081 0.795621 0.237888
0.654429 0.804471 0.249271
0.709529 0.816098 0.261158
0.770626 0.830808 0.275029
0.835859 0.848478 0.291096
0.899687 0.86656 0.315847
0.959915 0.882918 0.345739
1 0.896666 0.3794
1 0.90901 0.417273
1 0.917189 0.448859
1 0.921813 0.46804
1 0.922515 0.470619
1 0.922713 0.470649
0.188022 0.812177 0.14316
0.189487 0.815366 0.144259
0.190311 0.817151 0.144869
0.190753 0.818235 0.145174
0.190982 0.818799 0.145266
0.190967 0.818845 0.145098
0.193393 0.818143 0.144961
