Shader/明暗调节.cube
TITLE "Generated by Resolve"
LUT_3D_SIZE 5
0 0.00030518 0.0272068
0.0700847 0 0.0190585
0.295567 0.00869764 0.0203861
0.654856 0.0698863 0.0712291
1 0.256641 0.255772
0.000137331 0.055436 0.0200046
0.076463 0.06215 0.0196078
0.36846 0.0701457 0.0298466
0.780179 0.142992 0.107515
1 0.284779 0.262425
0.0357214 0.28896 0.0372931
0.0678874 0.320974 0.0454719
0.405859 0.369039 0.0627604
0.833982 0.474983 0.152804
1 0.550134 0.319448
0.133333 0.663371 0.104479
0.16321 0.675212 0.109377
0.426062 0.691508 0.168154
0.858045 0.789319 0.245365
1 0.856428 0.434897
0.327245 0.992691 0.264149
0.343465 0.991562 0.263508
0.546304 0.994797 0.312474
0.82269 0.998734 0.404486
1 1 0.551583
0 0 0.0734417
0.0562905 0 0.057908
0.302251 0.00906386 0.0383001
0.667063 0.0726024 0.0759136
1 0.257176 0.257816
1.5259e-05 0.0674296 0.0682841
0.066041 0.0674449 0.0725567
0.382254 0.0754864 0.0711681
0.800259 0.153521 0.147295
1 0.28835 0.283696
0.031632 0.305318 0.060029
0.0635233 0.334096 0.0770733
0.417395 0.380438 0.0933852
0.846159 0.483742 0.188006
1 0.55285 0.335393
0.131426 0.671443 0.125765
0.161456 0.679347 0.131456
0.427161 0.696193 0.184619
0.860838 0.792401 0.267018
1 0.857313 0.4486
0.330922 0.994217 0.285115
0.34342 0.991974 0.279255
0.540566 0.992813 0.319738
0.82034 0.999847 0.414496
1 1 0.559319
3.0518e-05 3.0518e-05 0.265202
3.0518e-05 3.0518e-05 0.277089
0.257786 0.0396429 0.253651
0.656947 0.0584573 0.293202
0.998627 0.258549 0.404425
0.000106813 0.0438697 0.306981
0.000137331 0.0591135 0.333684
0.346273 0.101869 0.343557
0.792081 0.153628 0.422705
1 0.305974 0.503227
0.000656138 0.343038 0.336294
0.00077821 0.374395 0.366751
0.351675 0.374075 0.390417
0.795682 0.431647 0.422568
1 0.518929 0.510781
0.00172427 0.716152 0.429877
0.00177005 0.721172 0.43447
0.360708 0.723079 0.432609
0.831617 0.787854 0.499184
1 0.85684 0.624857
0.280888 0.995789 0.506081
0.310384 0.996323 0.502525
0.5234 0.996551 0.514153
0.800046 0.998734 0.565286
1 1 0.670771
0.000137331 0.00392157 0.579355
0.00015259 0.00521859 0.594217
0.0243076 0.0108339 0.568597
0.611078 0.137484 0.62298
0.985794 0.327855 0.691508
0.000259403 0.0526131 0.634546
0.000366217 0.0796826 0.66804
0.161105 0.0959945 0.669825
0.734447 0.221469 0.743633
1 0.420264 0.790997
0.00105287 0.395727 0.669184
0.00112917 0.426749 0.701991
0.0806439 0.421607 0.716716
0.728878 0.472343 0.748653
1 0.562203 0.772732
0.00189212 0.755947 0.744411
0.00190738 0.760037 0.74847
0.0165103 0.762432 0.748379
0.719341 0.755413 0.778485
1 0.786191 0.779828
0.3299 0.999893 0.774762
0.333074 0.999832 0.768841
0.453132 1 0.765301
0.765637 0.99884 0.781338
1 1 0.822202
0.115404 0.121523 0.924865
0.125307 0.130358 0.936873
0.108614 0.115816 0.915831
0.50544 0.186801 0.927672
0.952041 0.438331 0.953872
0.14789 0.166415 0.968551
0.162783 0.190448 0.986526
0.157626 0.18471 0.981064
0.65771 0.309224 1
0.996857 0.527855 1
0.0782483 0.442039 0.987655
0.110933 0.468696 0.997879
0.100313 0.464775 0.994766
0.639368 0.513542 1
0.990036 0.630335 0.992493
0.213581 0.775296 1
0.195636 0.775845 0.99762
0.1935 0.769039 0.998764
0.632151 0.779095 1
0.990936 0.81207 0.991089
0.527169 1 0.998154
0.522271 0.999527 0.996185
0.530571 1 0.999832
0.748684 0.996994 0.993332
0.997757 0.998337 0.990188
