Shader/明暗调节.cube
TITLE "Generated by Resolve"
LUT_3D_SIZE 9
0 0.00030518 0.0272068
0.00885023 0.000213626 0.0251469
0.0700847 0 0.0190585
0.172198 0.000106813 0.0166781
0.295567 0.00869764 0.0203861
0.46334 0.0327764 0.038407
0.654856 0.0698863 0.0712291
0.860166 0.138125 0.137713
1 0.256641 0.255772
0 0.00267033 0.0266728
0.00610361 0.000747692 0.0256809
0.078172 0.000244144 0.0189364
0.191608 0.000320439 0.0163729
0.330343 0.0132296 0.0234989
0.512947 0.0407416 0.045594
0.725139 0.0869612 0.0881208
0.941756 0.182025 0.180941
1 0.260365 0.259464
0.000137331 0.055436 0.0200046
0.000701915 0.0611429 0.0200046
0.076463 0.06215 0.0196078
0.20618 0.0527504 0.0175631
0.36846 0.0701457 0.0298466
0.562493 0.0975662 0.0567941
0.780179 0.142992 0.107515
0.987625 0.236912 0.212985
1 0.284779 0.262425
0.00932326 0.156573 0.0235752
0.0109865 0.169421 0.0244144
0.0558175 0.184161 0.0289769
0.207706 0.183368 0.0254978
0.390478 0.205097 0.0404364
0.596353 0.249454 0.0782177
0.814252 0.29691 0.135302
1 0.360265 0.237476
1 0.393011 0.282612
0.0357214 0.28896 0.0372931
0.0407416 0.307729 0.0399176
0.0678874 0.320974 0.0454719
0.192493 0.332036 0.0720836
0.405859 0.369039 0.0627604
0.631037 0.426505 0.0821698
0.833982 0.474983 0.152804
1 0.525216 0.263722
1 0.550134 0.319448
0.080766 0.465736 0.0681163
0.085481 0.484474 0.0715496
0.112352 0.49099 0.0754559
0.22501 0.496315 0.0994736
0.391333 0.520546 0.134966
0.643198 0.591089 0.127764
0.861921 0.637278 0.175158
1 0.684703 0.30544
1 0.707515 0.370291
0.133333 0.663371 0.104479
0.136751 0.67541 0.106874
0.16321 0.675212 0.109377
0.272435 0.675746 0.130724
0.426062 0.691508 0.168154
0.601968 0.72134 0.209125
0.858045 0.789319 0.245365
1 0.840925 0.378561
1 0.856428 0.434897
0.210636 0.85919 0.160754
0.213519 0.86479 0.163134
0.236133 0.861021 0.164202
0.338262 0.854536 0.176196
0.467369 0.856321 0.206622
0.625025 0.874098 0.264515
0.814389 0.902556 0.336492
1 0.963867 0.45185
1 0.979065 0.503197
0.327245 0.992691 0.264149
0.331121 0.99382 0.267735
0.343465 0.991562 0.263508
0.429313 0.992065 0.280842
0.546304 0.994797 0.312474
0.672724 0.994003 0.334646
0.82269 0.998734 0.404486
0.995758 1 0.510262
1 1 0.551583
0 0.000289921 0.0285954
0.00932326 0.000213626 0.0250401
0.0716411 0 0.0195621
0.175265 0.000122072 0.0166171
0.300343 0.009308 0.0208286
0.469398 0.0337224 0.039292
0.662303 0.0716259 0.0729534
0.868681 0.142611 0.142123
1 0.258061 0.25716
0 0.00218204 0.0283665
0.00662242 0.000244144 0.0258488
0.0824292 0.00062562 0.0188296
0.196902 0.000442512 0.0163272
0.338994 0.0144503 0.0243229
0.524468 0.0429084 0.047425
0.738338 0.0911116 0.0922103
0.952789 0.190036 0.189029
1 0.260365 0.259464
0.000244144 0.0578012 0.0200046
0.00134279 0.0646525 0.0200198
0.0816358 0.0666361 0.0195926
0.214389 0.0577401 0.0179599
0.379705 0.0764019 0.0315251
0.576394 0.104753 0.0596628
0.794675 0.151614 0.113008
0.997635 0.247028 0.221027
1 0.287663 0.262837
0.0100099 0.162097 0.0239261
0.0118257 0.175326 0.0248569
0.0594034 0.190723 0.0298161
0.215503 0.190494 0.0263523
0.402029 0.213794 0.0423438
0.609628 0.259312 0.0812085
0.827909 0.307591 0.141024
1 0.370016 0.244984
1 0.398642 0.283864
0.0379034 0.297093 0.0384222
0.0429236 0.315847 0.041062
0.0721447 0.329107 0.0472267
0.199039 0.339803 0.0747082
0.416159 0.378332 0.0647746
0.641276 0.435172 0.0840772
0.84303 0.482109 0.15671
1 0.531289 0.269123
1 0.553979 0.320348
0.0830243 0.474708 0.0697642
0.0875715 0.492775 0.0730602
0.11603 0.498146 0.0769207
0.229969 0.502342 0.101167
0.39678 0.526284 0.136736
0.649073 0.596674 0.129702
0.866957 0.64152 0.178271
1 0.688807 0.310201
1 0.709758 0.371084
0.135439 0.670604 0.105959
0.138537 0.681361 0.10811
0.166064 0.680491 0.110735
0.275685 0.680079 0.132082
0.429206 0.695369 0.16939
0.605081 0.724163 0.209766
0.861219 0.791959 0.248478
1 0.842969 0.381415
1 0.857481 0.435355
0.212909 0.863401 0.162661
0.215198 0.868238 0.164508
0.238209 0.864027 0.165454
0.340215 0.856809 0.177478
0.468605 0.858412 0.207202
0.626154 0.875639 0.265446
0.815351 0.903593 0.33753
1 0.964401 0.452766
1 0.979309 0.503304
0.330922 0.993774 0.267582
0.32958 0.993378 0.266331
0.343938 0.991608 0.263691
0.432166 0.993118 0.284123
0.544564 0.993942 0.310018
0.67216 0.993667 0.334691
0.822507 0.999298 0.404913
0.994125 1 0.510765
1 1 0.550774
0 0 0.0734417
0.0016022 0 0.0739605
0.0562905 0 0.057908
0.17261 3.0518e-05 0.0429389
0.302251 0.00906386 0.0383001
0.472679 0.0336156 0.0494698
0.667063 0.0726024 0.0759136
0.874098 0.145235 0.147692
1 0.257176 0.257816
0 0.00062562 0.0776989
0.0009308 0 0.0809491
0.0677806 0.000900282 0.0628672
0.195117 0.000244144 0.0504768
0.343343 0.0140688 0.0538643
0.531182 0.0425574 0.0740063
0.746548 0.0925612 0.115206
0.957916 0.194568 0.208316
1 0.259678 0.271244
1.5259e-05 0.0674296 0.0682841
0.000106813 0.0759289 0.0764019
0.066041 0.0674449 0.0725567
0.215885 0.0576944 0.0574502
0.382254 0.0754864 0.0711681
0.581445 0.104524 0.0981155
0.800259 0.153521 0.147295
0.99646 0.251408 0.246265
1 0.28835 0.283696
0.00230411 0.169055 0.0563516
0.00308232 0.185061 0.0668803
0.0443275 0.194812 0.0690776
0.215534 0.192523 0.060029
0.405829 0.214801 0.0788739
0.612146 0.259373 0.119326
0.830213 0.308141 0.173785
1 0.370535 0.266606
1 0.397986 0.302602
0.031632 0.305318 0.060029
0.0326543 0.324407 0.0710307
0.0635233 0.334096 0.0770733
0.196887 0.342229 0.0966659
0.417395 0.380438 0.0933852
0.645365 0.43772 0.123903
0.846159 0.483742 0.188006
1 0.531167 0.288426
1 0.55285 0.335393
0.0794842 0.479286 0.0885176
0.0829175 0.495888 0.0952773
0.109819 0.499886 0.0982986
0.226993 0.503136 0.11754
0.395239 0.527428 0.152422
0.648585 0.598321 0.152789
0.868666 0.642649 0.202625
1 0.689494 0.32813
1 0.709667 0.385611
0.131426 0.671443 0.125765
0.1337 0.680446 0.131029
0.161456 0.679347 0.131456
0.271962 0.680339 0.149081
0.427161 0.696193 0.184619
0.603128 0.724041 0.223224
0.860838 0.792401 0.267018
1 0.843412 0.395743
1 0.857313 0.4486
0.210575 0.864073 0.183856
0.212253 0.868254 0.186679
0.23566 0.863508 0.185016
0.337713 0.856703 0.195346
0.465614 0.858518 0.222675
0.623285 0.875288 0.278126
0.81268 0.90219 0.347417
1 0.964309 0.463722
1 0.979309 0.514916
0.330922 0.994217 0.285115
0.325429 0.99266 0.281163
0.34342 0.991974 0.279255
0.432609 0.994079 0.29958
0.540566 0.992813 0.319738
0.669306 0.993606 0.346746
0.82034 0.999847 0.414496
0.991485 1 0.516747
1 1 0.559319
1.5259e-05 1.5259e-05 0.155901
1.5259e-05 1.5259e-05 0.162295
0.0077821 1.5259e-05 0.162142
0.139406 0.00660716 0.132708
0.291249 0.0099794 0.123674
0.465919 0.0282139 0.130816
0.662303 0.0661936 0.152911
0.872496 0.143816 0.208835
1 0.255177 0.297948
1.5259e-05 1.5259e-05 0.171801
1.5259e-05 0.000549325 0.179477
0.0103456 0.000244144 0.180148
0.161257 0.0112612 0.151812
0.333806 0.016434 0.154223
0.530892 0.0375525 0.176211
0.74757 0.08925 0.216663
0.954498 0.195117 0.289616
1 0.262028 0.341543
4.57771e-05 0.0533455 0.180331
4.57771e-05 0.0624094 0.191791
0.0102846 0.0621653 0.198001
0.184695 0.0688182 0.176013
0.372259 0.0722515 0.181415
0.579171 0.0959793 0.211948
0.798489 0.14934 0.260365
0.985718 0.251102 0.334874
1 0.289494 0.366873
0.000122072 0.178897 0.175967
0.000167849 0.195499 0.190951
0.00114443 0.203708 0.198581
0.180545 0.182727 0.188571
0.393301 0.198459 0.186099
0.593256 0.237003 0.223621
0.812421 0.288914 0.276799
0.995651 0.3579 0.348974
1 0.387945 0.379156
0.000640879 0.32401 0.180865
0.000534066 0.34313 0.196704
0.00222782 0.353582 0.204593
0.154147 0.350622 0.199603
0.400092 0.373816 0.20444
0.637476 0.426017 0.252262
0.838514 0.474174 0.305943
1 0.51696 0.371237
1 0.539834 0.408286
0.00819409 0.498772 0.22005
0.00381476 0.515846 0.23476
0.0217441 0.519036 0.237644
0.19176 0.50927 0.22916
0.377691 0.537255 0.257557
0.633844 0.592935 0.27892
0.871794 0.6448 0.337774
1 0.688365 0.422538
1 0.708431 0.468391
0.0551919 0.689021 0.263706
0.0525063 0.699367 0.272679
0.098085 0.693004 0.267613
0.240833 0.688151 0.268208
0.410193 0.703334 0.290486
0.585916 0.724132 0.319615
0.856947 0.796643 0.377935
1 0.847395 0.481865
1 0.860945 0.526467
0.17821 0.867842 0.304677
0.180087 0.871717 0.308644
0.208728 0.865812 0.30547
0.317449 0.861448 0.309331
0.451972 0.86389 0.326543
0.614603 0.879026 0.366888
0.797681 0.898253 0.420035
1 0.966705 0.530373
1 0.982956 0.57879
0.317937 0.994949 0.381186
0.31191 0.993683 0.378698
0.3355 0.994003 0.378119
0.424567 0.994995 0.38677
0.535088 0.993774 0.401266
0.662928 0.995117 0.425025
0.812528 0.999557 0.476829
0.982712 1 0.560403
1 1 0.604852
3.0518e-05 3.0518e-05 0.265202
3.0518e-05 3.0518e-05 0.273716
3.0518e-05 3.0518e-05 0.277089
0.0556954 0.00373846 0.264103
0.257786 0.0396429 0.253651
0.451514 0.045716 0.266484
0.656947 0.0584573 0.293202
0.865888 0.144152 0.341192
0.998627 0.258549 0.404425
4.57771e-05 4.57771e-05 0.288609
4.57771e-05 0.000228885 0.299458
4.57771e-05 4.57771e-05 0.304616
0.0764019 0.00761425 0.294209
0.305226 0.052491 0.301198
0.517739 0.0690929 0.330648
0.746273 0.0927901 0.375311
0.946227 0.199939 0.430106
1 0.278431 0.472221
0.000106813 0.0438697 0.306981
0.000122072 0.054902 0.323766
0.000137331 0.0591135 0.333684
0.0985885 0.0620737 0.328237
0.346273 0.101869 0.343557
0.563699 0.12134 0.376608
0.792081 0.153628 0.422705
0.974853 0.2589 0.476692
1 0.305974 0.503227
0.000274662 0.180743 0.315755
0.000335698 0.198856 0.335744
0.000366217 0.207095 0.346548
0.05449 0.200534 0.359091
0.360754 0.222431 0.364981
0.578286 0.246525 0.391684
0.794614 0.276646 0.426001
0.974029 0.351446 0.478569
1 0.388022 0.5028
0.000656138 0.343038 0.336294
0.000732433 0.364233 0.357168
0.00077821 0.374395 0.366751
0.00813306 0.388556 0.377584
0.351675 0.374075 0.390417
0.600946 0.398764 0.393332
0.795682 0.431647 0.422568
0.973877 0.487053 0.478096
1 0.518929 0.510781
0.00129702 0.533623 0.378973
0.00134279 0.553048 0.393759
0.00135805 0.556008 0.396918
0.0311589 0.556832 0.398154
0.315938 0.570535 0.406485
0.599619 0.582223 0.412955
0.851759 0.626688 0.471397
1 0.673396 0.536171
1 0.694667 0.569574
0.00172427 0.716152 0.429877
0.00175479 0.724285 0.437385
0.00177005 0.721172 0.43447
0.120806 0.715358 0.42533
0.360708 0.723079 0.432609
0.557916 0.73872 0.45362
0.831617 0.787854 0.499184
1 0.842649 0.589426
1 0.85684 0.624857
0.0348058 0.888991 0.468605
0.0328679 0.892271 0.471595
0.0562142 0.885908 0.464942
0.258198 0.875776 0.454246
0.424628 0.877653 0.461936
0.594766 0.88835 0.488746
0.773434 0.895369 0.522789
1 0.960189 0.616098
1 0.978714 0.661311
0.280888 0.995789 0.506081
0.278996 0.995453 0.504616
0.310384 0.996323 0.502525
0.407034 0.996368 0.503349
0.5234 0.996551 0.514153
0.653574 0.996857 0.531411
0.800046 0.998734 0.565286
0.963882 1 0.625254
1 1 0.670771
9.15541e-05 9.15541e-05 0.410605
9.15541e-05 9.15541e-05 0.421363
9.15541e-05 9.15541e-05 0.42652
9.15541e-05 9.15541e-05 0.419562
0.18938 0.0319371 0.40441
0.425193 0.0835584 0.429419
0.631586 0.125093 0.461067
0.848325 0.155993 0.49958
0.995697 0.277668 0.546181
9.15541e-05 0.000106813 0.441199
0.000106813 0.000167849 0.454139
0.000106813 0.000183108 0.460609
0.000106813 0.000137331 0.45922
0.24889 0.0462196 0.460609
0.498222 0.102647 0.503685
0.713375 0.16083 0.541817
0.925582 0.227527 0.586633
1 0.312932 0.618845
0.000213626 0.0472267 0.464012
0.000244144 0.0623178 0.483619
0.000259403 0.0670329 0.494087
0.0015259 0.0630503 0.495064
0.29456 0.0957504 0.505608
0.544686 0.147021 0.551278
0.754665 0.205478 0.583581
0.958282 0.287037 0.626764
1 0.340261 0.647623
0.000503548 0.18941 0.476707
0.000564584 0.209644 0.498512
0.000595102 0.21915 0.509163
0.00283818 0.22063 0.512764
0.300679 0.223667 0.531075
0.555276 0.273136 0.567269
0.761532 0.31133 0.58912
0.959289 0.372183 0.625223
1 0.417197 0.643778
0.000915541 0.366796 0.498146
0.000991836 0.389425 0.5205
0.00102235 0.398505 0.529412
0.00102235 0.399969 0.53164
0.233692 0.390982 0.572168
0.549706 0.424262 0.575967
0.758007 0.447318 0.583291
0.949035 0.483986 0.607706
1 0.52343 0.632502
0.00140383 0.557565 0.547372
0.00143435 0.573846 0.563439
0.00144961 0.575952 0.565301
0.00143435 0.572412 0.561517
0.102388 0.603037 0.584405
0.526635 0.573922 0.598489
0.785733 0.588067 0.58677
0.964935 0.628763 0.622141
1 0.658198 0.65069
0.00184634 0.751827 0.590539
0.0018616 0.758633 0.597391
0.0018616 0.756481 0.594995
0.00184634 0.752667 0.58819
0.18999 0.75996 0.580804
0.496193 0.771191 0.599268
0.784741 0.768154 0.611215
1 0.813199 0.681804
1 0.83032 0.711284
0.00221256 0.909194 0.619333
0.012253 0.911665 0.621439
0.0179446 0.906294 0.615305
0.0866255 0.899763 0.605631
0.359701 0.900313 0.608179
0.558404 0.903685 0.621302
0.746807 0.904418 0.644633
0.985519 0.938277 0.700984
1 0.959686 0.74403
0.287282 0.997696 0.642771
0.288029 0.997681 0.641581
0.294972 0.99762 0.637049
0.346517 0.998093 0.63357
0.497658 0.998825 0.640528
0.63888 0.999146 0.650614
0.78439 0.997742 0.669383
0.93579 1 0.703685
1 1 0.745251
0.000137331 0.00392157 0.579355
0.00015259 0.00486763 0.590082
0.00015259 0.00521859 0.594217
0.000137331 0.00447089 0.584665
0.0243076 0.0108339 0.568597
0.381857 0.0785992 0.586206
0.611078 0.137484 0.62298
0.81088 0.214069 0.649363
0.985794 0.327855 0.691508
0.00015259 0.00624094 0.610513
0.000167849 0.00769055 0.624765
0.000167849 0.00859083 0.632029
0.000167849 0.00805676 0.629847
0.10547 0.0370794 0.62327
0.461479 0.103151 0.666697
0.692256 0.170428 0.7019
0.898009 0.285679 0.736599
1 0.388251 0.765072
0.000259403 0.0526131 0.634546
0.000320439 0.0747234 0.657145
0.000366217 0.0796826 0.66804
0.000350958 0.0770123 0.669367
0.161105 0.0959945 0.669825
0.505623 0.149599 0.711604
0.734447 0.221469 0.743633
0.933257 0.343069 0.77377
1 0.420264 0.790997
0.000610361 0.203677 0.649348
0.000671397 0.225162 0.674006
0.000686656 0.234791 0.685817
0.000701915 0.23772 0.688212
0.146365 0.232166 0.698451
0.510323 0.278691 0.725597
0.738628 0.335637 0.752346
0.928618 0.421942 0.772396
1 0.481025 0.786603
0.00105287 0.395727 0.669184
0.00111391 0.418296 0.693324
0.00112917 0.426749 0.701991
0.00112917 0.427161 0.702022
0.0806439 0.421607 0.716716
0.49015 0.420279 0.739651
0.728878 0.472343 0.748653
0.913893 0.522469 0.758541
1 0.562203 0.772732
0.00149538 0.582956 0.713191
0.0015259 0.596735 0.727275
0.0015259 0.597452 0.72842
0.00151064 0.592233 0.72401
0.0258946 0.597879 0.733257
0.430762 0.579889 0.779339
0.728206 0.613169 0.761044
0.917693 0.642023 0.759701
1 0.659663 0.765118
0.00189212 0.755947 0.744411
0.00190738 0.763012 0.751293
0.00190738 0.760037 0.74847
0.00189212 0.753079 0.741695
0.0165103 0.762432 0.748379
0.381689 0.791226 0.771374
0.719341 0.755413 0.778485
0.938354 0.766659 0.763699
1 0.786191 0.779828
0.00520333 0.927596 0.777646
0.0152132 0.928313 0.777813
0.0103304 0.924712 0.773236
0.00227359 0.920073 0.768322
0.202258 0.925216 0.762997
0.482918 0.930968 0.761379
0.704265 0.923445 0.772168
0.933654 0.91284 0.784146
1 0.9308 0.820539
0.3299 0.999893 0.774762
0.335195 0.999878 0.773861
0.333074 0.999832 0.768841
0.318563 0.999725 0.763043
0.453132 1 0.765301
0.621942 1 0.774365
0.765637 0.99884 0.781338
0.911727 0.995315 0.796658
1 1 0.822202
0.0111238 0.0366064 0.760159
0.0140383 0.0402075 0.770474
0.0162814 0.0419471 0.774121
0.0137331 0.0387579 0.764614
0.0040589 0.0314488 0.749813
0.289372 0.0890364 0.745312
0.56875 0.145647 0.776013
0.793088 0.244846 0.805188
0.976608 0.391012 0.829969
0.0250401 0.0496986 0.792157
0.0320745 0.0560464 0.806928
0.0375219 0.0599222 0.814252
0.0383001 0.0598764 0.813474
0.0351263 0.057908 0.810132
0.382803 0.120363 0.824475
0.655436 0.203555 0.85832
0.874342 0.330571 0.880613
1 0.456031 0.895323
0.0263066 0.0920882 0.817472
0.0315251 0.112718 0.839033
0.0374304 0.121035 0.848157
0.0395666 0.121202 0.849485
0.0375372 0.118853 0.847913
0.431098 0.167529 0.864805
0.697185 0.260533 0.895796
0.906905 0.38793 0.91017
1 0.483803 0.917403
0.00205997 0.231052 0.829374
0.00204471 0.252567 0.852201
0.00210575 0.261891 0.861204
0.0027924 0.265019 0.862821
0.00910964 0.265538 0.862638
0.432486 0.292439 0.877836
0.700587 0.363775 0.899474
0.901228 0.453193 0.906538
1 0.527779 0.909087
0.00114443 0.416632 0.84126
0.0011902 0.437232 0.860212
0.00122072 0.444739 0.866835
0.00120546 0.444511 0.86595
0.00538643 0.442115 0.865125
0.392157 0.433204 0.892699
0.687175 0.488716 0.893935
0.885664 0.546395 0.894865
0.999176 0.598001 0.895033
0.00157168 0.600443 0.868376
0.0016022 0.612696 0.880858
0.0016022 0.612924 0.881712
0.00158694 0.607355 0.877272
0.0043946 0.604196 0.875761
0.356527 0.607172 0.907057
0.680858 0.618036 0.908782
0.88423 0.6645 0.896361
0.997711 0.696239 0.892134
0.00195315 0.767819 0.892561
0.00196841 0.773053 0.897566
0.00196841 0.770184 0.895262
0.00195315 0.764782 0.890883
0.00657664 0.762722 0.88986
0.359854 0.779339 0.905898
0.649638 0.762036 0.935256
0.886076 0.783291 0.900328
0.998367 0.797879 0.893126
0.193668 0.917662 0.904372
0.196155 0.918471 0.905165
0.182559 0.915099 0.901839
0.164981 0.911009 0.89778
0.182086 0.910033 0.896742
0.449989 0.916243 0.900847
0.651652 0.928191 0.910323
0.879179 0.899687 0.906294
1 0.900526 0.894408
0.423301 1 0.903624
0.428595 1 0.902663
0.415106 1 0.89807
0.402884 0.999969 0.894255
0.424765 1 0.894347
0.594324 1 0.899046
0.745174 1 0.899474
0.88925 0.997681 0.897017
1 1 0.900847
0.115404 0.121523 0.924865
0.121782 0.12668 0.933837
0.125307 0.130358 0.936873
0.11899 0.124849 0.928847
0.108614 0.115816 0.915831
0.115343 0.112764 0.907134
0.50544 0.186801 0.927672
0.755108 0.297261 0.947875
0.952041 0.438331 0.953872
0.13962 0.143191 0.954238
0.151003 0.153384 0.968109
0.151522 0.153735 0.969009
0.149508 0.151904 0.96669
0.154925 0.157015 0.972473
0.242832 0.170367 0.975143
0.607889 0.261845 0.990158
0.838849 0.379416 0.993606
0.993378 0.512978 0.997696
0.14789 0.166415 0.968551
0.156664 0.182345 0.97969
0.162783 0.190448 0.986526
0.16231 0.189487 0.985977
0.157626 0.18471 0.981064
0.333227 0.213626 0.992874
0.65771 0.309224 1
0.87512 0.421424 1
0.996857 0.527855 1
0.126619 0.27599 0.976867
0.137255 0.295766 0.987305
0.147265 0.306294 0.995224
0.146349 0.308782 0.995331
0.139696 0.307881 0.991608
0.33698 0.325353 0.997864
0.657542 0.39939 1
0.867918 0.483925 1
0.994202 0.567285 0.997757
0.0782483 0.442039 0.987655
0.0966659 0.461662 0.993591
0.110933 0.468696 0.997879
0.119707 0.468147 1
0.100313 0.464775 0.994766
0.284092 0.466621 0.998199
0.639368 0.513542 1
0.851102 0.572442 0.998703
0.990036 0.630335 0.992493
0.103426 0.624201 0.998199
0.0996414 0.632959 0.997528
0.0999466 0.632425 0.997513
0.117586 0.628367 1
0.095613 0.624491 0.99649
0.278431 0.627573 0.998245
0.629587 0.634226 1
0.852064 0.680949 0.99852
0.989471 0.716289 0.990753
0.213581 0.775296 1
0.208621 0.778912 0.999802
0.195636 0.775845 0.99762
0.201038 0.771267 1
0.1935 0.769039 0.998764
0.333486 0.773907 0.998184
0.632151 0.779095 1
0.854261 0.789929 0.999466
0.990936 0.81207 0.991089
0.372946 0.909651 1
0.37702 0.910506 1
0.360739 0.907012 0.997345
0.35642 0.902724 0.998093
0.361852 0.901244 1
0.448371 0.903548 0.997269
0.663478 0.90901 0.997879
0.848402 0.900481 1
0.994995 0.90518 0.992676
0.527169 1 0.998154
0.536507 1 1
0.522271 0.999527 0.996185
0.518395 0.998718 0.994797
0.530571 1 0.999832
0.596735 0.999146 0.996323
0.748684 0.996994 0.993332
0.876722 0.997208 0.994644
0.997757 0.998337 0.990188
