Shader/电影复古.cube
TITLE "Generated by Resolve"
LUT_3D_SIZE 5
0.0273899 0.0303197 0.0335699
0.0774548 0.0397803 0.0340276
0.585 0 0
0.68484 0 0
0.684596 0 0
0.00157168 0.0710613 0.045304
0.0631113 0.0803235 0.0449531
0.638209 0.039704 0
0.733303 0.0105898 0
0.728466 0.00404364 0
0 0.303243 0.010132
0 0.338491 0.000885023
0.608087 0.499458 0
0.924559 0.472419 0
0.916976 0.448264 0
0 0.457069 0
0 0.500069 0
0.327688 0.683162 0
1 0.865293 0
1 0.864713 0
0 0.489479 0
0 0.539666 0
0.436927 0.721569 0
1 0.877363 0
1 0.875227 0
0.0135805 0.0265202 0.106477
0.0743114 0.0366979 0.10277
0.593668 0 0.0257725
0.697215 0 0.000579843
0.694942 0 0.000106813
0 0.079942 0.103288
0.0526894 0.0895857 0.10634
0.648157 0.0120241 0.0150607
0.745617 0.00178531 0.00062562
0.741283 0.000762951 0.000518807
0 0.326162 0.0804303
0 0.367224 0.0761883
0.624796 0.527123 0.000122072
0.94313 0.501518 0
0.936629 0.480034 0
0 0.465782 0.0256809
0 0.512261 0.0446784
0.321706 0.697093 0.000167849
1 0.871702 0
1 0.870939 0
0 0.499825 0.109178
0 0.558846 0.146288
0.431235 0.727764 0.0247807
1 0.874113 0
1 0.868528 0
0 0 0.463584
0.0089723 0 0.471839
0.62855 0 0.539879
0.7337 0 0.404929
0.722087 0 0.306325
0 0.000289921 0.489342
0.00367742 0.00320439 0.522148
0.65977 0.00120546 0.572457
0.776837 0 0.455848
0.769238 0 0.40824
0 0.400916 0.517845
0 0.442924 0.550881
0.547417 0.561624 0.554009
0.917082 0.511666 0.489647
0.914809 0.495247 0.477043
0 0.537011 0.394171
0 0.586664 0.45922
0.129091 0.739452 0.466224
0.998001 0.881544 0.357626
1 0.882277 0.383658
0 0.566857 0.433463
0 0.634943 0.534188
0.280034 0.783963 0.549004
0.998703 0.903044 0.492012
1 0.908049 0.541314
0 0 0.518898
0.00292973 0 0.533776
0.59707 0 0.640635
0.794263 0 0.666728
0.786297 0 0.6448
0 0.0344244 0.573129
0 0.0393225 0.58172
0.588144 0.161379 0.685435
0.820462 0.115023 0.709148
0.817517 0.0678264 0.700954
0 0.409506 0.713237
0 0.454917 0.733333
0.407507 0.572839 0.790524
0.922118 0.552636 0.814206
0.925277 0.54902 0.813443
0 0.598199 0.765454
0 0.634287 0.787457
0.0328374 0.780896 0.828489
0.976684 0.942748 0.872129
0.999863 0.946792 0.873533
0 0.626749 0.780423
0 0.675502 0.806241
0.0654459 0.810712 0.834363
0.981033 0.951583 0.878264
0.997726 0.954055 0.881209
0 0 0.522988
0.000442512 0 0.536156
0.45771 3.0518e-05 0.620661
0.792447 0 0.671595
0.803769 0 0.677531
0 0.00993362 0.566033
0 0.0475013 0.582498
0.503044 0.174792 0.67657
0.816876 0.0965438 0.707256
0.820356 0.10341 0.7075
0 0.427146 0.719417
0 0.444862 0.727489
0.384344 0.550423 0.783673
0.921157 0.550225 0.815518
0.927794 0.55935 0.817655
0 0.600855 0.775433
0 0.636881 0.793515
0.0226444 0.779797 0.833188
0.969421 0.942824 0.882124
0.99884 0.947097 0.882246
0 0.630625 0.788815
0 0.679728 0.810727
0.090898 0.815641 0.838392
0.981231 0.951858 0.884199
0.996674 0.95404 0.884733
