Shader/电影暗青.cube
TITLE "Generated by Resolve"
LUT_3D_SIZE 5
0.0280766 0.0296483 0.0327611
0.0659648 0.034699 0.0338598
0.474418 0 0
0.662089 0 0
0.662089 0 0
0.00314336 0.0817578 0.0471809
0.037171 0.0740978 0.0484169
0.476921 0.0609751 0
0.692775 0 0
0.666148 0 0
0 0.297078 0.000839246
0 0.290944 0.00134279
0.458228 0.391913 0
0.858213 0.375326 0
0.822477 0.277745 0
0 0.477607 0
0 0.480308 0
0.0512703 0.61651 0
0.998245 0.828946 0
1 0.799939 0
0 0.509758 0
0 0.509758 0
0 0.549264 0
0.886 0.854719 0
1 0.875975 0
0.00854505 0.00906386 0.13611
0.06804 0.0276036 0.111177
0.515999 0 0.0399329
0.693492 0 0.000396735
0.667643 0 0
0 0.0887007 0.0994888
0.0263523 0.0793317 0.0802625
0.513313 0.0351568 0.000564584
0.718547 0 0
0.670176 0 0
0 0.315557 0.00788891
0 0.312093 0.00859083
0.48336 0.414801 0
0.865095 0.382162 0
0.824506 0.282612 0
0 0.478111 0
0 0.481147 0
0.0723888 0.622797 0
0.999512 0.83183 0
1 0.804257 0
0 0.509758 0
0 0.509758 0
0 0.553872 0
0.900649 0.858183 0
1 0.875975 0
0 0 0.491035
1.5259e-05 0 0.487495
0.543328 0 0.511589
0.743343 0 0.493309
0.73109 0 0.372076
0 0 0.524605
0 6.10361e-05 0.507958
0.537881 0 0.503243
0.765576 0 0.481727
0.733013 0 0.364019
0 0.427375 0.564935
0 0.426429 0.565072
0.459007 0.487037 0.513146
0.885176 0.408408 0.436515
0.851865 0.26923 0.283314
0 0.583062 0.447639
0 0.592203 0.485985
0 0.709834 0.443381
0.997909 0.858167 0.183856
1 0.834745 1.5259e-05
0 0.542336 0.21088
0 0.556893 0.261921
0 0.59675 0.254322
0.887098 0.855512 3.0518e-05
1 0.868971 0
0 0 0.543328
0 0 0.557122
0.508537 0 0.641337
0.776135 0 0.698528
0.773388 0 0.692653
0 0 0.621118
0 0 0.622431
0.5037 0 0.688731
0.795087 0 0.721767
0.773312 0 0.692409
0 0.410391 0.792645
0 0.412253 0.796338
0.337469 0.483955 0.831632
0.882979 0.414847 0.859739
0.853147 0.254871 0.811032
0 0.647547 0.866819
0 0.648356 0.86836
0 0.764233 0.917205
0.964279 0.973495 0.974105
0.997024 0.95996 0.961517
0 0.661173 0.84625
0 0.662028 0.85684
0 0.698024 0.875868
0.786908 0.949584 0.915312
1 0.984894 0.913588
0 0 0.543328
0 0 0.550393
0.450309 0 0.634195
0.774212 0 0.697063
0.77615 0 0.698573
0 0 0.602029
0 0 0.599084
0.435706 0 0.664805
0.781277 0 0.706203
0.77615 0 0.698573
0 0.354955 0.77322
0 0.362692 0.777523
0.250904 0.422263 0.809476
0.866361 0.351965 0.845396
0.844419 0.200137 0.811688
0 0.646296 0.870832
0 0.647379 0.871504
0 0.739132 0.917632
0.947662 0.968414 0.988647
0.994461 0.955535 0.991608
0 0.665095 0.885557
0 0.665095 0.885557
0 0.691356 0.900542
0.727565 0.949172 0.970199
0.999985 1 0.999969
