Shader/电影复古.cube
TITLE "Generated by Resolve"
LUT_3D_SIZE 33
0.0273899 0.0303197 0.0335699
0.0280003 0.030457 0.0337682
0.0293431 0.0307774 0.0342107
0.031342 0.0312505 0.0347448
0.0342107 0.0319066 0.0351263
0.0383307 0.0328374 0.0352483
0.0474708 0.0344854 0.035111
0.0602731 0.0367742 0.0347601
0.0774548 0.0397803 0.0340276
0.104372 0.0439918 0.0315709
0.149111 0.0479744 0.0208743
0.209476 0.0501411 0.0089723
0.284688 0.0486763 0.00125124
0.37084 0.0324254 0.000274662
0.452827 0.0134432 0
0.525444 0.00103761 0
0.585 0 0
0.624933 0 0
0.650492 0 0
0.66601 0 0
0.674556 0 0
0.679408 0 0
0.682765 0 0
0.684001 0 0
0.68484 0 0
0.685344 0 0
0.685527 0 0
0.685573 0 0
0.685649 0 0
0.685634 0 0
0.685405 0 0
0.685054 0 0
0.684596 0 0
0.0271305 0.0314336 0.0338445
0.0276646 0.0315099 0.0340124
0.0288548 0.0317845 0.0344701
0.0308537 0.0321965 0.0349279
0.0337377 0.0327611 0.0352941
0.0378882 0.0335241 0.0354467
0.0475166 0.0350805 0.0352941
0.0606851 0.0373388 0.0348211
0.0777905 0.0403601 0.0339055
0.102434 0.0447089 0.0315404
0.147982 0.0487678 0.0202792
0.209964 0.0510109 0.00842298
0.287053 0.0493019 0.0016022
0.372976 0.0298009 0.000320439
0.455024 0.012192 0
0.527016 0.00198367 0
0.585306 0 0
0.625483 0 0
0.650217 0 0
0.665263 0 0
0.673747 0 0
0.678782 0 0
0.682368 0 0
0.684672 0 0
0.686519 0 0
0.687709 0 0
0.688197 0 0
0.688167 0 0
0.687984 0 0
0.687861 0 0
0.687419 0 0
0.686778 0 0
0.686152 0 0
0.0270237 0.0331121 0.0343023
0.0275578 0.0331731 0.0345006
0.0285039 0.0333715 0.0349279
0.0307774 0.0336919 0.0352941
0.0339971 0.0341039 0.0356146
0.0384375 0.0346532 0.035874
0.047303 0.0361334 0.0358129
0.0598611 0.0386053 0.035462
0.0772412 0.0420844 0.0344701
0.105669 0.046479 0.0309606
0.151904 0.050309 0.0219883
0.212451 0.0528115 0.0108492
0.286351 0.0520638 0.000579843
0.375769 0.0346685 0.000106813
0.457862 0.0152895 0
0.528847 0.00320439 0
0.585855 0 0
0.626841 0 0
0.650126 0 0
0.664347 0 0
0.67332 0 0
0.679896 0 0
0.685435 0 0
0.688869 0 0
0.690669 0 0
0.691569 0 0
0.69192 0 0
0.691859 0 0
0.691691 0 0
0.691463 0 0
0.690837 0 0
0.689952 0 0
0.689128 0 0
0.0264591 0.0356298 0.0351263
0.0268864 0.0357824 0.0353552
0.0275883 0.0359808 0.0356909
0.029984 0.036347 0.0360418
0.0333104 0.03682 0.0363928
0.0376593 0.0374304 0.0366979
0.0450752 0.0387732 0.036759
0.057908 0.0412604 0.0364538
0.077348 0.0448463 0.0354162
0.107744 0.0489815 0.0318456
0.153872 0.0526284 0.0230411
0.214328 0.0548562 0.0115663
0.288838 0.0538033 0.000213626
0.380163 0.0395972 3.0518e-05
0.462928 0.0160525 0
0.53434 0.00230411 0
0.591501 0 0
0.631556 0 0
0.653056 0 0
0.666651 0 0
0.676036 0 0
0.683558 0 0
0.690181 0 0
0.694591 0 0
0.696101 0 0
0.696605 0 0
0.696712 0 0
0.696757 0 0
0.696757 0 0
0.696712 0 0
0.696239 0 0
0.695552 0 0
0.694682 0 0
0.0252689 0.03888 0.0362249
0.0255741 0.0390936 0.0364538
0.0261234 0.0392767 0.0366979
0.0285649 0.0396735 0.0370794
0.0319524 0.040177 0.0374456
0.036347 0.0408789 0.0377661
0.0432746 0.0421302 0.0378424
0.0564889 0.0444953 0.0375677
0.0770428 0.0479896 0.0366064
0.107897 0.0521553 0.0333562
0.154376 0.0558022 0.0235294
0.215839 0.0578775 0.0115358
0.29247 0.0566873 0.000595102
0.384176 0.0456092 7.62951e-05
0.468818 0.0185397 0
0.542199 0.00256352 0
0.599893 1.5259e-05 0
0.638392 0 0
0.6589 0 0
0.672587 0 0
0.682506 0 0
0.690105 0 0
0.696071 0 0
0.700816 0 0
0.702113 0 0
0.702693 0 0
0.702876 0 0
0.702907 0 0
0.702831 0 0
0.702647 0 0
0.701976 0 0
0.701091 0 0
0.700084 0 0
0.0231174 0.0430915 0.0376898
0.02327 0.0433661 0.0378729
0.0238804 0.0434577 0.0380407
0.0263371 0.0437629 0.0384375
0.0298619 0.0442359 0.0388342
0.0345464 0.0448768 0.0390631
0.0428473 0.046128 0.0390631
0.0565347 0.0482795 0.0388037
0.0762493 0.0514229 0.037995
0.104372 0.0561074 0.0353857
0.152453 0.0601816 0.0234836
0.21677 0.0631418 0.0111543
0.296559 0.0633249 0.0021973
0.387259 0.0540322 0.000289921
0.474372 0.0317998 0
0.548745 0.0115969 0
0.606592 0.000122072 0
0.645335 0 0
0.666499 0 0
0.680003 0 0
0.689372 0 0
0.696437 0 0
0.702113 0 0
0.706706 0 0
0.708446 0 0
0.70901 0 0
0.709102 0 0
0.708995 0 0
0.708858 0 0
0.708659 0 0
0.708019 0 0
0.707134 0 0
0.706172 0 0
0.0178378 0.049012 0.0396429
0.0183566 0.0492103 0.039765
0.0194247 0.0494392 0.0399023
0.0216678 0.0498817 0.0402075
0.0252232 0.0504768 0.0404669
0.0306859 0.0512856 0.0406195
0.0401617 0.0527657 0.0406806
0.0539559 0.0550393 0.0405127
0.0729534 0.0582284 0.0398566
0.101061 0.0628977 0.0375219
0.150301 0.0671244 0.0271763
0.21619 0.070985 0.0144808
0.297398 0.0730144 0.00315862
0.392767 0.067277 0.000381476
0.482261 0.0453193 0
0.557992 0.0214084 0
0.615656 0.00418097 0
0.653758 0 0
0.674357 0 0
0.687465 0 0
0.696803 0 0
0.703807 0 0
0.709438 1.5259e-05 0
0.714107 4.57771e-05 0
0.715694 0.000106813 0
0.71606 0.000167849 0
0.715938 0.000167849 0
0.715663 0.000122072 0
0.715465 4.57771e-05 0
0.715221 1.5259e-05 0
0.714595 0 0
0.713817 0 0
0.712947 0 0
0.0104067 0.0582132 0.0421607
0.0106813 0.0585641 0.0422522
0.0117037 0.0589761 0.0423896
0.0137331 0.0593881 0.0426032
0.0173342 0.0599374 0.0428168
0.0234684 0.0606699 0.0429847
0.0332341 0.0621805 0.0431373
0.0478828 0.0645151 0.0429541
0.0686198 0.0677348 0.0421759
0.100175 0.0724956 0.0396429
0.149477 0.077409 0.0307469
0.215259 0.0823224 0.0171817
0.298283 0.0861524 0.00260929
0.39794 0.0841688 0.000289921
0.490455 0.0651713 0
0.568109 0.0397345 0
0.626429 0.0160525 0
0.662867 0.00296025 0
0.68304 0.00154116 0
0.695766 0.00129702 0
0.705074 0.00144961 0
0.712154 0.00164797 0
0.717906 0.00181582 0
0.722698 0.00192264 0
0.723964 0.00189212 0
0.723964 0.00166323 0
0.723644 0.00128176 0
0.723293 0.000823987 0
0.723049 0.000411994 0
0.722789 0.000106813 0
0.722148 0 0
0.72134 0 0
0.720317 0 0
0.00157168 0.0710613 0.045304
0.00122072 0.0717174 0.0454414
0.0019379 0.0721447 0.0455634
0.00376898 0.0724651 0.0457465
0.00723278 0.0727703 0.0459602
0.0134432 0.073167 0.0461585
0.0222934 0.0746624 0.0464027
0.038407 0.0770733 0.0461128
0.0631113 0.0803235 0.0449531
0.100313 0.0852827 0.0418555
0.149157 0.0912642 0.0334173
0.214923 0.0974441 0.0184939
0.299168 0.1028 0.00115969
0.402411 0.104479 0.000122072
0.499199 0.0932937 0
0.579797 0.0697795 0
0.638209 0.039704 0
0.672694 0.0129702 0
0.69308 0.0069276 0
0.705623 0.00517281 0
0.714534 0.00622568 0
0.721416 0.00772107 0
0.727108 0.0091249 0
0.731334 0.0103151 0
0.733303 0.0105898 0
0.733043 0.00949111 0
0.732448 0.0078584 0
0.731929 0.00634775 0
0.731517 0.00567636 0
0.731106 0.00579843 0
0.730327 0.00555428 0
0.729442 0.00492866 0
0.728466 0.00404364 0
0.000427253 0.0861677 0.0494087
0.00030518 0.0866712 0.0495918
0.000396735 0.0873426 0.0497292
0.000747692 0.0881666 0.0499275
0.00161746 0.0890211 0.0501564
0.00349432 0.090013 0.0504158
0.00976577 0.0915389 0.0503243
0.0264134 0.0937362 0.0496834
0.0541543 0.0971389 0.0482795
0.0914931 0.10251 0.0450294
0.145129 0.10898 0.0339971
0.215961 0.116045 0.0190433
0.30486 0.122957 0.00411994
0.409125 0.128191 0.000427253
0.510277 0.124071 0
0.591669 0.111986 0
0.649424 0.0948348 0
0.684703 0.0774853 0
0.70457 0.0644541 0
0.717174 0.0565499 0
0.726131 0.0527352 0
0.732967 0.0508431 0
0.738445 0.0491798 0
0.742657 0.047776 0
0.744121 0.044831 0
0.743511 0.0410925 0
0.742641 0.0378882 0
0.74197 0.0359045 0
0.741573 0.0349889 0
0.741085 0.0337377 0
0.740185 0.0307774 0
0.739178 0.0269474 0
0.738094 0.0225223 0
3.0518e-05 0.109834 0.0532082
1.5259e-05 0.110964 0.0534371
0 0.112093 0.0535439
0 0.113085 0.0536812
0.000122072 0.114092 0.0538338
0.000534066 0.11487 0.0539101
0.00393683 0.116091 0.053666
0.0143587 0.118212 0.0529335
0.0348669 0.121813 0.0513313
0.0766918 0.12842 0.0468605
0.136217 0.136477 0.0331884
0.212818 0.146242 0.0176089
0.306004 0.156451 0.00462348
0.416052 0.164065 0.00047303
0.519844 0.163363 0
0.602731 0.155962 0
0.662165 0.144167 0
0.699351 0.130587 0
0.71986 0.117418 0
0.73225 0.10811 0
0.740963 0.102068 0
0.747524 0.098146 0
0.752728 0.0957504 0
0.756588 0.0944228 0
0.757961 0.0915694 0
0.756542 0.0863813 0
0.755199 0.0821241 0
0.754253 0.0792706 0
0.753735 0.0778973 0
0.753201 0.0762951 0
0.752148 0.0722515 0
0.751095 0.0669413 0
0.749783 0.0601968 0
0 0.139361 0.056199
0 0.141192 0.0563668
0 0.14258 0.0562753
0 0.143771 0.0562753
0 0.144778 0.0562905
0 0.145861 0.0562295
0.00112917 0.147463 0.0558328
0.00587472 0.150256 0.0547646
0.0175326 0.154452 0.05243
0.0530098 0.161868 0.0457771
0.116808 0.172213 0.0282597
0.201007 0.18526 0.012253
0.302113 0.199527 0.00300603
0.415702 0.210193 0.00030518
0.522438 0.212284 0
0.609598 0.207599 0
0.673442 0.197177 0
0.71487 0.183597 0
0.737346 0.170306 0
0.750484 0.160418 0
0.759533 0.15285 0
0.765957 0.147265 0
0.770718 0.144366 0
0.774182 0.144106 0
0.775525 0.142794 0
0.773266 0.13753 0
0.771206 0.132494 0
0.769848 0.128588 0
0.768994 0.126375 0
0.768185 0.125322 0
0.766995 0.123659 0
0.765805 0.121263 0
0.764324 0.11841 0
0 0.173129 0.0578622
0 0.175174 0.0576638
0 0.176928 0.0571756
0 0.178302 0.0569009
0 0.179782 0.056733
0 0.181704 0.0566415
0 0.184726 0.0559396
0.00172427 0.188678 0.0539864
0.00686656 0.194034 0.0499733
0.0239719 0.201862 0.0401617
0.0855268 0.214145 0.0192721
0.176684 0.230259 0.00395209
0.287861 0.248569 0.000228885
0.402441 0.263096 3.0518e-05
0.515053 0.269306 0
0.608637 0.267079 0
0.679438 0.25774 0
0.728176 0.24358 0
0.755261 0.227771 0
0.771145 0.214801 0
0.781659 0.204746 0
0.788617 0.197452 0
0.793149 0.192645 0
0.796216 0.190311 0
0.797299 0.188067 0
0.795178 0.182452 0
0.792813 0.177142 0
0.790829 0.173007 0
0.789715 0.170947 0
0.788968 0.169833 0
0.787549 0.16733 0
0.786206 0.164767 0
0.784894 0.162127 0
0 0.210864 0.0542
0 0.213336 0.0535592
0 0.214923 0.0530251
0 0.216342 0.0526894
0 0.217792 0.052491
0 0.220478 0.0522774
0 0.223987 0.0507668
0.000244144 0.228534 0.0469825
0.00137331 0.234592 0.0400549
0.00970474 0.244022 0.0260471
0.0489662 0.257084 0.0107576
0.130922 0.273671 0.0012665
0.252537 0.293095 3.0518e-05
0.371557 0.31043 0
0.486793 0.320272 0
0.5888 0.322377 0
0.670954 0.317021 0
0.730343 0.305699 0
0.768597 0.291386 0
0.790982 0.278141 0
0.80528 0.267002 0
0.814343 0.258839 0
0.820111 0.253834 0
0.823667 0.251164 0
0.825483 0.249226 0
0.823438 0.243 0
0.821057 0.237064 0
0.81915 0.232609 0
0.818143 0.230411 0
0.817212 0.228672 0
0.815625 0.225727 0
0.81387 0.222477 0
0.8121 0.218936 0
0 0.245823 0.0441444
0 0.247944 0.0425574
0 0.24947 0.0415351
0 0.251011 0.0408637
0 0.252964 0.0403143
0 0.256016 0.0396429
0 0.259983 0.0354772
0 0.26537 0.0290532
0.000167849 0.272404 0.0209506
0.00250248 0.28249 0.0118257
0.0272526 0.295933 0.00457771
0.0902571 0.312856 0.000534066
0.19736 0.332876 0
0.325444 0.353399 0
0.446418 0.368017 0
0.557244 0.376074 0
0.652796 0.376669 0
0.727687 0.370169 0
0.779187 0.358587 0
0.810513 0.345495 0
0.830457 0.333623 0
0.842756 0.324971 0
0.85008 0.319585 0
0.854475 0.317327 0
0.857252 0.31725 0
0.855817 0.312139 0
0.853376 0.306279 0
0.851591 0.302037 0
0.850568 0.299611 0
0.849485 0.297414 0
0.847715 0.294011 0
0.84596 0.290623 0
0.843946 0.28661 0
0 0.276722 0.0285344
0 0.278584 0.0269017
0 0.280125 0.025803
0 0.282216 0.0247349
0 0.284825 0.0235904
0 0.288487 0.0217136
0 0.293126 0.0172732
0 0.298955 0.0121614
0 0.306615 0.00715648
1.5259e-05 0.317098 0.00331121
0.0101015 0.330678 0.00115969
0.0500343 0.347829 0.000198367
0.135286 0.369192 0
0.272282 0.393393 0
0.401633 0.414588 0
0.52311 0.430152 0
0.632471 0.438621 0
0.722957 0.439506 0
0.788907 0.431983 0
0.829892 0.420447 0
0.855879 0.408804 0
0.871763 0.399435 0
0.881224 0.393332 0
0.886946 0.391012 0
0.890562 0.391424 0
0.890105 0.387778 0
0.88809 0.382712 0
0.886412 0.378637 0
0.885512 0.376242 0
0.884672 0.374304 0
0.882902 0.370718 0
0.881132 0.367193 0
0.879347 0.363638 0
0 0.303243 0.010132
0 0.305684 0.010071
0 0.307729 0.00961318
0 0.310613 0.00872816
0 0.314351 0.00732433
0 0.318776 0.00494392
0 0.324224 0.00274662
0 0.330556 0.00129702
0 0.338491 0.000885023
0 0.349462 0.000274662
0.000167849 0.362905 4.57771e-05
0.0189059 0.380133 1.5259e-05
0.0755474 0.402441 0
0.209903 0.430274 0
0.351385 0.458076 0
0.486412 0.482017 0
0.608087 0.499458 0
0.714336 0.509224 0
0.793988 0.508186 0
0.846021 0.500465 0
0.879622 0.490776 0
0.900175 0.481682 0
0.912551 0.475196 0
0.920027 0.472541 0
0.924559 0.472419 0
0.925551 0.470649 0
0.923995 0.465873 0
0.922713 0.462394 0
0.922194 0.460487 0
0.921462 0.458167 0
0.920104 0.454978 0
0.918486 0.451545 0
0.916976 0.448264 0
0 0.329397 0.00244144
0 0.332341 0.00209049
0 0.33518 0.00155642
0 0.338994 0.000885023
0 0.343496 0.000228885
0 0.348547 1.5259e-05
0 0.354482 0
0 0.361791 1.5259e-05
0 0.370626 1.5259e-05
0 0.381888 0
0.000503548 0.395621 0
0.00637827 0.412467 0
0.0294652 0.4336 0
0.139284 0.46363 0
0.297749 0.497047 0
0.446616 0.528344 0
0.577874 0.55404 0
0.69839 0.572442 0
0.790127 0.580194 0
0.855497 0.579126 0
0.899413 0.573602 0
0.926772 0.566659 0
0.943221 0.561425 0
0.953002 0.559411 0
0.958587 0.559701 0
0.961501 0.560998 0
0.960845 0.557778 0
0.959792 0.554803 0
0.959136 0.553002 0
0.958526 0.551461 0
0.957 0.547723 0
0.955642 0.544472 0
0.954498 0.541787 0
0 0.357458 0.000396735
0 0.360754 0.000335698
0 0.364263 0.000244144
0 0.368475 0.000122072
0 0.373312 1.5259e-05
0 0.378607 0
0 0.385061 0
0 0.393088 0
0 0.402426 0
0 0.414664 0
6.10361e-05 0.428565 0
0.00170901 0.445548 0
0.0118563 0.466758 0
0.0928969 0.496071 0
0.241993 0.53135 0
0.398337 0.567407 0
0.543435 0.60058 0
0.674891 0.627558 0
0.782559 0.644404 0
0.861265 0.650935 0
0.915938 0.650889 0
0.951141 0.647379 0
0.971832 0.643427 0
0.982956 0.641779 0
0.988495 0.641825 0
0.989715 0.642283 0
0.988464 0.639872 0
0.987305 0.637644 0
0.987106 0.636942 0
0.987472 0.635874 0
0.988373 0.634363 0
0.988739 0.632013 0
0.987121 0.629755 0
0 0.384253 0
0 0.387015 0
0 0.390753 0
0 0.394995 0
0 0.399847 0
0 0.405356 0
0 0.4121 0
0 0.420203 0
0 0.430045 0
0 0.441871 0
0 0.45565 0
0.00030518 0.47219 0
0.00378424 0.49218 0
0.0518196 0.521904 0
0.188602 0.558968 0
0.350423 0.599664 0
0.507393 0.639872 0
0.652049 0.675669 0
0.772931 0.702235 0
0.862821 0.715129 0
0.926741 0.720348 0
0.966995 0.719615 0
0.988235 0.716503 0
0.995911 0.712856 0
0.997925 0.711406 0
0.998291 0.710811 0
0.997925 0.709422 0
0.997574 0.70837 0
0.997604 0.70837 0
0.997909 0.707546 0
0.998444 0.705135 0
0.998947 0.703593 0
0.998428 0.703899 0
0 0.407187 0
0 0.409323 0
0 0.412406 0
0 0.416251 0
0 0.421042 0
0 0.426917 0
0 0.433509 0
0 0.44123 0
0 0.450828 0
0 0.462135 0
0 0.475517 0
1.5259e-05 0.491493 0
0.000671397 0.510643 0
0.0214542 0.539178 0
0.131991 0.576791 0
0.294591 0.620371 0
0.470039 0.665187 0
0.620523 0.70631 0
0.752392 0.73933 0
0.85304 0.759731 0
0.927062 0.771252 0
0.973358 0.775006 0
0.994904 0.773297 0
0.999725 0.769299 0
0.999985 0.766629 0
1 0.766339 0
0.999985 0.765408 0
0.999969 0.764462 0
0.999985 0.764462 0
1 0.76376 0
1 0.761791 0
1 0.761105 0
1 0.763455 0
0 0.424582 0
0 0.42649 0
0 0.428763 0
0 0.431891 0
0 0.436683 0
0 0.442679 0
0 0.449302 0
0 0.456779 0
0 0.466011 0
0 0.477241 0
0 0.490364 0
1.5259e-05 0.505745 0
0.000122072 0.524163 0
0.00604257 0.550561 0
0.0894026 0.587167 0
0.242771 0.631083 0
0.42884 0.678325 0
0.586099 0.72343 0
0.725856 0.761196 0
0.837018 0.788342 0
0.92134 0.80589 0
0.974517 0.813947 0
0.997421 0.814115 0
1 0.810025 0
1 0.807324 0
1 0.806897 0
1 0.806271 0
1 0.805493 0
1 0.805264 0
1 0.805035 0
1 0.80441 0
1 0.804517 0
1 0.807187 0
0 0.437781 0
0 0.439353 0
0 0.441398 0
0 0.444068 0
0 0.448127 0
0 0.453834 0
0 0.460685 0
0 0.468635 0
0 0.478187 0
0 0.489509 0
0 0.502388 0
0 0.517266 0
0 0.534539 0
0.00263981 0.55906 0
0.0650645 0.593088 0
0.20174 0.635538 0
0.386053 0.683131 0
0.551934 0.731517 0
0.69836 0.773617 0
0.818204 0.805615 0
0.911147 0.827619 0
0.97171 0.839445 0
0.998215 0.841749 0
1 0.837858 0
1 0.835203 0
1 0.834104 0
1 0.833707 0
1 0.833509 0
1 0.833616 0
1 0.833722 0
1 0.833555 0
1 0.833921 0
1 0.835782 0
0 0.447761 0
0 0.44892 0
0 0.450492 0
0 0.452598 0
0 0.45594 0
0 0.462257 0
0 0.469673 0
0 0.478035 0
0 0.488182 0
0 0.499489 0
0 0.512337 0
0 0.526925 0
0 0.543847 0
0.000503548 0.565759 0
0.0426642 0.59675 0
0.164889 0.636988 0
0.351766 0.684138 0
0.519371 0.733837 0
0.671504 0.778622 0
0.796674 0.813809 0
0.895155 0.838788 0
0.962463 0.85359 0
0.995331 0.858686 0
1 0.856229 0
1 0.853925 0
1 0.852918 0
1 0.852781 0
1 0.852949 0
1 0.852964 0
1 0.852613 0
1 0.852384 0
1 0.852979 0
1 0.854261 0
0 0.457069 0
0 0.458335 0
0 0.459617 0
0 0.461418 0
0 0.465187 0
0 0.471351 0
0 0.479316 0
0 0.489174 0
0 0.500069 0
0 0.512016 0
0 0.524758 0
0 0.538567 0
0 0.55436 0
0.0009308 0.57409 0
0.0258488 0.601648 0
0.134707 0.638254 0
0.327688 0.683162 0
0.494087 0.732143 0
0.640925 0.776699 0
0.770535 0.813977 0
0.876539 0.842329 0
0.951659 0.860517 0
0.991714 0.868345 0
1 0.86743 0
1 0.865293 0
1 0.864149 0
1 0.863676 0
1 0.863462 0
1 0.863416 0
1 0.863279 0
1 0.86331 0
1 0.86392 0
1 0.864713 0
0 0.467964 0
0 0.46952 0
0 0.470985 0
0 0.472511 0
0 0.47483 0
0 0.482063 0
0 0.491753 0
0 0.502815 0
0 0.514977 0
0 0.527565 0
0 0.540475 0
0 0.553887 0
0 0.568734 0
0.000198367 0.587198 0
0.0387884 0.612039 0
0.144945 0.64506 0
0.314382 0.686229 0
0.47924 0.732067 0
0.623178 0.775814 0
0.752804 0.813886 0
0.861906 0.843687 0
0.943877 0.864271 0
0.991058 0.874678 0
1 0.874205 0
1 0.872007 0
1 0.870649 0
1 0.869993 0
1 0.869688 0
1 0.869657 0
1 0.869703 0
1 0.869856 0
1 0.870237 0
1 0.870588 0
0 0.479561 0
0 0.481102 0
0 0.482353 0
0 0.483375 0
0 0.4851 0
0 0.491493 0
0 0.500786 0
0 0.512627 0
0 0.525597 0
0 0.538567 0
0 0.551431 0
0 0.56437 0
0 0.578698 0
0 0.595697 0
0.0242161 0.617578 0
0.125475 0.647471 0
0.315923 0.686687 0
0.470558 0.731868 0
0.609628 0.774746 0
0.737514 0.81236 0
0.84686 0.842588 0
0.93051 0.863996 0
0.982773 0.875883 0
0.999115 0.877775 0
0.999969 0.87599 0
1 0.874815 0
1 0.874037 0
1 0.873579 0
1 0.87335 0
1 0.873304 0
1 0.873365 0
1 0.873533 0
1 0.873686 0
0 0.488136 0
0 0.489052 0
0 0.489494 0
0 0.489662 0
0 0.491325 0
0 0.496239 0
0 0.50454 0
0 0.516503 0
0 0.529442 0
