Shader/电影墨绿.cube
TITLE "Generated by Resolve"
LUT_3D_SIZE 9
0.0281071 0.0315557 0.0339818
0.0267338 0.0314336 0.035523
0.0842756 0.0401617 0.0356298
0.260456 0.012665 0.00236515
0.488838 0 0
0.626886 0 0
0.662089 0 0
0.662089 0 0
0.662089 0 0
0.0267796 0.0500343 0.0402991
0.0284428 0.0470283 0.0416724
0.0780957 0.0530404 0.0417639
0.253635 0.0561685 0.00428778
0.49305 4.57771e-05 0
0.635523 0 0
0.665476 0 0
0.662089 0 0
0.662089 0 0
0 0.0965133 0.049836
0.00221256 0.0893416 0.0499886
0.0552682 0.0903639 0.0495918
0.240848 0.10808 0.00923171
0.501945 0.081117 0
0.666865 0.00399786 0
0.703807 0.000457771 0
0.690684 0 0
0.677089 0 0
0 0.182864 0.0518349
0 0.178866 0.0535897
0.0010071 0.172976 0.0541238
0.202136 0.203037 0.00358587
0.518456 0.230228 0
0.72639 0.199969 0
0.776608 0.182467 0
0.755474 0.128649 0
0.732464 0.0550546 0
0 0.312123 0
0 0.314199 0
0 0.302708 0.000335698
0.0393683 0.341863 0
0.491524 0.414099 0
0.781826 0.413687 0
0.866087 0.398398 0
0.854749 0.358068 0
0.834928 0.308263 0
0 0.428717 0
0 0.4309 0
0 0.428916 0
0 0.461814 0
0.390204 0.589624 0
0.808423 0.657206 0
0.963333 0.659419 0
0.969528 0.634379 0
0.948409 0.5841 0
0 0.476646 0
0 0.478019 0
0 0.478248 0
0 0.504067 0
0.152804 0.634775 0
0.743343 0.779339 0
0.998077 0.824887 0
1 0.814343 0
1 0.79704 0
0 0.509758 0
0 0.509758 0
0 0.509758 0
0 0.525719 0
0.0505837 0.635126 0
0.634714 0.789776 0
0.989837 0.876646 0
1 0.87364 0
1 0.87039 0
0 0.509758 0
0 0.509758 0
0 0.509758 0
0 0.509758 0
0 0.57351 0
0.422995 0.729015 0
0.903288 0.858763 0
1 0.875288 0
1 0.875975 0
0.0272526 0.0311437 0.0445869
0.0244297 0.03122 0.0438697
0.0881514 0.0416266 0.0420996
0.274296 0.0107576 0.00335698
0.505028 0 0
0.635019 0 0
0.662943 0 0
0.662089 0 0
0.662089 0 0
0.0238499 0.0509194 0.0440528
0.029099 0.0480507 0.0427863
0.0822766 0.0552682 0.0417029
0.264958 0.0562295 0.00335698
0.505516 3.0518e-05 0
0.640055 0 0
0.665766 0 0
0.662089 0 0
0.662089 0 0
0 0.0979782 0.0484932
0.00231937 0.0907149 0.0474708
0.0566262 0.0918746 0.0476234
0.247227 0.109438 0.00733959
0.506859 0.0807507 0
0.667536 0.0039826 0
0.703914 0.000503548 0
0.690852 0 0
0.677348 0 0
0 0.183734 0.0510567
0 0.179828 0.0528267
0.00105287 0.173632 0.053666
0.203052 0.203906 0.00344854
0.520012 0.231144 0
0.727611 0.20119 0
0.777584 0.18439 0
0.756405 0.131472 0
0.733379 0.0590066 0
0 0.312566 0
0 0.3149 0
0 0.303792 0.000137331
0.0410925 0.344106 0
0.495094 0.416922 0
0.784436 0.416724 0
0.867628 0.401862 0
0.856016 0.361273 0
0.836347 0.311757 0
0 0.429328 0
0 0.431632 0
0 0.429816 0
0 0.464607 0
0.397192 0.593393 0
0.813565 0.66099 0
0.965881 0.66389 0
0.971405 0.638941 0
0.950607 0.589303 0
0 0.477058 0
0 0.478462 0
0 0.478752 0
0 0.506371 0
0.168765 0.638895 0
0.751217 0.782422 0
0.998962 0.826841 0
1 0.816526 0
1 0.799847 0
0 0.509758 0
0 0.509758 0
0 0.509758 0
0 0.527108 0
0.057084 0.638193 0
0.644434 0.792584 0
0.992569 0.877409 0
1 0.873854 0
1 0.871672 0
0 0.509758 0
0 0.509758 0
0 0.509758 0
0 0.509758 0
0 0.576486 0
0.436164 0.732708 0
0.911391 0.860639 0
1 0.875319 0
1 0.875975 0
0.00941482 0.0142824 0.132677
0.00703441 0.0184024 0.119112
0.0890822 0.0354009 0.113161
0.287968 0.00306706 0.0908064
0.53312 0 0.0491798
0.66772 0 0.00933852
0.695796 0 0.000686656
0.686809 0 0
0.674113 0 0
0.00224308 0.0514534 0.11783
0.0104982 0.0499123 0.10222
0.0831617 0.055848 0.0967269
0.27718 0.0454108 0.0645151
0.535271 0 0.0180819
0.674144 0 0.00149538
0.696391 0 0.00030518
0.685435 0 0
0.673243 0 0
0 0.107179 0.104692
0 0.0982681 0.0914778
0.0479133 0.0978866 0.0825666
0.262516 0.111894 0.0455482
0.539681 0.063508 0
0.703792 0.00077821 0
0.730953 0.000167849 0
0.70811 0 0
0.683375 0 0
0 0.201694 0.0823377
0 0.197345 0.0796979
0.000595102 0.189319 0.070222
0.219364 0.218463 0.0152132
0.55285 0.242191 0
0.756451 0.205524 0
0.796567 0.184207 0
0.765011 0.129564 0
0.733776 0.0566262 0
0 0.332708 0.00883497
0 0.336233 0.0101472
0 0.324895 0.00633249
0.0492256 0.368246 0
0.517388 0.437736 0
0.801419 0.428031 0
0.87425 0.405417 0
0.856092 0.361059 0
0.836347 0.311757 0
0 0.433463 0
0 0.437156 0
0 0.435431 0
0 0.469306 0
0.398093 0.595575 0
0.813672 0.661372 0
0.965957 0.664012 0
0.971649 0.639506 0
0.951034 0.590295 0
0 0.476951 0
0 0.478462 0
0 0.478798 0
0 0.5066 0
0.172015 0.639704 0
0.753323 0.783154 0
0.999191 0.827344 0
1 0.817182 0
1 0.800809 0
0 0.509758 0
0 0.509758 0
0 0.509758 0
0 0.527504 0
0.0595865 0.639246 0
0.647822 0.79353 0
0.993729 0.877729 0
1 0.873915 0
1 0.87216 0
0 0.509758 0
0 0.509758 0
0 0.509758 0
0 0.509758 0
0 0.577935 0
0.443153 0.734691 0
0.915084 0.861494 0
1 0.875349 0
1 0.875975 0
0 0 0.321584
0 0 0.302129
0.0763561 0 0.294575
0.299001 0 0.285679
0.551705 0 0.263478
0.692119 0 0.246586
0.721996 0 0.227893
0.716991 0 0.172915
0.709606 0 0.0953841
0 0 0.307103
0 7.62951e-05 0.279484
0.0713817 0.00749218 0.274678
0.285267 0.00198367 0.262684
0.554025 0 0.241215
0.697612 0 0.226993
0.722301 0 0.216922
0.716289 0 0.165774
0.709255 0 0.0914931
0 0.0904097 0.299565
0 0.0840162 0.27689
0.0168002 0.0944533 0.264118
0.265919 0.111421 0.248676
0.553628 0.0192721 0.203235
0.728771 0 0.178424
0.757321 0 0.173526
0.740337 0 0.118486
0.72015 0 0.0414282
0 0.237644 0.281529
0 0.233463 0.274891
0 0.221225 0.251484
0.200061 0.244434 0.227024
0.562554 0.236622 0.165896
0.767987 0.154894 0.0783093
0.806073 0.117754 0.0611582
0.793027 0.074876 0.0251316
0.771664 0.0202487 0.00570687
0 0.388281 0.226535
0 0.393393 0.232547
0 0.379309 0.214206
0.00585946 0.411292 0.176287
0.532616 0.462379 0.0507057
0.841886 0.449592 0.00627146
0.910552 0.422049 0.00543221
0.895872 0.375723 0
0.870893 0.3205 0
0 0.483528 0.142748
0 0.489006 0.156191
0 0.487358 0.148547
0 0.518318 0.0731365
0.419577 0.656214 0.00350958
0.878599 0.72958 0
0.999207 0.711406 0
0.997742 0.674632 0
0.979614 0.616281 0
0 0.500084 0.0525978
0 0.504829 0.081239
0 0.506172 0.0892958
0 0.531655 0.0417945
0.155184 0.666117 0.00108339
0.784482 0.813199 0
0.999969 0.842634 0
1 0.825025 0
1 0.802838 0
0 0.512108 0.0307774
0 0.513848 0.0438392
0 0.51458 0.0488594
0 0.530968 0.0425574
0.0495613 0.638453 0.0105592
0.644007 0.792294 0
0.993179 0.877348 0
1 0.873838 0
1 0.872129 0
0 0.509758 0
0 0.509758 0
0 0.509758 0
0 0.509758 0
0 0.577844 0
0.443168 0.734707 0
0.915465 0.86157 0
1 0.875364 0
1 0.875975 0
0 0 0.485832
0 0 0.474647
0.0107881 0 0.479454
0.292073 0 0.494163
0.561868 0 0.498939
0.710338 0 0.495323
0.742473 0 0.484047
0.737163 0 0.434043
0.73164 0 0.374975
0 0 0.499352
0 0 0.481727
0.00329595 0 0.485863
0.284489 0 0.495445
0.561837 0 0.491386
0.713283 0 0.485969
0.741436 0 0.47567
0.736751 0 0.429023
0.731533 0 0.373556
0 0.000366217 0.517067
0 0.000396735 0.503594
0.000656138 0.00662242 0.499397
0.252766 0.0279088 0.506737
0.559915 0.00354009 0.488411
0.742123 0 0.473304
0.773007 0 0.465812
0.758251 0 0.411368
0.741451 0 0.353613
0 0.228016 0.550774
0 0.225193 0.547402
0 0.21004 0.52871
0.129122 0.256062 0.525002
0.552666 0.244373 0.496101
0.770764 0.147692 0.44918
0.808179 0.105623 0.440421
0.796063 0.0363622 0.38381
0.785397 0 0.319875
0 0.447456 0.551965
0 0.452949 0.558831
0 0.438209 0.541558
0 0.47013 0.532418
0.497078 0.507408 0.484627
0.824155 0.467872 0.425376
0.892729 0.432731 0.408194
0.881666 0.376516 0.349584
0.863005 0.305898 0.269078
0 0.567346 0.504982
0 0.572305 0.518318
0 0.571191 0.513756
0 0.602335 0.499702
0.270176 0.709102 0.439994
0.841199 0.752682 0.345068
0.985641 0.733227 0.289967
0.986938 0.694133 0.238254
0.974838 0.633219 0.148104
0 0.581186 0.441337
0 0.586053 0.461601
0 0.587289 0.466819
0 0.609339 0.455924
0.0483101 0.719112 0.407401
0.742412 0.828733 0.283375
0.998322 0.856168 0.153063
1 0.842161 0.0739605
1 0.831479 0.000122072
0 0.59086 0.409842
0 0.594629 0.427588
0 0.596155 0.435157
0 0.611002 0.435111
0.000335698 0.703609 0.416938
0.58938 0.815518 0.335195
0.966934 0.876066 0.20856
1 0.873762 0.174502
1 0.867918 0.0537728
0 0.550744 0.240116
0 0.55729 0.265919
0 0.560601 0.278569
0 0.561257 0.281086
0 0.619638 0.260441
0.379507 0.74316 0.142336
0.897826 0.856535 1.5259e-05
1 0.871763 0
1 0.870893 0
0 0 0.539284
0 0 0.534737
0.000274662 0 0.553796
0.265049 0 0.587243
0.55465 0 0.622812
0.726329 0 0.64567
0.767147 0 0.654047
0.763668 0 0.636316
0.759441 0 0.609598
0 0 0.572885
0 0 0.566217
0 0 0.579538
0.25449 0 0.604425
0.553704 0 0.631388
0.727337 0 0.64564
0.766705 0 0.651835
0.7635 0 0.634989
0.759487 0 0.609796
0 0 0.619577
0 0 0.615015
0 0 0.622721
0.219272 0.00425727 0.644907
0.554833 0 0.667338
0.756802 0 0.674525
0.795926 0 0.67657
0.782391 0 0.645335
0.765209 0 0.605447
0 0.151781 0.674372
0 0.147555 0.674434
0 0.126574 0.671275
0.0609751 0.22948 0.701808
0.528862 0.217563 0.717083
0.772 0.0970016 0.708019
0.820615 0.0420844 0.707225
0.815641 0.000640879 0.675547
0.806027 0 0.629969
0 0.453635 0.767056
0 0.459571 0.770825
0 0.444373 0.764019
0 0.475502 0.781292
0.434455 0.52343 0.773342
0.810575 0.490059 0.763455
0.890974 0.453361 0.755245
0.880613 0.397009 0.714549
0.861952 0.320424 0.65481
0 0.610224 0.788617
0 0.61387 0.794903
0 0.613718 0.794781
0 0.643854 0.806027
0.098085 0.757885 0.798398
0.800244 0.81471 0.787243
0.967071 0.798947 0.7729
0.970214 0.760418 0.741451
0.957076 0.695384 0.675563
0 0.637568 0.763439
0 0.639445 0.774548
0 0.639735 0.777096
0 0.66128 0.781064
0.000274662 0.777249 0.786572
0.673518 0.892714 0.759335
0.977783 0.932097 0.731472
1 0.923919 0.705272
1 0.901427 0.638254
0 0.64831 0.725231
0 0.649805 0.737163
0 0.650446 0.742351
0 0.663951 0.746822
0 0.757977 0.759457
0.499657 0.869413 0.732067
0.932998 0.938018 0.707515
1 0.946349 0.699306
1 0.935439 0.642802
0 0.626184 0.594003
0 0.629694 0.613718
0 0.631449 0.623957
0 0.631815 0.626108
0 0.690867 0.635966
0.216831 0.806485 0.603967
0.847913 0.898512 0.559182
0.999802 0.919814 0.540658
1 0.914458 0.511788
0 0 0.54461
0 0 0.543954
0 0 0.56286
0.23331 0 0.599725
0.536019 0 0.646189
0.729427 0 0.682445
0.775937 0 0.698039
0.774472 0 0.694575
0.772305 0 0.689693
0 0 0.582391
0 0 0.578241
0 0 0.590661
0.219211 0 0.618631
0.530541 0 0.655375
0.726787 0 0.682841
0.775845 0 0.697871
0.774411 0 0.694423
0.772412 0 0.689876
0 0 0.634913
0 0 0.632395
0 0 0.640711
0.172839 0.00302129 0.667231
0.531716 0 0.704997
0.757763 0 0.728466
0.804486 0 0.7337
0.792172 0 0.7149
0.776379 0 0.693477
0 0.13022 0.693507
0 0.133318 0.694438
0 0.0874342 0.692164
0.024445 0.207034 0.73196
0.496468 0.210483 0.766567
0.765576 0.0841993 0.778653
0.825345 0.0130617 0.781979
0.826032 0.000198367 0.770977
0.819837 0 0.750637
0 0.439017 0.801541
0 0.445945 0.804074
0 0.429618 0.803769
0 0.453925 0.826444
0.377874 0.511376 0.840146
0.792584 0.483238 0.863569
0.888472 0.443839 0.86331
0.880735 0.3906 0.845457
0.863279 0.30779 0.81706
0 0.612604 0.858335
0 0.615839 0.859968
0 0.615671 0.860716
0 0.640162 0.881544
0.0424964 0.754864 0.903166
0.766323 0.826078 0.936706
0.960449 0.814008 0.947372
0.96643 0.779355 0.938506
0.954116 0.718456 0.914794
0 0.647471 0.865003
0 0.647547 0.865629
0 0.647623 0.865858
0 0.667704 0.882185
0 0.781826 0.915434
0.612619 0.913725 0.938949
0.963302 0.969528 0.964584
0.998093 0.968521 0.963516
0.996994 0.954925 0.948302
0 0.662882 0.871382
0 0.663752 0.874098
0 0.663813 0.874708
0 0.675715 0.881117
0 0.769787 0.911894
0.389395 0.888457 0.920302
0.910063 0.977295 0.956512
0.999496 0.992584 0.962051
1 0.989029 0.946227
0 0.661219 0.841962
0 0.661265 0.848035
0 0.661234 0.850782
0 0.661219 0.851423
0 0.71873 0.875441
0.0469673 0.839918 0.880568
0.805493 0.950545 0.902434
0.996094 0.984405 0.912398
1 0.982238 0.8981
0 0 0.543328
0 0 0.542565
0 0 0.559503
0.199634 0 0.594522
0.511315 0 0.642557
0.720287 0 0.680369
0.77583 0 0.698314
0.77615 0 0.698573
0.77615 0 0.698573
0 0 0.57435
0 0 0.570672
0 0 0.580163
0.176608 0 0.605997
0.502434 0 0.646387
0.716716 0 0.679454
0.775479 0 0.698054
0.77615 0 0.698573
0.77615 0 0.698573
0 0 0.6271
0 0 0.62533
0 0 0.630045
0.136492 1.5259e-05 0.655207
0.503258 0 0.694713
0.744457 0 0.721065
0.799863 0 0.729595
0.790356 0 0.715663
0.778592 0 0.701457
0 0.081529 0.680964
0 0.0859693 0.682216
0 0.0301823 0.678798
0.00923171 0.167559 0.718242
0.466056 0.182574 0.756909
0.752895 0.0513771 0.775448
0.824674 0.00595102 0.783093
0.826596 0 0.776608
0.821591 0 0.763378
0 0.415717 0.795514
0 0.423255 0.798123
0 0.4103 0.797299
0 0.424414 0.816922
0.332158 0.486244 0.833951
0.773632 0.461738 0.86244
0.882429 0.423758 0.865599
0.877394 0.375372 0.852918
0.861402 0.296773 0.832715
0 0.606989 0.860685
0 0.610712 0.861692
0 0.610574 0.862104
0 0.627146 0.880781
0.0212711 0.737942 0.908019
0.734966 0.811002 0.943999
0.954543 0.80119 0.961166
0.963806 0.769299 0.956359
0.951293 0.709758 0.942199
0 0.64686 0.870832
0 0.64744 0.871183
0 0.647639 0.871412
0 0.663676 0.886778
0 0.770748 0.923659
0.566064 0.907866 0.951522
0.953796 0.970352 0.98941
0.996445 0.971084 0.993988
0.995071 0.959274 0.991592
0 0.664363 0.884794
0 0.664775 0.885191
0 0.664973 0.885359
0 0.672099 0.888823
0 0.761242 0.923766
0.319509 0.882536 0.937377
0.892119 0.979721 0.986511
0.998917 0.998993 0.998596
0.999817 0.997772 0.997452
0 0.665034 0.884184
0 0.665034 0.884443
0 0.665049 0.884581
0 0.665064 0.884627
0 0.71545 0.910018
0 0.837949 0.928252
0.772503 0.957031 0.97171
0.990646 0.997467 0.994446
1 0.999146 0.994965
0 0 0.543328
0 0 0.542535
0 0 0.556329
0.153353 0 0.589059
0.483818 0 0.639048
0.709056 0 0.677623
0.774166 0 0.697017
0.77615 0 0.698573
0.77615 0 0.698573
0 0 0.565179
0 0 0.562097
0 0 0.567834
0.129091 0 0.593088
0.470619 0 0.637186
0.70576 0 0.676905
0.773953 0 0.696849
0.77615 0 0.698573
0.77615 0 0.698573
0 0 0.618173
0 0 0.616983
0 0 0.617868
0.08365 0 0.641367
0.470008 0 0.682658
0.727398 0 0.71136
0.792996 0 0.721447
0.784451 0 0.708492
0.77734 0 0.699962
0 0.0424506 0.670527
0 0.0462806 0.67129
0 0.00801099 0.668818
0.00407416 0.114275 0.701808
0.431495 0.14464 0.744762
0.735943 0.00772107 0.766903
0.823209 4.57771e-05 0.778088
0.825162 0 0.771481
0.818662 0 0.757595
0 0.387411 0.785397
0 0.39472 0.78819
0 0.386007 0.78764
0 0.388235 0.802915
0.290684 0.454063 0.822187
0.751049 0.43093 0.851881
0.873259 0.389883 0.855756
0.870619 0.343252 0.844236
0.854948 0.261845 0.824735
0 0.597955 0.858381
0 0.602243 0.859464
0 0.602396 0.859739
0 0.611612 0.874174
0.00979629 0.716136 0.904753
0.70631 0.787442 0.936873
0.946746 0.77615 0.955367
0.958785 0.744839 0.950698
0.945312 0.682185 0.935439
0 0.646021 0.870466
0 0.646601 0.87071
0 0.646799 0.870787
0 0.658152 0.883192
0 0.758633 0.921447
0.522194 0.898787 0.947494
0.945724 0.96527 0.98793
0.995773 0.966293 0.993332
0.994202 0.95317 0.991287
0 0.663844 0.884565
0 0.664302 0.884932
0 0.6645 0.885084
0 0.668116 0.886946
0 0.753567 0.922621
0.268482 0.875425 0.934874
0.878569 0.977127 0.985626
0.998123 0.998535 0.999313
0.99971 0.997513 0.999191
0 0.665095 0.885557
0 0.665095 0.885557
0 0.665095 0.885557
0 0.665095 0.885557
0 0.710704 0.909545
0 0.831556 0.930251
0.748287 0.95314 0.972305
0.988434 0.998108 0.998322
0.999985 1 0.999969
