Shader/电影暗青.cube
TITLE "Generated by Resolve"
LUT_3D_SIZE 9
0.0280766 0.0296483 0.0327611
0.0267796 0.0297398 0.0345159
0.0659648 0.034699 0.0338598
0.228595 0.0237736 0.00671397
0.474418 0 0
0.625605 0 0
0.662089 0 0
0.662089 0 0
0.662089 0 0
0.0276646 0.0440833 0.0384527
0.0286259 0.0408484 0.0398108
0.0616922 0.0427863 0.0401617
0.220722 0.0480964 0.0127108
0.47245 0 0
0.626184 0 0
0.662089 0 0
0.662089 0 0
0.662089 0 0
0.00314336 0.0817578 0.0471809
0.00643931 0.0772412 0.047303
0.037171 0.0740978 0.0484169
0.206394 0.090959 0.0264134
0.476921 0.0609751 0
0.655848 0.000167849 0
0.692775 0 0
0.679362 0 0
0.666148 0 0
0 0.165179 0.0536812
0 0.164981 0.0539406
1.5259e-05 0.154925 0.0564889
0.162066 0.177447 0.019501
0.490318 0.206348 0
0.711238 0.171038 0
0.760525 0.1458 0
0.738003 0.0665293 0
0.717357 0.00972 0
0 0.297078 0.000839246
0 0.301671 0.000503548
0 0.290944 0.00134279
0.0135653 0.315633 1.5259e-05
0.458228 0.391913 0
0.771954 0.392126 0
0.858213 0.375326 0
0.844282 0.331304 0
0.822477 0.277745 0
0 0.425315 0
0 0.429114 0
0 0.428687 0
0 0.446525 0
0.337514 0.575051 0
0.797162 0.652415 0
0.963516 0.654704 0
0.965255 0.624201 0
0.941802 0.568673 0
0 0.477607 0
0 0.479667 0
0 0.480308 0
0 0.495415 0
0.0512703 0.61651 0
0.720913 0.777157 0
0.998245 0.828946 0
1 0.817868 0
1 0.799939 0
0 0.509758 0
0 0.509758 0
0 0.509758 0
0 0.512505 0
0 0.610559 0
0.59057 0.77731 0
0.986221 0.876753 0
1 0.875959 0
1 0.87274 0
0 0.509758 0
0 0.509758 0
0 0.509758 0
0 0.509758 0
0 0.549264 0
0.340963 0.707179 0
0.886 0.854719 0
1 0.875257 0
1 0.875975 0
0.0270542 0.0292668 0.0436103
0.0249943 0.0286259 0.0425422
0.068986 0.0347753 0.0398108
0.240406 0.0213779 0.00666819
0.487587 0 0
0.630426 0 0
0.662089 0 0
0.662089 0 0
0.662089 0 0
0.0249027 0.0445411 0.0411688
0.0299077 0.0414435 0.0410163
0.0640726 0.0443427 0.0399023
0.230259 0.0477455 0.00708019
0.482856 0 0
0.629526 0 0
0.662089 0 0
0.662089 0 0
0.662089 0 0
0.00343328 0.0822766 0.0458839
0.00695811 0.0780957 0.0454108
0.0364233 0.0750286 0.0465705
0.211215 0.0916457 0.0223392
0.481422 0.0599985 0
0.656092 0.000183108 0
0.692927 0 0
0.679606 0 0
0.666331 0 0
0 0.165942 0.0532692
0 0.166155 0.0534981
1.5259e-05 0.155901 0.0561532
0.163256 0.178286 0.0187533
0.492317 0.207477 0
0.712825 0.172656 0
0.76173 0.148653 0
0.739116 0.0714885 0
0.718364 0.0113375 0
0 0.297795 0.000717174
0 0.302693 0.00047303
0 0.292363 0.00108339
0.0142824 0.318502 1.5259e-05
0.463004 0.395544 0
0.775204 0.395911 0
0.859953 0.379385 0
0.845914 0.33547 0
0.824384 0.282307 0
0 0.426276 0
0 0.43006 0
0 0.42977 0
0 0.449561 0
0.346303 0.579995 0
0.803464 0.657298 0
0.966659 0.660533 0
0.967727 0.630121 0
0.944671 0.575326 0
0 0.478141 0
0 0.480293 0
0 0.481056 0
0 0.497871 0
0.0682994 0.621561 0
0.730663 0.781003 0
0.999222 0.831113 0
1 0.820218 0
1 0.803021 0
0 0.509758 0
0 0.509758 0
0 0.509758 0
0 0.512886 0
0 0.614008 0
0.602213 0.780621 0
0.989319 0.877333 0
1 0.875975 0
1 0.873915 0
0 0.509758 0
0 0.509758 0
0 0.509758 0
0 0.509758 0
0 0.552331 0
0.360372 0.71191 0
0.895674 0.857023 0
1 0.875319 0
1 0.875975 0
0.00854505 0.00906386 0.13611
0.0117342 0.00668345 0.119921
0.06804 0.0276036 0.111177
0.252369 0.00794995 0.0894636
0.515999 0 0.0399329
0.664454 0 0.00695811
0.693492 0 0.000396735
0.682673 0 0
0.667643 0 0
0.00798047 0.0413825 0.117342
0.0170291 0.0402686 0.102495
0.0629587 0.0431678 0.0955673
0.242741 0.040238 0.0717174
0.512444 0 0.0241093
0.663584 0 0.00315862
0.692714 0 0.000320439
0.682612 0 0
0.668452 0 0
0 0.0887007 0.0994888
0.000350958 0.0838941 0.0908827
0.0263523 0.0793317 0.0802625
0.225132 0.0946365 0.0560769
0.513313 0.0351568 0.000564584
0.691905 1.5259e-05 0
0.718547 0 0
0.694484 0 0
0.670176 0 0
0 0.181094 0.0814069
0 0.181903 0.081529
1.5259e-05 0.168856 0.0720989
0.176654 0.191592 0.0382391
0.524422 0.21677 0
0.740871 0.175326 0
0.779263 0.146578 0
0.745388 0.0685435 0
0.718288 0.0107271 0
0 0.315557 0.00788891
0 0.322698 0.0102388
0 0.312093 0.00859083
0.017319 0.339727 4.57771e-05
0.48336 0.414801 0
0.789975 0.405478 0
0.865095 0.382162 0
0.845914 0.335348 0
0.824506 0.282612 0
0 0.428458 0
0 0.433783 0
0 0.433799 0
0 0.453208 0
0.348074 0.582345 0
0.804364 0.658045 0
0.967117 0.661387 0
0.968292 0.631479 0
0.945464 0.577173 0
0 0.478111 0
0 0.480323 0
0 0.481147 0
0 0.498375 0
0.0723888 0.622797 0
0.733516 0.782116 0
0.999512 0.83183 0
1 0.821118 0
1 0.804257 0
0 0.509758 0
0 0.509758 0
0 0.509758 0
0 0.513039 0
0 0.615396 0
0.607111 0.78201 0
0.990707 0.877607 0
1 0.875975 0
1 0.874495 0
0 0.509758 0
0 0.509758 0
0 0.509758 0
0 0.509758 0
0 0.553872 0
0.369894 0.714305 0
0.900649 0.858183 0
1 0.875334 0
1 0.875975 0
0 0 0.332082
0 0 0.308553
0.0415198 0 0.29865
0.26363 0 0.291493
0.534188 0 0.267308
0.690578 0 0.246357
0.721614 0 0.223285
0.715846 0 0.161318
0.707134 0 0.067689
0 0 0.316304
0 0 0.29131
0.0392767 6.10361e-05 0.281697
0.251194 0.000213626 0.274342
0.530938 0 0.252354
0.68954 0 0.236286
0.72134 0 0.219821
0.715984 0 0.162753
0.707973 0 0.0770428
0 0.0481727 0.298207
0 0.0488289 0.284627
0.00813306 0.0576486 0.266697
0.225696 0.0874342 0.256138
0.529976 0.00425727 0.214466
0.719127 0 0.191089
0.747524 0 0.182727
0.729137 0 0.129091
0.709178 0 0.049012
0 0.212543 0.284092
0 0.214694 0.286793
0 0.196887 0.255589
0.149752 0.216663 0.236637
0.535622 0.211414 0.180606
0.754223 0.10518 0.0963607
0.793454 0.0551156 0.0830396
0.780423 0.0221714 0.0313268
0.757885 0.00332647 0.00601205
0 0.370977 0.227024
0 0.380804 0.237583
0 0.368719 0.224155
0.00250248 0.387015 0.194598
0.496986 0.438834 0.0705425
0.830671 0.423346 0.00936904
0.901305 0.3953 0.00730907
0.884932 0.346471 0
0.857832 0.288304 0
0 0.478965 0.134203
0 0.48748 0.154467
0 0.488075 0.155276
0 0.504967 0.0988785
0.360037 0.642313 0.00546273
0.86952 0.727047 0
0.999268 0.707973 0
0.996612 0.666621 0
0.972412 0.600717 0
0 0.498283 0.0429694
0 0.504509 0.0777905
0 0.507424 0.0950332
0 0.521996 0.057145
0.0498054 0.646113 0.00323491
0.760937 0.809171 0
0.999969 0.844999 0
1 0.827008 0
1 0.805875 0
0 0.510536 0.0146792
0 0.511681 0.0234531
0 0.512444 0.0274662
0 0.515572 0.0272679
1.5259e-05 0.614984 0.0084535
0.604395 0.781048 0
0.990372 0.877409 0
1 0.875975 0
1 0.87454 0
0 0.509758 0
0 0.509758 0
0 0.509758 0
0 0.509758 0
0 0.553964 0
0.371145 0.714626 0
0.901717 0.858427 0
1 0.875334 0
1 0.875975 0
0 0 0.491035
0 0 0.479393
1.5259e-05 0 0.487495
0.251377 0 0.503639
0.543328 0 0.511589
0.709758 0 0.507317
0.743343 0 0.493309
0.737713 0 0.438468
0.73109 0 0.372076
0 0 0.504417
0 0 0.490211
0 0 0.49308
0.242084 0 0.503441
0.538537 0 0.506355
0.707652 0 0.501701
0.74313 0 0.491661
0.737972 0 0.441169
0.73167 0 0.379629
0 0 0.524605
0 0 0.517128
0 6.10361e-05 0.507958
0.210544 0.00242618 0.514855
0.537881 0 0.503243
0.734661 0 0.491417
0.765576 0 0.481727
0.748241 0 0.425223
0.733013 0 0.364019
0 0.180301 0.553079
0 0.184741 0.557366
0 0.16228 0.533547
0.0545052 0.219287 0.539681
0.523964 0.210819 0.516854
0.757717 0.0728008 0.470359
0.799908 0.0384833 0.462028
0.791058 0.0074464 0.404074
0.776959 0 0.333074
0 0.427375 0.564935
0 0.437736 0.576898
0 0.426429 0.565072
0 0.443687 0.556115
0.459007 0.487037 0.513146
0.814847 0.444709 0.454215
0.885176 0.408408 0.436515
0.872297 0.346471 0.37023
0.851865 0.26923 0.283314
0 0.567651 0.517769
0 0.574914 0.537118
0 0.575814 0.539284
0 0.594171 0.524453
0.171374 0.703014 0.473823
0.830228 0.755367 0.384771
0.985229 0.734569 0.336492
0.983886 0.688884 0.280308
0.967758 0.617716 0.164584
0 0.583062 0.447639
0 0.589746 0.47567
0 0.592203 0.485985
0 0.605203 0.47924
0 0.709834 0.443381
0.71574 0.830091 0.333608
0.997909 0.858167 0.183856
1 0.843412 0.0702983
1 0.834745 1.5259e-05
0 0.588327 0.398047
0 0.593317 0.421485
0 0.595773 0.433265
0 0.598627 0.434211
0 0.686107 0.425864
0.543084 0.807599 0.3467
0.96553 0.875746 0.227924
1 0.875059 0.195087
1 0.867414 0.0339818
0 0.542336 0.21088
0 0.552102 0.244099
0 0.556893 0.261921
0 0.558404 0.267552
0 0.59675 0.254322
0.277546 0.722332 0.126802
0.887098 0.855512 3.0518e-05
1 0.871168 0
1 0.868971 0
0 0 0.537514
0 0 0.534844
0 0 0.551232
0.218738 0 0.585397
0.531563 0 0.625986
0.724727 0 0.652308
0.768078 0 0.661341
0.76556 0 0.644495
0.760266 0 0.617258
0 0 0.565255
0 0 0.560494
0 0 0.569436
0.204868 0 0.593744
0.525277 0 0.627405
0.722911 0 0.650752
0.768078 0 0.661295
0.765759 0 0.64593
0.761013 0 0.621485
0 0 0.612329
0 0 0.610391
0 0 0.612818
0.163363 0 0.633814
0.528878 0 0.664012
0.748745 0 0.676417
0.788647 0 0.67866
0.773449 0 0.648386
0.760678 0 0.615351
0 0.0699321 0.661036
0 0.0752575 0.663264
0 0.0410925 0.659297
0.0285954 0.173861 0.693263
0.498268 0.171206 0.716945
0.765957 0.0274205 0.717098
0.820233 0.0091249 0.718807
0.814771 6.10361e-05 0.687495
0.799588 0 0.639612
0 0.428428 0.768399
0 0.4392 0.774563
0 0.425101 0.768002
0 0.439994 0.782925
0.393179 0.49778 0.78407
0.801678 0.461555 0.780758
0.885206 0.423758 0.774639
0.872236 0.359716 0.732174
0.851499 0.272389 0.67071
0 0.608667 0.802167
0 0.613947 0.810071
0 0.614786 0.811444
0 0.632044 0.819944
0.00265507 0.749279 0.825376
0.785748 0.816037 0.819379
0.967208 0.800626 0.808255
0.967865 0.756588 0.772595
0.953017 0.685145 0.705776
0 0.63978 0.778607
0 0.642588 0.791836
0 0.643153 0.796033
0 0.655177 0.799252
0 0.765469 0.816495
0.637598 0.894026 0.793194
0.977813 0.941329 0.771817
1 0.933318 0.743389
1 0.910613 0.674098
0 0.649424 0.732616
0 0.651408 0.748211
0 0.652354 0.755917
0 0.654658 0.757565
0 0.742077 0.777432
0.424338 0.863355 0.752346
0.929839 0.942535 0.734524
1 0.952712 0.731456
1 0.942 0.675669
0 0.625147 0.58941
0 0.629648 0.614939
0 0.632364 0.629725
0 0.633356 0.634882
0 0.672221 0.643214
0.0968795 0.793667 0.61854
0.832334 0.898009 0.572183
1 0.922148 0.55491
1 0.916167 0.521523
0 0 0.543328
0 0 0.542519
0 0 0.557122
0.181689 0 0.591455
0.508537 0 0.641337
0.725643 0 0.681758
0.776135 0 0.698528
0.775326 0 0.696544
0.773388 0 0.692653
0 0 0.568521
0 0 0.565469
0 0 0.572168
0.165927 0 0.59736
0.500084 0 0.640787
0.724117 0 0.681361
0.77615 0 0.698558
0.775402 0 0.696727
0.773877 0 0.693645
0 0 0.621118
0 0 0.620432
0 0 0.622431
0.0875105 0 0.645731
0.5037 0 0.688731
0.747219 0 0.71603
0.795087 0 0.721767
0.781292 0 0.703532
0.773312 0 0.692409
0 0.0525673 0.675349
0 0.0622568 0.677317
0 0.027039 0.674876
0.013077 0.143313 0.710323
0.465644 0.165057 0.752209
0.760327 0.0235447 0.771893
0.825864 0.00434882 0.778759
0.823865 1.5259e-05 0.766079
0.813413 0 0.742382
0 0.410391 0.792645
0 0.422354 0.796902
0 0.412253 0.796338
0 0.417792 0.813626
0.337469 0.483955 0.831632
0.783276 0.454658 0.85922
0.882979 0.414847 0.859739
0.872114 0.351644 0.83946
0.853147 0.254871 0.811032
0 0.609339 0.859113
0 0.614282 0.861051
0 0.615167 0.86157
0 0.627863 0.876982
0 0.742611 0.907012
0.749676 0.822766 0.940368
0.961151 0.810773 0.953643
0.964523 0.770947 0.943923
0.95053 0.703243 0.920317
0 0.647547 0.866819
0 0.648005 0.867796
0 0.648356 0.86836
0 0.659632 0.879301
0 0.764233 0.917205
0.572808 0.90927 0.942123
0.964279 0.973495 0.974105
0.998138 0.972946 0.973877
0.997024 0.95996 0.961517
0 0.663523 0.874357
0 0.664027 0.876768
0 0.664195 0.877668
0 0.666056 0.878782
0 0.750317 0.912139
0.296178 0.878523 0.922423
0.906508 0.978546 0.965423
0.999908 0.995132 0.973007
1 0.992264 0.960678
0 0.661173 0.84625
0 0.661997 0.853208
0 0.662028 0.85684
0 0.662074 0.858122
0 0.698024 0.875868
0 0.82678 0.89221
0.786908 0.949584 0.915312
0.99675 0.98706 0.928145
1 0.984894 0.913588
0 0 0.543328
0 0 0.542626
0 0 0.553811
0.136156 0 0.585779
0.481621 0 0.638086
0.715267 0 0.679072
0.775509 0 0.698054
0.77615 0 0.698573
0.77615 0 0.698573
0 0 0.559396
0 0 0.557107
0 0 0.560815
0.105852 0 0.586587
0.474327 0 0.637293
0.714473 0 0.678874
0.775616 0 0.698146
0.77615 0 0.698573
0.77615 0 0.698573
0 0 0.611994
0 0 0.611902
0 0 0.610864
0.0453956 0 0.63415
0.472389 0 0.67747
0.731838 0 0.707271
0.788846 0 0.714855
0.779797 0 0.702876
0.77615 0 0.698573
0 0.0184634 0.666667
0 0.0214084 0.66836
0 0.00880446 0.666163
0.00437934 0.0864576 0.694453
0.433143 0.13022 0.740978
0.747616 0.0123903 0.766369
0.824842 0.00196841 0.776196
0.822782 0 0.765972
0.814374 0 0.74966
0 0.383551 0.784192
0 0.396231 0.788617
0 0.390112 0.788388
0 0.386175 0.801114
0.292195 0.455756 0.822156
0.7635 0.428962 0.852888
0.875914 0.389273 0.855985
0.867964 0.331777 0.840772
0.850843 0.239643 0.819547
0 0.602182 0.859449
0 0.60798 0.860945
0 0.609186 0.861265
0 0.615854 0.873701
0 0.723964 0.908125
0.7187 0.804913 0.941497
0.955322 0.794659 0.960037
0.961395 0.757305 0.953643
0.947021 0.689952 0.937362
0 0.647181 0.871397
0 0.647883 0.871748
0 0.648173 0.871977
0 0.656397 0.880964
0 0.752331 0.920485
0.519738 0.902037 0.948135
0.955642 0.972992 0.990066
0.996811 0.973648 0.994492
0.99527 0.961578 0.992584
0 0.665095 0.885557
0 0.665095 0.885557
0 0.665095 0.885557
0 0.66598 0.885954
0 0.742687 0.920165
0.233921 0.872023 0.934157
0.888365 0.979492 0.986862
0.999527 0.999802 0.999725
0.999893 0.99884 0.998962
0 0.665064 0.88484
0 0.66508 0.885054
0 0.665095 0.885161
0 0.665095 0.885191
0 0.696834 0.903731
0 0.822629 0.929808
0.751888 0.953567 0.971466
0.992248 0.998184 0.996597
1 0.999527 0.99707
0 0 0.543328
0 0 0.543008
0 0 0.550393
0.0605173 0 0.580438
0.450309 0 0.634195
0.702419 0 0.676127
0.774212 0 0.697063
0.77615 0 0.698573
0.77615 0 0.698573
0 0 0.550011
0 0 0.548867
0 0 0.550729
0.0428626 0 0.578912
0.444129 0 0.633127
0.702327 0 0.676127
0.774411 0 0.6972
0.77615 0 0.698573
0.77615 0 0.698573
0 0 0.602029
0 0 0.602258
0 0 0.599084
0.0241093 0 0.622568
0.435706 0 0.664805
0.712627 0 0.697047
0.781277 0 0.706203
0.777096 0 0.699687
0.77615 0 0.698573
0 0.00782788 0.6598
0 0.0104219 0.661219
0 0.00447089 0.658701
0.00224308 0.0261997 0.679637
0.396765 0.0831464 0.728237
0.730648 0.00207523 0.757626
0.822049 1.5259e-05 0.769985
0.819898 0 0.759625
0.810224 0 0.742855
0 0.354955 0.77322
0 0.366186 0.777768
0 0.362692 0.777523
0 0.347936 0.785397
0.250904 0.422263 0.809476
0.73959 0.396948 0.841627
0.866361 0.351965 0.845396
0.860929 0.295644 0.831998
0.844419 0.200137 0.811688
0 0.591897 0.856733
0 0.598611 0.858534
0 0.600122 0.85893
0 0.600504 0.866667
0 0.700359 0.904265
0.687358 0.779965 0.933837
0.947036 0.767514 0.953674
0.955688 0.730312 0.947188
0.940322 0.659495 0.929793
0 0.646296 0.870832
0 0.647074 0.871351
0 0.647379 0.871504
0 0.652934 0.878202
0 0.739132 0.917632
0.461952 0.892378 0.943847
0.947662 0.968414 0.988647
0.996262 0.969192 0.993805
0.994461 0.955535 0.991608
0 0.665095 0.885557
0 0.665095 0.885557
0 0.665095 0.885557
0 0.665232 0.885618
0 0.736065 0.918532
0.182727 0.86537 0.932296
0.874266 0.976837 0.985367
0.998779 0.999298 0.999619
0.999832 0.998581 0.999496
0 0.665095 0.885557
0 0.665095 0.885557
0 0.665095 0.885557
0 0.665095 0.885557
0 0.691356 0.900542
0 0.81619 0.93048
0.727565 0.949172 0.970199
0.990127 0.998398 0.99855
0.999985 1 0.999969
