Shader/电影墨绿.cube
TITLE "Generated by Resolve"
LUT_3D_SIZE 33
0.0281071 0.0315557 0.0339818
0.0283818 0.0314183 0.0346227
0.0292515 0.0313725 0.0351263
0.028275 0.0313725 0.0354314
0.0267338 0.0314336 0.035523
0.034226 0.031693 0.0353094
0.0486 0.033051 0.0351873
0.0642405 0.036286 0.0355688
0.0842756 0.0401617 0.0356298
0.11986 0.0415961 0.0334325
0.163577 0.0408942 0.0289921
0.208469 0.0349889 0.012314
0.260456 0.012665 0.00236515
0.319463 0.00218204 0
0.378592 0 0
0.435416 0 0
0.488838 0 0
0.534722 0 0
0.57322 0 0
0.603708 0 0
0.626886 0 0
0.643854 0 0
0.656016 0 0
0.661631 0 0
0.662089 0 0
0.662089 0 0
0.662089 0 0
0.662089 0 0
0.662089 0 0
0.662089 0 0
0.662089 0 0
0.662089 0 0
0.662089 0 0
0.0281529 0.0341802 0.0350652
0.0282597 0.0337072 0.0356909
0.02916 0.0332494 0.0362097
0.0294041 0.0329747 0.0365911
0.0277104 0.0327916 0.0368658
0.0333104 0.0328527 0.0368505
0.0471656 0.0340276 0.036759
0.0631113 0.0372015 0.0371405
0.082414 0.041413 0.0372931
0.116793 0.0436561 0.0351568
0.161639 0.0440833 0.0305028
0.207263 0.0405432 0.0142672
0.26006 0.026154 0.00283818
0.318959 0.00794995 0
0.377569 0.000167849 0
0.433829 0 0
0.486656 0 0
0.532952 0 0
0.571786 0 0
0.602502 0 0
0.626154 0 0
0.643366 0 0
0.655695 0 0
0.661479 0 0
0.662089 0 0
0.662089 0 0
0.662089 0 0
0.662089 0 0
0.662089 0 0
0.662089 0 0
0.662089 0 0
0.662089 0 0
0.662089 0 0
0.0278019 0.0382391 0.0364996
0.0276188 0.0374609 0.0370794
0.0284733 0.0366369 0.037583
0.0299229 0.0362402 0.0379797
0.0273899 0.0361486 0.0384222
0.030869 0.0361181 0.038529
0.0446479 0.0367895 0.0383917
0.06215 0.039353 0.0386053
0.0812848 0.0432288 0.0387732
0.11252 0.0457313 0.0370794
0.158175 0.0464942 0.0324712
0.204593 0.0451972 0.0163272
0.258656 0.0354772 0.00326543
0.318532 0.0133974 0
0.378256 0.00148013 0
0.435828 0 0
0.489021 0 0
0.5346 0 0
0.57174 0 0
0.600992 0 0
0.624933 0 0
0.642649 0 0
0.655207 0 0
0.661204 0 0
0.662089 0 0
0.662089 0 0
0.662089 0 0
0.662089 0 0
0.662089 0 0
0.662089 0 0
0.662089 0 0
0.662089 0 0
0.662089 0 0
0.0270695 0.0445258 0.0383764
0.0268101 0.0436255 0.0388037
0.0275425 0.0427405 0.0392309
0.029221 0.0420386 0.0395819
0.027451 0.0415961 0.0400092
0.0285191 0.0412909 0.0402686
0.0415198 0.0415503 0.0401465
0.060502 0.0435492 0.0401617
0.0797284 0.0471962 0.0402838
0.108568 0.050248 0.0390173
0.154269 0.0514839 0.0343938
0.20177 0.0511635 0.0182803
0.256168 0.0449836 0.00369268
0.316869 0.0253147 0
0.378073 0.00740063 0
0.436667 0 0
0.491295 0 0
0.538674 0 0
0.577218 0 0
0.607126 0 0
0.628977 0 0
0.644678 0 0
0.655421 0 0
0.660838 0 0
0.662089 0 0
0.662089 0 0
0.662089 0 0
0.662089 0 0
0.662089 0 0
0.662089 0 0
0.662089 0 0
0.662089 0 0
0.662089 0 0
0.0267796 0.0500343 0.0402991
0.0267948 0.0491493 0.0406195
0.0272679 0.0482338 0.0409552
0.0289464 0.0474861 0.0412757
0.0284428 0.0470283 0.0416724
0.0285496 0.0468147 0.0420539
0.0394598 0.0472114 0.0421302
0.0580606 0.0492714 0.0420081
0.0780957 0.0530404 0.0417639
0.104936 0.0567178 0.0405585
0.149874 0.0585489 0.0361181
0.199084 0.0590066 0.0209964
0.253635 0.0561685 0.00428778
0.314824 0.0440375 0
0.376928 0.0214542 0
0.436835 0.00404364 0
0.49305 4.57771e-05 0
0.542351 0 0
0.582345 0 0
0.613489 0 0
0.635523 0 0
0.65124 0 0
0.66157 0 0
0.665965 0 0
0.665476 0 0
0.663386 0 0
0.662089 0 0
0.662089 0 0
0.662089 0 0
0.662089 0 0
0.662089 0 0
0.662089 0 0
0.662089 0 0
0.0219272 0.0568246 0.042298
0.0230259 0.0558328 0.0424964
0.0238499 0.0546731 0.04271
0.0268864 0.0536507 0.0429541
0.0290532 0.0529946 0.0433509
0.0284581 0.0526284 0.0438239
0.0366064 0.0529183 0.0441749
0.0545357 0.0547036 0.0440528
0.0759899 0.0583505 0.0434424
0.101488 0.0627909 0.0421302
0.145037 0.0658427 0.038056
0.196063 0.0677195 0.0251926
0.250965 0.0675364 0.00585946
0.313115 0.0618601 0.000259403
0.376257 0.0455329 0
0.437049 0.0198978 0
0.494072 4.57771e-05 0
0.545724 0 0
0.587167 0 0
0.619547 0 0
0.642329 0 0
0.658625 0 0
0.66923 0 0
0.673716 0 0
0.673075 0 0
0.670161 0 0
0.667597 0 0
0.665629 0 0
0.663584 0 0
0.662409 0 0
0.662089 0 0
0.662089 0 0
0.662089 0 0
0.0125429 0.0667124 0.0444495
0.0139315 0.0656291 0.0445411
0.0151369 0.0641337 0.0446479
0.0190127 0.0626078 0.0447242
0.0243381 0.0614786 0.0449836
0.0235752 0.0606699 0.0455024
0.0295872 0.0605325 0.0460517
0.0480659 0.0617685 0.046128
0.072694 0.0650034 0.0454719
0.0974136 0.0699321 0.0439612
0.139513 0.0741741 0.0400092
0.192462 0.0771344 0.0303502
0.248249 0.0786145 0.0081178
0.311055 0.0768139 0.000717174
0.376257 0.068101 0
0.438315 0.0445869 0
0.49546 0.0147555 0
0.548547 0.000198367 0
0.591836 0 0
0.625849 0 0
0.649592 0 0
0.666346 0 0
0.677302 0 0
0.68246 0 0
0.68249 0 0
0.679545 0 0
0.676509 0 0
0.67335 0 0
0.670085 0 0
0.667506 0 0
0.665522 0 0
0.663798 0 0
0.662516 0 0
0.0037232 0.0803235 0.0469673
0.00437934 0.0793622 0.047013
0.0052491 0.0775006 0.0470741
0.0078584 0.0754406 0.0470436
0.0132906 0.0737621 0.0470741
0.0134279 0.0725872 0.0474861
0.0171969 0.0720836 0.0480964
0.0365606 0.0728161 0.0482643
0.0669718 0.0755627 0.0475471
0.09308 0.0804761 0.0457313
0.132189 0.0854658 0.0417334
0.187793 0.0888685 0.0332494
0.245197 0.09131 0.00923171
0.308614 0.0915847 0.000946059
0.375692 0.0868696 0
0.439765 0.0722362 0
0.498161 0.0443885 0
0.551949 0.0117952 0
0.596887 0.00231937 0
0.632624 0.000671397 0
0.657664 0.000106813 0
0.675029 0 0
0.686275 0 0
0.691966 0 0
0.692531 0 0
0.68954 0 0
0.686442 0 0
0.683284 0 0
0.680125 0 0
0.676844 0 0
0.673472 0 0
0.669978 0 0
0.667048 0 0
0 0.0965133 0.049836
0 0.0959335 0.0498665
0 0.0940261 0.0499886
0.000274662 0.0915694 0.0500801
0.00221256 0.0893416 0.0499886
0.00326543 0.087953 0.0501869
0.00450141 0.0874342 0.0506905
0.0209964 0.0879988 0.0506905
0.0552682 0.0903639 0.0495918
0.0882429 0.095079 0.0473335
0.123735 0.100633 0.0430152
0.18114 0.104509 0.03299
0.240848 0.10808 0.00923171
0.305898 0.110216 0.000976577
0.374823 0.108125 0
0.44123 0.100435 0
0.501945 0.081117 0
0.556817 0.0472725 0
0.603204 0.0201572 0
0.640543 0.0105135 0
0.666865 0.00399786 0
0.684993 0.00183108 0
0.696681 0.0015259 0
0.702937 0.00117494 0
0.703807 0.000457771 0
0.700618 0 0
0.697322 0 0
0.69395 0 0
0.690684 0 0
0.687373 0 0
0.684001 0 0
0.680568 0 0
0.677089 0 0
0 0.113909 0.0525673
0 0.11368 0.0525978
0 0.112139 0.0527504
0 0.109346 0.0530709
0 0.106523 0.0532235
0 0.104646 0.053254
0 0.104112 0.0536202
0.00794995 0.104799 0.0535439
0.0348058 0.106981 0.0521401
0.0799878 0.111467 0.0492561
0.116014 0.117723 0.0440681
0.17319 0.122957 0.0334478
0.235416 0.128435 0.0103304
0.302266 0.13315 0.00141909
0.373297 0.134417 0
0.44303 0.131029 0
0.507012 0.121279 0
0.563958 0.10193 0
0.611475 0.0711528 0
0.649424 0.0466468 0
0.677104 0.0251469 0
0.696178 0.0164187 0
0.708568 0.0141451 0
0.715679 0.0117037 0
0.717083 0.007187 0
0.713451 0.00300603 0
0.709819 0.00158694 0
0.706096 0.000976577 0
0.70248 0.000350958 0
0.69894 6.10361e-05 0
0.695308 0 0
0.691722 0 0
0.688197 0 0
0 0.133242 0.0542306
0 0.133272 0.0542458
0 0.132631 0.0543679
0 0.12961 0.055024
0 0.126268 0.0555428
0 0.123598 0.0557259
0 0.122484 0.0561227
0.00201419 0.122957 0.056199
0.0184787 0.124941 0.0548409
0.061265 0.128908 0.0514687
0.104921 0.13547 0.0460212
0.162371 0.14168 0.0344396
0.228443 0.14905 0.0109102
0.297566 0.156558 0.00161746
0.370855 0.161135 0
0.444343 0.161608 0
0.51223 0.157183 0
0.572442 0.147066 0
0.623331 0.132158 0
0.661799 0.115099 0
0.690349 0.0963302 0
0.709773 0.0812543 0
0.72282 0.0717479 0
0.730739 0.0619516 0
0.732387 0.0454871 0
0.727932 0.0247501 0
0.723903 0.0130007 0
0.720119 0.00801099 0
0.716228 0.00283818 0
0.712291 0.000534066 0
0.708293 0 0
0.704219 0 0
0.700236 0 0
0 0.157107 0.0542306
0 0.157351 0.0542306
0 0.157153 0.0542458
0 0.154833 0.0547799
0 0.151202 0.0556039
0 0.147753 0.0562295
0 0.145892 0.056611
0.000274662 0.145922 0.0567636
0.00590524 0.147555 0.0556802
0.0296025 0.151003 0.051606
0.0864271 0.157595 0.0445869
0.146639 0.165209 0.0290684
0.217609 0.173571 0.00737011
0.290486 0.182834 0.00062562
0.366751 0.189731 0
0.444114 0.192859 0
0.516854 0.191638 0
0.58146 0.185351 0
0.637415 0.175006 0
0.678141 0.16318 0
0.708385 0.15201 0
0.729137 0.144274 0
0.742855 0.139269 0
0.751293 0.134524 0
0.753277 0.12549 0
0.748486 0.110552 0
0.743053 0.0952926 0
0.737957 0.0765698 0
0.733074 0.0537881 0
0.728069 0.0305486 0
0.723461 0.0158846 0
0.719142 0.00828565 0
0.714885 0.0034638 0
0 0.182864 0.0518349
0 0.183276 0.0517739
0 0.183276 0.0517586
0 0.182239 0.0521248
0 0.178866 0.0535897
0 0.175006 0.0547951
0 0.172274 0.055375
0 0.171588 0.0554513
0.0010071 0.172976 0.0541238
0.00947585 0.176318 0.0490883
0.0446021 0.18262 0.0386358
0.123354 0.192233 0.0177462
0.202136 0.203037 0.00358587
0.279988 0.214496 0.000122072
0.359533 0.223606 0
0.440497 0.228992 0
0.518456 0.230228 0
0.587793 0.22681 0
0.648753 0.219181 0
0.693584 0.209552 0
0.72639 0.199969 0
0.749249 0.1935 0
0.764401 0.189532 0
0.773754 0.187182 0
0.776608 0.182467 0
0.772839 0.171923 0
0.767086 0.159289 0
0.761303 0.14519 0
0.755474 0.128649 0
0.749538 0.109941 0
0.743618 0.0929732 0
0.737896 0.0754406 0
0.732464 0.0550546 0
0 0.210376 0.0453193
0 0.210941 0.0451057
0 0.211124 0.0450294
0 0.210819 0.045182
0 0.208194 0.0467689
0 0.204273 0.0489509
0 0.200778 0.0504616
0 0.199207 0.0507057
0 0.200061 0.0490883
0.00167849 0.203174 0.0429847
0.0134279 0.209277 0.0260014
0.0897993 0.220874 0.00701915
0.179141 0.234302 0.00106813
0.2654 0.24799 0
0.349371 0.259541 0
0.433478 0.267552 0
0.515816 0.271473 0
0.590249 0.270878 0
0.65684 0.265644 0
0.706767 0.258152 0
0.742901 0.249683 0
0.768368 0.243626 0
0.785534 0.239841 0
0.796155 0.237812 0
0.800397 0.234348 0
0.798474 0.226017 0
0.793088 0.214572 0
0.787259 0.202884 0
0.781231 0.19028 0
0.775067 0.176547 0
0.768658 0.162081 0
0.762158 0.146044 0
0.755688 0.127626 0
0 0.240894 0.0277409
0 0.241672 0.0271153
0 0.242054 0.0267948
0 0.241993 0.0268254
0 0.240604 0.0280766
0 0.236851 0.0326696
0 0.232776 0.0367132
0 0.230228 0.0381476
0 0.230259 0.0362097
0 0.233143 0.0290227
0.00143435 0.239261 0.0128481
0.0369726 0.25214 0.0016022
0.143755 0.267643 0.000106813
0.244282 0.283284 0
0.335363 0.297475 0
0.423941 0.308339 0
0.509972 0.314839 0
0.589502 0.316854 0
0.660777 0.313756 0
0.717067 0.307866 0
0.757366 0.300664 0
0.785962 0.295186 0
0.805158 0.291707 0
0.817014 0.289509 0
0.822751 0.286275 0
0.82269 0.279332 0
0.81796 0.268376 0
0.812818 0.257053 0
0.807355 0.245228 0
0.801526 0.232853 0
0.795453 0.220005 0
0.78912 0.206806 0
0.782452 0.193011 0
0 0.275303 0.00862135
0 0.276295 0.0080415
0 0.276875 0.00773632
0 0.276982 0.00773632
0 0.276555 0.00833143
0 0.273747 0.0121767
0 0.269459 0.0159152
0 0.265934 0.0174868
0 0.265049 0.0162814
0 0.267521 0.0116426
0 0.273686 0.00386053
1.5259e-05 0.286809 0.000350958
0.0941482 0.304067 0
0.210315 0.321889 0
0.315999 0.339147 0
0.410971 0.353201 0
0.502129 0.362432 0
0.587228 0.366842 0
0.66215 0.365805 0
0.724987 0.360952 0
0.770123 0.354772 0
0.802609 0.349447 0
0.824063 0.346075 0
0.837125 0.343633 0
0.844099 0.340429 0
0.845396 0.334386 0
0.841031 0.323476 0
0.8365 0.312169 0
0.831754 0.300664 0
0.826627 0.288548 0
0.821256 0.276036 0
0.815595 0.263203 0
0.809583 0.250034 0
0 0.312123 0
0 0.313252 0
0 0.313985 0
0 0.314321 0
0 0.314199 0
0 0.312566 0
0 0.308721 0
0 0.30454 6.10361e-05
0 0.302708 0.000335698
0 0.304616 0.000671397
0 0.310613 1.5259e-05
0 0.323201 1.5259e-05
0.0393683 0.341863 0
0.162554 0.362478 0
0.288396 0.383413 0
0.394049 0.401343 0
0.491524 0.414099 0
0.583017 0.421286 0
0.662669 0.422675 0
0.731716 0.418952 0
0.781826 0.413687 0
0.818708 0.408331 0
0.843122 0.404578 0
0.857969 0.401679 0
0.866087 0.398398 0
0.868284 0.392752 0
0.863935 0.381353 0
0.859434 0.36994 0
0.854749 0.358068 0
0.85008 0.346075 0
0.845228 0.333852 0
0.840146 0.321218 0
0.834928 0.308263 0
0 0.34699 0
0 0.348165 0
0 0.348959 0
0 0.349371 0
0 0.349432 0
0 0.34905 0
0 0.34641 0
0 0.342336 0
0 0.339635 0
0 0.340932 0
0 0.346395 0
0 0.358679 0
0.0018616 0.378408 0
0.105318 0.401541 0
0.245487 0.426246 0
0.371633 0.449119 0
0.477394 0.466773 0
0.575326 0.477653 0
0.661341 0.482429 0
0.735988 0.480735 0
0.792706 0.476997 0
0.834943 0.472175 0
0.863157 0.468452 0
0.880598 0.465461 0
0.890486 0.46273 0
0.893935 0.45803 0
0.889952 0.446677 0
0.884794 0.434012 0
0.879377 0.420691 0
0.874281 0.407813 0
0.869123 0.394705 0
0.86389 0.381308 0
0.85861 0.367819 0
0 0.378363 0
0 0.379599 0
0 0.380453 0
0 0.380896 0
0 0.381064 0
0 0.380987 0
0 0.379721 0
0 0.376699 0
0 0.373678 0
0 0.374029 0
0 0.379187 0
0 0.390646 0
0 0.411078 0
0.0366369 0.4365 0
0.179797 0.463859 0
0.34078 0.49102 0
0.456748 0.514153 0
0.562844 0.529931 0
0.657298 0.5393 0
0.738094 0.541009 0
0.801526 0.539376 0
0.849378 0.536492 0
0.882597 0.533791 0
0.903868 0.531563 0
0.916472 0.530175 0
0.922179 0.527794 0
0.920333 0.518959 0
0.914961 0.506508 0
0.90927 0.49308 0
0.90341 0.479255 0
0.897276 0.46479 0
0.891218 0.450172 0
0.885206 0.435325 0
0 0.406271 0
0 0.407385 0
0 0.408209 0
0 0.408698 0
0 0.408957 0
0 0.408972 0
0 0.408637 0
0 0.406989 0
0 0.404364 0
0 0.403708 0
0 0.408972 0
0 0.419974 0
0 0.440238 0
0.00955215 0.468254 0
0.130434 0.498558 0
0.293858 0.528923 0
0.426642 0.556298 0
0.541436 0.577615 0
0.646586 0.592447 0
0.734981 0.599222 0
0.80708 0.600412 0
0.861112 0.599176 0
0.899916 0.597253 0
0.9252 0.59559 0
0.940475 0.594842 0
0.948959 0.593835 0
0.950286 0.588312 0
0.945403 0.576959 0
0.940322 0.565103 0
0.935042 0.552773 0
0.92932 0.539498 0
0.923247 0.52546 0
0.916991 0.510948 0
0 0.428717 0
0 0.429572 0
0 0.430213 0
0 0.43064 0
0 0.4309 0
0 0.430976 0
0 0.430869 0
0 0.430228 0
0 0.428916 0
0 0.428275 0
0 0.432364 0
0 0.443153 0
0 0.461814 0
0.00144961 0.490471 0
0.0804761 0.523659 0
0.230961 0.557626 0
0.390204 0.589624 0
0.514076 0.616861 0
0.628275 0.637949 0
0.725994 0.651484 0
0.808423 0.657206 0
0.870268 0.658991 0
0.914794 0.65893 0
0.944549 0.6589 0
0.963333 0.659419 0
0.974441 0.659251 0
0.978454 0.655879 0
0.974121 0.645457 0
0.969528 0.634379 0
0.96466 0.622751 0
0.959472 0.610376 0
0.95404 0.597421 0
0.948409 0.5841 0
0 0.445731 0
0 0.446448 0
0 0.447013 0
0 0.44741 0
0 0.447654 0
0 0.447791 0
0 0.447776 0
0 0.447562 0
0 0.447181 0
0 0.44741 0
0 0.450065 0
0 0.460273 0
0 0.477378 0
0 0.504707 0
0.0294957 0.539528 0
0.158755 0.576623 0
0.346395 0.61268 0
0.481605 0.645472 0
0.603906 0.672145 0
0.710643 0.691859 0
0.801862 0.702861 0
0.872587 0.70898 0
0.924392 0.711788 0
0.95993 0.713771 0
0.981552 0.715358 0
0.992065 0.715297 0
0.994873 0.713069 0
0.993423 0.705623 0
0.991302 0.696971 0
0.988525 0.687358 0
0.985458 0.677104 0
0.982162 0.666377 0
0.977935 0.654643 0
0 0.458824 0
0 0.459419 0
0 0.459876 0
0 0.460212 0
0 0.460441 0
0 0.460578 0
0 0.460609 0
0 0.460533 0
0 0.4607 0
0 0.461738 0
0 0.464256 0
0 0.473228 0
0 0.489082 0
0 0.514061 0
0.00497444 0.548608 0
0.108202 0.587808 0
0.293141 0.627237 0
0.445075 0.6645 0
0.573251 0.696208 0
0.688838 0.721599 0
0.787915 0.738476 0
0.867933 0.749523 0
0.928405 0.755917 0
0.970001 0.759884 0
0.99263 0.761517 0
0.99913 0.760266 0
0.999954 0.758007 0
1 0.753109 0
0.999619 0.746624 0
0.99881 0.739361 0
0.997848 0.731502 0
0.99678 0.72343 0
0.995071 0.714382 0
0 0.468727 0
0 0.469139 0
0 0.469505 0
0 0.46978 0
0 0.469978 0
0 0.470115 0
0 0.470161 0
0 0.470146 0
0 0.470314 0
0 0.471412 0
0 0.47483 0
0 0.482216 0
0 0.497337 0
0 0.520272 0
0.0012665 0.552804 0
0.0689555 0.592035 0
0.22443 0.633616 0
0.405158 0.674403 0
0.538827 0.710781 0
0.662028 0.741176 0
0.767605 0.763714 0
0.857496 0.779797 0
0.926604 0.790082 0
0.9738 0.796063 0
0.997131 0.797726 0
1 0.795438 0
1 0.79295 0
1 0.789456 0
1 0.784466 0
1 0.779171 0
1 0.773648 0
1 0.767636 0
1 0.761059 0
0 0.476646 0
0 0.477104 0
0 0.477485 0
0 0.477791 0
0 0.478019 0
0 0.478187 0
0 0.478279 0
0 0.478294 0
0 0.478248 0
0 0.478904 0
0 0.482856 0
0 0.489677 0
0 0.504067 0
0 0.525597 0
0 0.555627 0
0.030808 0.592935 0
0.152804 0.634775 0
0.362432 0.677317 0
0.503655 0.717739 0
0.631937 0.752056 0
0.743343 0.779339 0
0.84126 0.799802 0
0.918334 0.813931 0
0.972168 0.82237 0
0.998077 0.824887 0
1 0.822614 0
1 0.820462 0
1 0.817929 0
1 0.814343 0
1 0.81059 0
1 0.806622 0
1 0.80209 0
1 0.79704 0
0 0.485771 0
0 0.486412 0
0 0.486946 0
0 0.487373 0
0 0.487709 0
0 0.487968 0
0 0.488136 0
0 0.488197 0
0 0.488167 0
0 0.488563 0
0 0.491402 0
0 0.500191 0
0 0.513939 0
0 0.534646 0
0 0.562264 0
0.0100404 0.596841 0
0.108949 0.63682 0
0.324788 0.678813 0
0.471336 0.720668 0
0.601236 0.757412 0
0.718578 0.788235 0
0.821744 0.811994 0
0.905608 0.82945 0
0.967407 0.840833 0
0.998093 0.844663 0
1 0.842237 0
1 0.840345 0
1 0.838529 0
1 0.836225 0
1 0.833799 0
1 0.831205 0
1 0.828122 0
1 0.824659 0
0 0.497978 0
0 0.498772 0
0 0.499443 0
0 0.500008 0
0 0.50042 0
0 0.50074 0
0 0.500954 0
0 0.50106 0
0 0.501076 0
0 0.500984 0
0 0.501503 0
0 0.51313 0
0 0.528328 0
0 0.549264 0
0 0.575372 0
0.00383001 0.607217 0
0.0916915 0.644297 0
0.301961 0.684596 0
0.449897 0.725078 0
0.576669 0.762264 0
0.696986 0.794766 0
0.803159 0.820996 0
0.893767 0.841306 0
0.963241 0.855406 0
0.998199 0.860548 0
1 0.857649 0
1 0.855756 0
1 0.8542 0
1 0.852491 0
1 0.850645 0
1 0.848661 0
1 0.846387 0
1 0.84387 0
0 0.508583 0
0 0.508659 0
0 0.508721 0
0 0.508782 0
0 0.508827 0
0 0.508858 0
0 0.508873 0
0 0.508888 0
0 0.508888 0
