Shader/电影墨绿.cube
TITLE "Generated by Resolve"
LUT_3D_SIZE 5
0.0281071 0.0315557 0.0339818
0.0842756 0.0401617 0.0356298
0.488838 0 0
0.662089 0 0
0.662089 0 0
0 0.0965133 0.049836
0.0552682 0.0903639 0.0495918
0.501945 0.081117 0
0.703807 0.000457771 0
0.677089 0 0
0 0.312123 0
0 0.302708 0.000335698
0.491524 0.414099 0
0.866087 0.398398 0
0.834928 0.308263 0
0 0.476646 0
0 0.478248 0
0.152804 0.634775 0
0.998077 0.824887 0
1 0.79704 0
0 0.509758 0
0 0.509758 0
0 0.57351 0
0.903288 0.858763 0
1 0.875975 0
0.00941482 0.0142824 0.132677
0.0890822 0.0354009 0.113161
0.53312 0 0.0491798
0.695796 0 0.000686656
0.674113 0 0
0 0.107179 0.104692
0.0479133 0.0978866 0.0825666
0.539681 0.063508 0
0.730953 0.000167849 0
0.683375 0 0
0 0.332708 0.00883497
0 0.324895 0.00633249
0.517388 0.437736 0
0.87425 0.405417 0
0.836347 0.311757 0
0 0.476951 0
0 0.478798 0
0.172015 0.639704 0
0.999191 0.827344 0
1 0.800809 0
0 0.509758 0
0 0.509758 0
0 0.577935 0
0.915084 0.861494 0
1 0.875975 0
0 0 0.485832
0.0107881 0 0.479454
0.561868 0 0.498939
0.742473 0 0.484047
0.73164 0 0.374975
0 0.000366217 0.517067
0.000656138 0.00662242 0.499397
0.559915 0.00354009 0.488411
0.773007 0 0.465812
0.741451 0 0.353613
0 0.447456 0.551965
0 0.438209 0.541558
0.497078 0.507408 0.484627
0.892729 0.432731 0.408194
0.863005 0.305898 0.269078
0 0.581186 0.441337
0 0.587289 0.466819
0.0483101 0.719112 0.407401
0.998322 0.856168 0.153063
1 0.831479 0.000122072
0 0.550744 0.240116
0 0.560601 0.278569
0 0.619638 0.260441
0.897826 0.856535 1.5259e-05
1 0.870893 0
0 0 0.54461
0 0 0.56286
0.536019 0 0.646189
0.775937 0 0.698039
0.772305 0 0.689693
0 0 0.634913
0 0 0.640711
0.531716 0 0.704997
0.804486 0 0.7337
0.776379 0 0.693477
0 0.439017 0.801541
0 0.429618 0.803769
0.377874 0.511376 0.840146
0.888472 0.443839 0.86331
0.863279 0.30779 0.81706
0 0.647471 0.865003
0 0.647623 0.865858
0 0.781826 0.915434
0.963302 0.969528 0.964584
0.996994 0.954925 0.948302
0 0.661219 0.841962
0 0.661234 0.850782
0 0.71873 0.875441
0.805493 0.950545 0.902434
1 0.982238 0.8981
0 0 0.543328
0 0 0.556329
0.483818 0 0.639048
0.774166 0 0.697017
0.77615 0 0.698573
0 0 0.618173
0 0 0.617868
0.470008 0 0.682658
0.792996 0 0.721447
0.77734 0 0.699962
0 0.387411 0.785397
0 0.386007 0.78764
0.290684 0.454063 0.822187
0.873259 0.389883 0.855756
0.854948 0.261845 0.824735
0 0.646021 0.870466
0 0.646799 0.870787
0 0.758633 0.921447
0.945724 0.96527 0.98793
0.994202 0.95317 0.991287
0 0.665095 0.885557
0 0.665095 0.885557
0 0.710704 0.909545
0.748287 0.95314 0.972305
0.999985 1 0.999969
