Shader/电影暗青.cube
TITLE "Generated by Resolve"
LUT_3D_SIZE 33
0.0280766 0.0296483 0.0327611
0.0275273 0.029633 0.0334325
0.027863 0.0296635 0.0339971
0.0286564 0.0297551 0.0343938
0.0267796 0.0297398 0.0345159
0.0249485 0.0297093 0.0343786
0.0338445 0.0299992 0.0339971
0.0498207 0.0314488 0.0336919
0.0659648 0.034699 0.0338598
0.0906081 0.0376898 0.0333867
0.130846 0.0379339 0.030869
0.177554 0.0351873 0.0230411
0.228595 0.0237736 0.00671397
0.288518 0 0
0.353216 0 0
0.414542 0 0
0.474418 0 0
0.524575 0 0
0.566445 0 0
0.6 0 0
0.625605 0 0
0.643977 0 0
0.656764 0 0
0.661768 0 0
0.662089 0 0
0.662089 0 0
0.662089 0 0
0.662089 0 0
0.662089 0 0
0.662089 0 0
0.662089 0 0
0.662089 0 0
0.662089 0 0
0.0285191 0.0307012 0.0338445
0.027985 0.0305943 0.0344396
0.0281529 0.0305028 0.0349584
0.0289006 0.030518 0.0353399
0.027985 0.0306096 0.0355535
0.0264897 0.0307774 0.0356146
0.0336309 0.0311742 0.0353857
0.0488441 0.032639 0.0351415
0.0651255 0.0360571 0.0354009
0.0890211 0.0395209 0.0350195
0.129152 0.0402991 0.0322271
0.176089 0.0377661 0.0241245
0.226368 0.0261845 0.00788891
0.285084 0.00132753 0
0.350072 0 0
0.41207 0 0
0.472541 0 0
0.523217 0 0
0.565515 0 0
0.599466 0 0
0.625299 0 0
0.643839 0 0
0.656733 0 0
0.661768 0 0
0.662089 0 0
0.662089 0 0
0.662089 0 0
0.662089 0 0
0.662089 0 0
0.662089 0 0
0.662089 0 0
0.662089 0 0
0.662089 0 0
0.0285954 0.0335241 0.035111
0.0281071 0.0331579 0.0356146
0.0280766 0.0327306 0.0360723
0.0287785 0.0323491 0.0364691
0.0288701 0.0321202 0.036759
0.0276799 0.0319677 0.0369573
0.0330663 0.032105 0.0368963
0.0474861 0.0333867 0.0367437
0.0639048 0.0368963 0.0371099
0.0868544 0.0409247 0.03682
0.126635 0.0427558 0.033875
0.174548 0.0417945 0.0256657
0.225452 0.0339055 0.00947585
0.284474 0.0145266 0
0.348852 0 0
0.410025 0 0
0.4692 0 0
0.520714 0 0
0.563714 0 0
0.598215 0 0
0.624491 0 0
0.643366 0 0
0.656428 0 0
0.661646 0 0
0.662089 0 0
0.662089 0 0
0.662089 0 0
0.662089 0 0
0.662089 0 0
0.662089 0 0
0.662089 0 0
0.662089 0 0
0.662089 0 0
0.0283513 0.0378576 0.0366217
0.027924 0.0372931 0.0370489
0.0275425 0.0365606 0.0374762
0.0280766 0.0357977 0.0378576
0.0291295 0.0352789 0.0381781
0.0277256 0.03505 0.0384985
0.0310521 0.0350195 0.0386206
0.0451209 0.0358282 0.0384527
0.062974 0.0388342 0.0386664
0.0850996 0.0428321 0.0384527
0.122896 0.0451209 0.0357671
0.171801 0.0452583 0.0275425
0.223484 0.0408789 0.0110628
0.283314 0.0258335 0
0.348363 0.00218204 0
0.410895 0 0
0.470558 0 0
0.52166 0 0
0.563546 0 0
0.596826 0 0
0.623209 0 0
0.642588 0 0
0.655909 0 0
0.661433 0 0
0.662089 0 0
0.662089 0 0
0.662089 0 0
0.662089 0 0
0.662089 0 0
0.662089 0 0
0.662089 0 0
0.662089 0 0
0.662089 0 0
0.0276646 0.0440833 0.0384527
0.0273899 0.0434424 0.0387884
0.0268406 0.0425574 0.0391546
0.0272221 0.0416114 0.0395056
0.0286259 0.0408484 0.0398108
0.0275731 0.0403601 0.0401617
0.0287175 0.0400549 0.0403601
0.0420081 0.0404059 0.0401923
0.0616922 0.0427863 0.0401617
0.0833448 0.0466773 0.0400244
0.118715 0.049485 0.0377813
0.168063 0.0502937 0.0295872
0.220722 0.0480964 0.0127108
0.281056 0.0370794 0
0.347311 0.0120699 0
0.411505 0 0
0.47245 0 0
0.524956 0 0
0.56759 0 0
0.601083 0 0
0.626184 0 0
0.643961 0 0
0.655833 0 0
0.661128 0 0
0.662089 0 0
0.662089 0 0
0.662089 0 0
0.662089 0 0
0.662089 0 0
0.662089 0 0
0.662089 0 0
0.662089 0 0
0.662089 0 0
0.0269169 0.0501259 0.0403754
0.0269017 0.0495766 0.0406043
0.026688 0.0486915 0.0408942
0.026978 0.0476997 0.0411841
0.0283818 0.0468452 0.0414435
0.028275 0.0462806 0.0417792
0.028397 0.0459907 0.0420844
0.0395666 0.0463569 0.0420691
0.0595407 0.048661 0.0418708
0.0814527 0.0527199 0.0415198
0.114656 0.0561685 0.0395056
0.163836 0.0576638 0.0317388
0.217716 0.0571145 0.0150759
0.278248 0.0510414 0
0.345632 0.032517 0
0.410941 0.00563058 0
0.473381 0.000274662 0
0.528389 0 0
0.572778 0 0
0.607614 0 0
0.632563 0 0
0.649882 0 0
0.66096 0 0
0.665171 0 0
0.66453 0 0
0.662852 0 0
0.662089 0 0
0.662089 0 0
0.662089 0 0
0.662089 0 0
0.662089 0 0
0.662089 0 0
0.662089 0 0
0.0217136 0.0569924 0.0423438
0.0220493 0.0566262 0.0424353
0.0229953 0.0557107 0.0425879
0.0238651 0.0545205 0.0427863
0.0263523 0.0534066 0.0429847
0.028687 0.0526436 0.0433204
0.0285801 0.0522316 0.0437781
0.0367132 0.0525216 0.0440833
0.0561379 0.0545663 0.0439002
0.078996 0.0586404 0.0432136
0.11046 0.063035 0.0412451
0.159152 0.0658732 0.0343938
0.214679 0.0672313 0.0188754
0.275456 0.0654002 0.000595102
0.343877 0.0556497 0
0.410895 0.030869 0
0.473625 0.00129702 0
0.531167 0 0
0.577401 0 0
0.613855 0 0
0.63975 0 0
0.65774 0 0
0.669047 0 0
0.673167 0 0
0.671855 0 0
0.668879 0 0
0.666468 0 0
0.664515 0 0
0.662806 0 0
0.662089 0 0
0.662089 0 0
0.662089 0 0
0.662089 0 0
0.0117342 0.067277 0.0445106
0.0119631 0.067155 0.0445258
0.0132753 0.0661936 0.0445869
0.0146487 0.064683 0.0446937
0.0180209 0.0630655 0.0447547
0.0233921 0.0617533 0.0449683
0.0237736 0.0608377 0.0454719
0.0293278 0.0606088 0.046067
0.0496071 0.0619669 0.0461128
0.0753948 0.0657054 0.0453498
0.105669 0.0708324 0.0432136
0.153567 0.0750134 0.0374609
0.211231 0.0778363 0.0238651
0.272679 0.0785382 0.00181582
0.342031 0.0746777 0
0.411841 0.0608225 0
0.47451 0.0224918 0
0.533547 0.00233463 0
0.581842 3.0518e-05 0
0.620111 0 0
0.647257 0 0
0.665934 0 0
0.677668 0 0
0.682628 0 0
0.681941 0 0
0.678767 0 0
0.675456 0 0
0.672038 0 0
0.668788 0 0
0.666346 0 0
0.664469 0 0
0.662638 0 0
0.662089 0 0
0.00314336 0.0817578 0.0471809
0.0031281 0.0818494 0.0471962
0.00364691 0.081117 0.0472267
0.00442512 0.0793927 0.047303
0.00643931 0.0772412 0.047303
0.0112154 0.0753033 0.047303
0.0125124 0.07393 0.0476539
0.0157931 0.0733043 0.0482795
0.037171 0.0740978 0.0484169
0.0693523 0.0773175 0.0475166
0.100237 0.0825971 0.0450904
0.146151 0.087541 0.0395819
0.206394 0.090959 0.0264134
0.269459 0.0930495 0.00239567
0.339818 0.0921492 0
0.412573 0.0840925 0
0.476921 0.0609751 0
0.536568 0.0207523 0
0.586801 0.0049897 0
0.6271 0.00108339 0
0.655848 0.000167849 0
0.675242 0 0
0.687327 0 0
0.693019 0 0
0.692775 0 0
0.689525 0 0
0.686183 0 0
0.68278 0 0
0.679362 0 0
0.675792 0 0
0.672114 0 0
0.668437 0 0
0.666148 0 0
0 0.0989395 0.0502327
0 0.0991684 0.0502785
0 0.098909 0.0502937
0 0.097261 0.0504005
0.000167849 0.0947585 0.0505226
0.00154116 0.0922103 0.0505226
0.00267033 0.090486 0.0506447
0.00369268 0.0898756 0.0511177
0.020676 0.0905318 0.0510719
0.0563668 0.0933089 0.0497292
0.0939193 0.0985275 0.0467842
0.137606 0.104173 0.040528
0.199695 0.108476 0.0263066
0.265431 0.112261 0.00273136
0.337118 0.113954 0
0.412589 0.109651 0
0.4804 0.0983597 0
0.541619 0.0649424 0
0.59324 0.0333867 0
0.635126 0.016968 0
0.665522 0.0065919 0
0.685939 0.00274662 0
0.698619 0.00228885 0
0.705028 0.0016022 0
0.705089 0.000503548 0
0.701579 0 0
0.697963 0 0
0.694331 0 0
0.690791 0 0
0.68716 0 0
0.683467 0 0
0.679789 0 0
0.67599 0 0
0 0.117815 0.0528878
0 0.118181 0.0529335
0 0.118273 0.0529488
0 0.117144 0.0530709
0 0.114534 0.0534066
0 0.111391 0.0537118
0 0.10901 0.0538033
0 0.108186 0.0541695
0.00738537 0.108873 0.0540932
0.0366522 0.111391 0.05243
0.0827955 0.116472 0.0487831
0.128161 0.122957 0.0417639
0.190921 0.128923 0.0270848
0.260166 0.135149 0.00383001
0.333562 0.140169 0
0.412238 0.140093 0
0.484352 0.134401 0
0.548745 0.118959 0
0.602487 0.0908522 0
0.64535 0.0654307 0
0.676951 0.0427558 0
0.698421 0.0309148 0
0.711986 0.0267338 0
0.719402 0.0219272 0
0.719676 0.0137636 0
0.715633 0.00669871 0
0.711635 0.00358587 0
0.707668 0.00183108 0
0.703746 0.000366217 0
0.69984 0 0
0.695827 0 0
0.69192 0 0
0.68806 0 0
0 0.139467 0.0542
0 0.140047 0.0542153
0 0.140307 0.0542306
0 0.139925 0.0542916
0 0.137575 0.0547951
0 0.134051 0.0554513
0 0.130831 0.055848
0 0.129229 0.0562448
0.00161746 0.12961 0.0563363
0.0187991 0.131792 0.0547341
0.0607919 0.136431 0.0504616
0.114336 0.14345 0.0424048
0.179019 0.150805 0.026215
0.252766 0.159152 0.00349432
0.328618 0.167361 0
0.410574 0.171008 0
0.488182 0.169696 0
0.556405 0.161532 0
0.614694 0.147875 0
0.659434 0.131609 0
0.692287 0.114 0
0.714519 0.0995651 0
0.728801 0.0905928 0
0.737102 0.0811475 0
0.737469 0.06421 0
0.732662 0.0459754 0
0.728023 0.0339055 0
0.723552 0.023621 0
0.719036 0.0131075 0
0.714504 0.00573739 0
0.710063 0.00292973 0
0.705669 0.00138857 0
0.701457 0 0
0 0.165179 0.0536812
0 0.166049 0.0536202
0 0.166506 0.0535897
0 0.166476 0.0535897
0 0.164981 0.0539406
0 0.161593 0.054902
0 0.157641 0.055848
0 0.155108 0.0563363
1.5259e-05 0.154925 0.0564889
0.00444038 0.15671 0.054963
0.0305943 0.160922 0.0495918
0.0899825 0.168322 0.0385901
0.162066 0.177447 0.019501
0.241733 0.187381 0.00111391
0.321798 0.198047 0
0.406317 0.204486 0
0.490318 0.206348 0
0.563516 0.202197 0
0.627817 0.193011 0
0.676005 0.181842 0
0.711238 0.171038 0
0.735348 0.163439 0
0.750652 0.158801 0
0.759609 0.154833 0
0.760525 0.1458 0
0.755352 0.13135 0
0.749386 0.113848 0
0.743648 0.091783 0
0.738003 0.0665293 0
0.732326 0.0427253 0
0.72723 0.0301366 0
0.722347 0.0201877 0
0.717357 0.00972 0
0 0.193133 0.0501717
0 0.194202 0.049897
0 0.194858 0.0497292
0 0.19501 0.0496986
0 0.194583 0.049897
0 0.191897 0.0513008
0 0.187747 0.0530098
0 0.184283 0.0539712
0 0.183154 0.0540627
0 0.184649 0.0521859
0.00784314 0.188724 0.0449531
0.0486152 0.196414 0.02916
0.13695 0.208057 0.00866712
0.225269 0.221057 0
0.311391 0.23418 0
0.39884 0.24329 0
0.488304 0.247776 0
0.566934 0.24686 0
0.637385 0.240513 0
0.691051 0.23151 0
0.72987 0.221698 0
0.756619 0.214572 0
0.773938 0.210361 0
0.784024 0.208499 0
0.786343 0.203525 0
0.782345 0.193118 0
0.77615 0.180621 0
0.769711 0.167254 0
0.763195 0.151995 0
0.756481 0.134585 0
0.74963 0.115877 0
0.743206 0.0915847 0
0.73695 0.0627146 0
0 0.223178 0.0407568
0 0.224506 0.0400854
0 0.225376 0.0396429
0 0.225788 0.0394293
0 0.225742 0.0394446
0 0.224018 0.04065
0 0.220188 0.0435492
0 0.215991 0.0461891
0 0.213779 0.0467384
0 0.214481 0.0446784
1.5259e-05 0.21825 0.0349432
0.0192264 0.226307 0.0149691
0.0969406 0.240085 0.000869764
0.201755 0.25597 0
0.296483 0.271321 0
0.387884 0.283879 0
0.481575 0.291432 0
0.566094 0.293873 0
0.642512 0.290364 0
0.702708 0.283955 0
0.746136 0.275792 0
0.776303 0.269261 0
0.795941 0.265141 0
0.807553 0.262913 0
0.811948 0.25861 0
0.809812 0.249409 0
0.804135 0.237247 0
0.797971 0.22475 0
0.791562 0.21178 0
0.784909 0.198337 0
0.777905 0.184192 0
0.770642 0.169512 0
0.763256 0.153124 0
0 0.257237 0.0162051
0 0.258885 0.0145571
0 0.260044 0.0133974
0 0.260685 0.0127565
0 0.260822 0.0126192
0 0.26038 0.0133364
0 0.257404 0.0188144
0 0.25275 0.0254063
0 0.249302 0.0280766
0 0.249058 0.0253147
0 0.252598 0.016144
1.5259e-05 0.260899 0.00489815
0.0296635 0.27599 0
0.165499 0.294057 0
0.275898 0.31165 0
0.373861 0.327855 0
0.471397 0.338338 0
0.56199 0.343587 0
0.643091 0.342535 0
0.710369 0.337591 0
0.759686 0.330938 0
0.794171 0.325139 0
0.816251 0.321614 0
0.82919 0.319234 0
0.83537 0.315587 0
0.834897 0.30779 0
0.830152 0.296147 0
0.825101 0.283986 0
0.819608 0.27126 0
0.813611 0.257801 0
0.807385 0.243915 0
0.800641 0.229816 0
0.793378 0.215198 0
0 0.297078 0.000839246
0 0.299062 0.000595102
0 0.300389 0.000534066
0 0.301244 0.000503548
0 0.301671 0.000503548
0 0.301549 0.000534066
0 0.299718 0.000747692
0 0.295384 0.0010071
0 0.290944 0.00134279
0 0.289631 0.00180056
0 0.292592 0.00151064
0 0.300786 0.000213626
0.0135653 0.315633 1.5259e-05
0.0913863 0.335866 0
0.243061 0.357092 0
0.355123 0.377722 0
0.458228 0.391913 0
0.556771 0.400153 0
0.642542 0.401755 0
0.716716 0.398001 0
0.771954 0.392126 0
0.811078 0.386053 0
0.83624 0.38204 0
0.850843 0.37911 0
0.858213 0.375326 0
0.858412 0.367453 0
0.853758 0.355489 0
0.849088 0.343587 0
0.844282 0.331304 0
0.839231 0.318547 0
0.833875 0.305394 0
0.828321 0.29189 0
0.822477 0.277745 0
0 0.335149 1.5259e-05
0 0.336996 0
0 0.338384 0
0 0.339315 0
0 0.339818 0
0 0.33991 0
0 0.339422 0
0 0.336507 0
0 0.331899 3.0518e-05
0 0.329534 9.15541e-05
0 0.331823 9.15541e-05
0 0.339452 0
0.00170901 0.354391 0
0.0319524 0.376455 0
0.186481 0.401099 0
0.328115 0.426856 0
0.44097 0.447196 0
0.547372 0.459571 0
0.640055 0.464836 0
0.720592 0.463508 0
0.782788 0.459327 0
0.828244 0.454063 0
0.857786 0.449805 0
0.874952 0.44654 0
0.884001 0.443259 0
0.885161 0.435935 0
0.880385 0.423194 0
0.874861 0.409491 0
0.869368 0.395727 0
0.864149 0.382254 0
0.858717 0.368322 0
0.853147 0.354025 0
0.8477 0.340124 0
0 0.369329 0
0 0.371191 0
0 0.372641 0
0 0.373678 0
0 0.374258 0
0 0.374472 0
0 0.374365 0
0 0.372885 0
0 0.36939 0
0 0.366476 0
0 0.367834 0
0 0.374929 0
7.62951e-05 0.38938 0
0.010132 0.412695 0
0.0869306 0.440513 0
0.290517 0.469795 0
0.416205 0.496742 0
0.531304 0.514717 0
0.633539 0.525261 0
0.721691 0.527855 0
0.791547 0.526192 0
0.843656 0.52282 0
0.878676 0.519646 0
0.899977 0.517098 0
0.911955 0.515435 0
0.915557 0.510674 0
0.912169 0.499626 0
0.906294 0.485817 0
0.900236 0.471382 0
0.894026 0.456504 0
0.887602 0.441077 0
0.881422 0.425681 0
0.875013 0.409766 0
0 0.400183 0
0 0.401831 0
0 0.403159 0
0 0.404135 0
0 0.404761 0
0 0.405066 0
0 0.405112 0
0 0.404669 0
0 0.402701 0
0 0.399939 0
0 0.400351 0
0 0.407263 0
0 0.421302 0
0.002533 0.445197 0
0.0344854 0.476738 0
0.23151 0.509117 0
0.38143 0.540734 0
0.506355 0.564889 0
0.620462 0.581628 0
0.717464 0.589822 0
0.796674 0.591745 0
0.856336 0.590417 0
0.897719 0.588235 0
0.923476 0.586374 0
0.938552 0.585672 0
0.945464 0.583261 0
0.944579 0.575082 0
0.939208 0.562554 0
0.933623 0.549508 0
0.927687 0.535683 0
0.921263 0.52076 0
0.914687 0.505394 0
0.907851 0.489403 0
0 0.425315 0
0 0.426734 0
0 0.427817 0
0 0.428595 0
0 0.429114 0
0 0.429435 0
0 0.429541 0
0 0.429435 0
0 0.428687 0
0 0.427146 0
0 0.427253 0
0 0.433204 0
0 0.446525 0
0.000350958 0.469184 0
0.0135348 0.502815 0
0.148104 0.539132 0
0.337514 0.575051 0
0.473899 0.605692 0
0.599039 0.629465 0
0.706661 0.64509 0
0.797162 0.652415 0
0.865797 0.654597 0
0.913863 0.654398 0
0.944747 0.654261 0
0.963516 0.654704 0
0.973587 0.653773 0
0.975097 0.647791 0
0.970291 0.636271 0
0.965255 0.624201 0
0.959854 0.611322 0
0.954086 0.59762 0
0.948119 0.583444 0
0.941802 0.568673 0
0 0.444266 0
0 0.445365 0
0 0.44622 0
0 0.446876 0
0 0.447333 0
0 0.447654 0
0 0.447822 0
0 0.447807 0
0 0.447578 0
0 0.447257 0
0 0.447852 0
0 0.452445 0
0 0.464836 0
0 0.485618 0
0.00383001 0.518135 0
0.0537881 0.558328 0
0.283284 0.598032 0
0.435477 0.634928 0
0.570092 0.665064 0
0.687922 0.687724 0
0.789136 0.701427 0
0.868055 0.708721 0
0.924483 0.711818 0
0.961761 0.713939 0
0.983383 0.715389 0
0.992813 0.714961 0
0.994537 0.710948 0
0.992782 0.702602 0
0.99025 0.692973 0
0.987106 0.682292 0
0.983764 0.671107 0
0.979812 0.659159 0
0.974105 0.645426 0
0 0.458701 0
0 0.459464 0
0 0.460105 0
0 0.460609 0
0 0.461006 0
0 0.46128 0
0 0.461433 0
0 0.461463 0
0 0.461387 0
0 0.461662 0
0 0.462989 0
0 0.467185 0
0 0.478187 0
0 0.497353 0
0.000595102 0.527047 0
0.0117952 0.568353 0
0.217166 0.611109 0
0.391913 0.65301 0
0.53492 0.688869 0
0.662272 0.717906 0
0.772168 0.738262 0
0.861936 0.751446 0
0.928496 0.75877 0
0.972656 0.763058 0
0.994141 0.764233 0
0.999374 0.762631 0
0.999969 0.759335 0
0.999863 0.753658 0
0.999329 0.746548 0
0.99852 0.738766 0
0.997635 0.730587 0
0.996414 0.72166 0
0.994217 0.711421 0
0 0.469032 0
0 0.469612 0
0 0.4701 0
0 0.470497 0
0 0.470832 0
0 0.471061 0
0 0.471199 0
0 0.47126 0
0 0.47126 0
0 0.471397 0
0 0.472892 0
0 0.477485 0
0 0.4869 0
0 0.505028 0
0.000122072 0.532128 0
0.00407416 0.571206 0
0.128435 0.615641 0
0.341344 0.660594 0
0.495552 0.701747 0
0.631113 0.7364 0
0.748592 0.762997 0
0.848692 0.781918 0
0.925338 0.793835 0
0.976181 0.800519 0
0.997711 0.801663 0
1 0.799268 0
1 0.796338 0
1 0.792218 0
1 0.786984 0
1 0.781491 0
1 0.775601 0
1 0.768948 0
1 0.761868 0
0 0.477607 0
0 0.478264 0
0 0.478813 0
0 0.479286 0
0 0.479667 0
0 0.479957 0
0 0.480156 0
0 0.480278 0
0 0.480308 0
0 0.480262 0
0 0.481422 0
0 0.486107 0
0 0.495415 0
0 0.512398 0
0 0.537804 0
0.00103761 0.573007 0
0.0512703 0.61651 0
0.290517 0.662089 0
0.455482 0.706752 0
0.596582 0.74551 0
0.720913 0.777157 0
0.82945 0.800931 0
0.915068 0.817243 0
0.973785 0.826871 0
0.998245 0.828946 0
1 0.826596 0
1 0.824262 0
1 0.821408 0
1 0.817868 0
1 0.814115 0
1 0.809979 0
1 0.805081 0
1 0.799939 0
0 0.488075 0
0 0.488975 0
0 0.489754 0
0 0.49041 0
0 0.490944 0
0 0.491356 0
0 0.491661 0
0 0.491875 0
0 0.491966 0
0 0.491936 0
0 0.492409 0
0 0.496376 0
0 0.507683 0
0 0.524376 0
0 0.548913 0
0.000320439 0.580774 0
0.0160678 0.621012 0
0.253193 0.665095 0
0.423056 0.709972 0
0.565377 0.750576 0
0.694209 0.785306 0
0.808087 0.81265 0
0.901549 0.832685 0
0.969406 0.845548 0
0.998276 0.848768 0
1 0.84625 0
1 0.844251 0
1 0.842252 0
1 0.839933 0
1 0.83743 0
1 0.834623 0
1 0.831281 0
1 0.827787 0
0 0.500908 0
0 0.501579 0
0 0.502174 0
0 0.502663 0
0 0.503075 0
0 0.503395 0
0 0.503624 0
0 0.503792 0
0 0.503883 0
0 0.503868 0
0 0.503792 0
0 0.506432 0
0 0.517952 0
0 0.536522 0
0 0.560983 0
9.15541e-05 0.591592 0
0.00486763 0.628779 0
0.228504 0.67126 0
0.399619 0.714656 0
0.5411 0.755627 0
0.671046 0.791577 0
0.787869 0.821256 0
0.888395 0.84419 0
0.964736 0.859998 0
0.997894 0.864439 0
1 0.861448 0
1 0.859281 0
1 0.857725 0
1 0.856092 0
1 0.854246 0
1 0.852171 0
1 0.849836 0
1 0.847395 0
0 0.509743 0
0 0.509758 0
0 0.509758 0
0 0.509758 0
0 0.509758 0
0 0.509758 0
0 0.509758 0
0 0.509758 0
0 0.509758 0
