Shader/电影复古.cube
TITLE "Generated by Resolve"
LUT_3D_SIZE 9
0.0273899 0.0303197 0.0335699
0.0342107 0.0319066 0.0351263
0.0774548 0.0397803 0.0340276
0.284688 0.0486763 0.00125124
0.585 0 0
0.674556 0 0
0.68484 0 0
0.685649 0 0
0.684596 0 0
0.0252689 0.03888 0.0362249
0.0319524 0.040177 0.0374456
0.0770428 0.0479896 0.0366064
0.29247 0.0566873 0.000595102
0.599893 1.5259e-05 0
0.682506 0 0
0.702113 0 0
0.702831 0 0
0.700084 0 0
0.00157168 0.0710613 0.045304
0.00723278 0.0727703 0.0459602
0.0631113 0.0803235 0.0449531
0.299168 0.1028 0.00115969
0.638209 0.039704 0
0.714534 0.00622568 0
0.733303 0.0105898 0
0.731517 0.00567636 0
0.728466 0.00404364 0
0 0.173129 0.0578622
0 0.179782 0.056733
0.00686656 0.194034 0.0499733
0.287861 0.248569 0.000228885
0.679438 0.25774 0
0.781659 0.204746 0
0.797299 0.188067 0
0.789715 0.170947 0
0.784894 0.162127 0
0 0.303243 0.010132
0 0.314351 0.00732433
0 0.338491 0.000885023
0.0755474 0.402441 0
0.608087 0.499458 0
0.879622 0.490776 0
0.924559 0.472419 0
0.922194 0.460487 0
0.916976 0.448264 0
0 0.407187 0
0 0.421042 0
0 0.450828 0
0.000671397 0.510643 0
0.470039 0.665187 0
0.927062 0.771252 0
0.999985 0.766629 0
0.999985 0.764462 0
1 0.763455 0
0 0.457069 0
0 0.465187 0
0 0.500069 0
0 0.55436 0
0.327688 0.683162 0
0.876539 0.842329 0
1 0.865293 0
1 0.863416 0
1 0.864713 0
0 0.489479 0
0 0.490425 0
0 0.528969 0
0 0.581018 0
0.294484 0.682429 0
0.828031 0.838499 0
0.999939 0.878233 0
1 0.875288 0
1 0.875227 0
0 0.489479 0
0 0.494606 0
0 0.539666 0
0 0.596002 0
0.436927 0.721569 0
0.903334 0.858488 0
1 0.877363 0
1 0.875227 0
1 0.875227 0
0.0265965 0.0314794 0.0444648
0.0327153 0.0326696 0.0456855
0.0784466 0.04065 0.0438239
0.28687 0.0386816 0.00653086
0.588113 0 0
0.677287 0 0
0.689815 0 0
0.690486 0 0
0.688502 0 0
0.0230259 0.0404974 0.0458076
0.0299535 0.0415198 0.0470283
0.0781872 0.0491035 0.0458076
0.29688 0.0504616 0.00706493
0.602869 0 0
0.686702 0 0
0.707958 0 0
0.708537 0 0
0.705776 0 0
0.000411994 0.0737163 0.052079
0.00564584 0.0756085 0.0539712
0.0648814 0.0834211 0.0528878
0.306676 0.102617 0.00823987
0.64152 0.0297704 0
0.721248 0.00796521 0
0.740078 0.0107881 0
0.738018 0.0053254 0
0.735058 0.00314336 0
0 0.177035 0.060853
0 0.184939 0.0605173
0.00698863 0.201404 0.0544289
0.295705 0.257267 0.000686656
0.687816 0.265263 0
0.791089 0.211368 0
0.805707 0.193423 0
0.798032 0.176547 0
0.793088 0.166033 0
0 0.310307 0.0215457
0 0.324544 0.0209964
0 0.351232 0.00766003
0.0703288 0.417853 0
0.624674 0.51783 0
0.892393 0.508827 0
0.936538 0.491829 0
0.934142 0.480003 0
0.929168 0.468788 0
0 0.413611 0
0 0.429236 1.5259e-05
0 0.459968 0
0.00198367 0.523323 0
0.487785 0.681254 0
0.940261 0.785962 0
1 0.77908 0
1 0.776059 0
1 0.778408 0
0 0.459281 0
0 0.467597 1.5259e-05
0 0.505074 3.0518e-05
0 0.55993 0
0.337163 0.691905 0
0.888197 0.847852 0
1 0.86717 0
1 0.865507 0
1 0.867277 0
0 0.48954 0.0019379
0 0.491447 0.00392157
0 0.530938 0.00198367
0 0.582864 1.5259e-05
0.303655 0.687221 0
0.838117 0.841276 0
1 0.877867 0
1 0.87509 0
1 0.874937 0
0 0.489677 0.00352483
0 0.497002 0.0102846
0 0.543648 0.0101015
0 0.600046 0
0.449882 0.728725 0
0.910201 0.860059 0
1 0.87689 0
1 0.874205 0
1 0.873732 0
0.0135805 0.0265202 0.106477
0.0260777 0.0269322 0.107149
0.0743114 0.0366979 0.10277
0.280278 0.0256199 0.0819104
0.593668 0 0.0257725
0.68661 0 0.00486763
0.697215 0 0.000579843
0.696635 0 0.000518807
0.694942 0 0.000106813
0.00576791 0.0412299 0.0992599
0.0140536 0.0415961 0.101534
0.0733654 0.048661 0.101656
0.294667 0.0354162 0.0819562
0.610147 0 0.0232395
0.695781 0 0.00817884
0.714672 0 0.00302129
0.714946 0 0.00128176
0.712474 0 0.000427253
0 0.079942 0.103288
0.000808728 0.0826734 0.108446
0.0526894 0.0895857 0.10634
0.306828 0.0982986 0.0817578
0.648157 0.0120241 0.0150607
0.729412 0.00491341 0.00691234
0.745617 0.00178531 0.00062562
0.743908 3.0518e-05 4.57771e-05
0.741283 0.000762951 0.000518807
0 0.191226 0.100374
0 0.201938 0.106676
0.00367742 0.219593 0.110719
0.289937 0.266072 0.0637522
0.688014 0.261204 0.00630198
0.793347 0.19855 0.000640879
0.807858 0.182071 1.5259e-05
0.801495 0.16643 0
0.795712 0.151827 4.57771e-05
0 0.326162 0.0804303
0 0.341192 0.0840925
0 0.367224 0.0761883
0.0660868 0.429541 0.0196689
0.624796 0.527123 0.000122072
0.899504 0.518517 0
0.94313 0.501518 0
0.941009 0.490486 0
0.936629 0.480034 0
0 0.422858 0.0216526
0 0.43856 0.0188449
0 0.46949 0.0103609
0.00225834 0.534264 0.00105287
0.484794 0.69247 0
0.950759 0.800671 0
1 0.790539 0
1 0.78819 0
1 0.791852 0
0 0.465782 0.0256809
0 0.474647 0.0525826
0 0.512261 0.0446784
1.5259e-05 0.56524 0.00808728
0.321706 0.697093 0.000167849
0.89398 0.853605 0
1 0.871702 0
1 0.869749 0
1 0.870939 0
0 0.498161 0.0987411
0 0.503563 0.117937
0 0.540475 0.107836
0 0.587579 0.0730449
0.259205 0.686854 0.00645457
0.834684 0.840162 0
1 0.876753 0
1 0.872114 0
1 0.87158 0
0 0.499825 0.109178
0 0.513191 0.142061
0 0.558846 0.146288
0 0.610254 0.129458
0.431235 0.727764 0.0247807
0.901823 0.855299 0
1 0.874113 0
1 0.869596 0
1 0.868528 0
0 0 0.309697
0.000274662 0 0.307637
0.0474403 6.10361e-05 0.303716
0.283268 0.000213626 0.306004
0.607507 0 0.286427
0.701289 0 0.222095
0.706401 0 0.142031
0.702296 0 0.0900282
0.700191 0 0.0572518
0 0.000717174 0.283925
6.10361e-05 0.00115969 0.302388
0.0472114 0.00205997 0.307195
0.296803 0.00137331 0.314504
0.624048 0 0.299443
0.708598 0 0.22974
0.723629 0 0.160754
0.721523 0 0.124865
0.718151 0 0.103456
0 0.0375219 0.298497
0 0.0515602 0.300008
0.0184329 0.0705119 0.316121
0.298451 0.0751659 0.326238
0.654231 0.00668345 0.298451
0.738415 0 0.226444
0.752361 0 0.17293
0.74934 0 0.147204
0.746181 0 0.130663
0 0.221149 0.31339
0 0.233173 0.330663
0 0.251972 0.343969
0.236698 0.291173 0.335744
0.674632 0.259281 0.281392
0.783627 0.169879 0.203983
0.797696 0.145586 0.161059
0.790402 0.116579 0.135714
0.784817 0.100877 0.129396
0 0.359442 0.224948
0 0.37557 0.244678
0 0.401877 0.253101
0.0385748 0.457282 0.243977
0.595026 0.525765 0.16553
0.878721 0.505287 0.0792554
0.923858 0.485878 0.0593423
0.922194 0.476127 0.0496681
0.918883 0.465843 0.0436408
0 0.445731 0.158907
0 0.463859 0.176745
0 0.493584 0.183078
0.00108339 0.551247 0.166339
0.441855 0.688228 0.0449226
0.933501 0.795468 0.00698863
0.999908 0.790463 0.00280766
0.999908 0.788739 0.0019379
0.999985 0.792325 0.00216678
0 0.485664 0.160662
0 0.497887 0.188785
0 0.534707 0.20238
0 0.585031 0.197848
0.273976 0.695308 0.104555
0.86775 0.842557 0.0091249
0.999985 0.868513 0.000228885
1 0.866529 0.000259403
1 0.865354 0.00030518
0 0.521675 0.224964
0 0.527459 0.241611
0 0.56495 0.250965
0 0.611185 0.251408
0.195453 0.697185 0.212421
0.807935 0.827436 0.0682231
0.999756 0.867491 0.0149691
1 0.862928 0.00936904
1 0.86215 0.00924697
0 0.52398 0.236057
0 0.53901 0.266835
0 0.586648 0.292927
0 0.637461 0.297932
0.379324 0.741772 0.261311
0.869703 0.84271 0.136019
1 0.863859 0.0440681
1 0.861616 0.0716716
1 0.862165 0.117952
0 0 0.463584
0 0 0.464317
0.0089723 0 0.471839
0.273686 0 0.507607
0.62855 0 0.539879
0.72961 0 0.496635
0.7337 0 0.404929
0.726284 0 0.341222
0.722087 0 0.306325
0 0 0.473548
0 0 0.481758
0.00602731 0 0.489967
0.289616 0 0.524376
0.641306 0 0.548089
0.734997 0 0.496132
0.750698 0 0.428641
0.74667 0 0.389044
0.742092 0 0.364065
0 0.000289921 0.489342
0 0.00144961 0.49955
0.00367742 0.00320439 0.522148
0.283925 0.0219272 0.561181
0.65977 0.00120546 0.572457
0.761227 0 0.510475
0.776837 0 0.455848
0.772839 0 0.42504
0.769238 0 0.40824
0 0.190723 0.559792
0 0.213184 0.568811
0 0.242603 0.577935
0.171298 0.29218 0.60531
0.652918 0.258579 0.593042
0.790356 0.158938 0.522087
0.811109 0.142779 0.477821
0.804425 0.122499 0.453223
0.799695 0.100359 0.441276
0 0.400916 0.517845
0 0.416007 0.532982
0 0.442924 0.550881
0.00900282 0.49662 0.562753
0.547417 0.561624 0.554009
0.867292 0.534691 0.519448
0.917082 0.511666 0.489647
0.917144 0.504433 0.480873
0.914809 0.495247 0.477043
0 0.506065 0.431998
0 0.524376 0.460227
0 0.554849 0.481987
0 0.610407 0.497154
0.33109 0.733532 0.486137
0.887587 0.813581 0.452064
0.994308 0.811139 0.412558
0.997253 0.810285 0.411643
0.997482 0.81648 0.422614
0 0.537011 0.394171
0 0.55108 0.431739
0 0.586664 0.45922
0 0.636652 0.476219
0.129091 0.739452 0.466224
0.821088 0.860075 0.423636
0.998001 0.881544 0.357626
1 0.876173 0.344778
1 0.882277 0.383658
0 0.562234 0.412299
0 0.570169 0.44094
0 0.608148 0.466011
0 0.654734 0.480278
0.105211 0.738109 0.475441
0.779141 0.859342 0.453895
0.994247 0.892439 0.412497
1 0.888212 0.398627
1 0.89102 0.419547
0 0.566857 0.433463
0 0.585138 0.487083
0 0.634943 0.534188
0 0.68574 0.556435
0.280034 0.783963 0.549004
0.842817 0.881895 0.523568
0.998703 0.903044 0.492012
1 0.902617 0.503609
1 0.908049 0.541314
0 0 0.518944
0 0 0.521675
0.00729381 0 0.536263
0.26392 0 0.586084
0.651743 0 0.642466
0.753079 0 0.625025
0.762112 0 0.588266
0.757626 0 0.556939
0.753643 0 0.535882
0 0 0.538247
0 0 0.538537
0.00326543 0.00325017 0.551583
0.276432 0.019089 0.598947
0.648157 0.000411994 0.645792
0.756771 0 0.631312
0.779583 0 0.610346
0.776349 0 0.591669
0.771832 0 0.578149
0 0.028809 0.570077
0 0.0392767 0.572549
1.5259e-05 0.0643931 0.586465
0.236255 0.173327 0.63978
0.638651 0.0751049 0.673579
0.776089 1.5259e-05 0.658549
0.803174 0 0.643595
0.799939 0 0.628183
0.797452 0 0.619394
0 0.224231 0.635798
0 0.242161 0.64213
0 0.254597 0.653696
0.106294 0.309239 0.687907
0.615625 0.278828 0.71458
0.793286 0.143267 0.692393
0.824063 0.114641 0.67628
0.819974 0.098497 0.663828
0.817319 0.0657206 0.658244
0 0.39292 0.681559
0 0.411627 0.690822
0 0.438788 0.708385
0.000488289 0.491585 0.727581
0.448218 0.56109 0.753811
0.854307 0.538537 0.760998
0.915221 0.519692 0.747295
0.917113 0.515084 0.743999
0.915663 0.509514 0.74139
0 0.542626 0.683986
0 0.557504 0.699886
0 0.58648 0.720195
0 0.640116 0.742
0.186221 0.762829 0.760998
0.854994 0.845914 0.777707
0.981689 0.846616 0.768566
0.989456 0.847456 0.766247
0.990433 0.854292 0.773129
0 0.585534 0.66627
0 0.594064 0.686152
0 0.62649 0.710353
0 0.674571 0.731319
0.0476234 0.777371 0.746258
0.776776 0.900328 0.757931
0.986267 0.930434 0.74667
1 0.929641 0.736461
1 0.93312 0.75314
0 0.608377 0.666102
0 0.612512 0.685618
0 0.648569 0.709361
0 0.694423 0.727764
0.03888 0.777508 0.740398
0.737255 0.897673 0.756451
0.976669 0.935241 0.746319
0.999985 0.935653 0.735546
1 0.937713 0.749996
0 0.611734 0.683864
0 0.623987 0.716793
0 0.668025 0.749081
0 0.716075 0.767346
0.141665 0.811002 0.775204
0.81059 0.915373 0.794522
0.988403 0.942443 0.789303
0.999969 0.943847 0.794217
0.999954 0.946105 0.811063
0 0 0.518898
0 0 0.520272
0.00292973 0 0.533776
0.222446 0 0.579385
0.59707 0 0.640635
0.759548 0 0.663828
0.794263 0 0.666728
0.790799 0 0.653773
0.786297 0 0.6448
0 0 0.535485
0 0 0.535622
0.00172427 0.00148013 0.548318
0.226825 0.0280003 0.593072
0.592538 0.00523384 0.651118
0.763317 0 0.675822
0.804013 1.5259e-05 0.683497
0.804105 0 0.678813
0.80061 0 0.671077
0 0.0344244 0.573129
0 0.0189975 0.569162
0 0.0393225 0.58172
0.176287 0.173159 0.632776
0.588144 0.161379 0.685435
0.775479 0.0658427 0.699687
0.820462 0.115023 0.709148
0.819135 0.0873121 0.704158
0.817517 0.0678264 0.700954
0 0.25333 0.651377
0 0.258122 0.653819
0 0.252842 0.658488
0.059205 0.306966 0.688685
0.57702 0.330785 0.734646
0.80943 0.285359 0.74432
0.856046 0.286046 0.747524
0.854276 0.272679 0.743297
0.852659 0.265339 0.741482
0 0.409506 0.713237
0 0.431098 0.721096
0 0.454917 0.733333
0.000167849 0.49163 0.754604
0.407507 0.572839 0.790524
0.846815 0.569574 0.814939
0.922118 0.552636 0.814206
0.926131 0.551934 0.81445
0.925277 0.54902 0.813443
0 0.546853 0.753994
0 0.562493 0.762173
0 0.592203 0.777981
0 0.642359 0.799146
0.0904707 0.753857 0.821912
0.81622 0.845151 0.858213
0.975906 0.848844 0.8645
0.986053 0.850187 0.864378
0.987518 0.85922 0.866667
0 0.598199 0.765454
0 0.603281 0.770581
0 0.634287 0.787457
0 0.681315 0.80766
0.0328374 0.780896 0.828489
0.743603 0.907485 0.861616
0.976684 0.942748 0.872129
0.999756 0.944762 0.87068
0.999863 0.946792 0.873533
0 0.626078 0.777188
0 0.626978 0.780728
0 0.65893 0.796139
0 0.703471 0.812512
0.00895705 0.783413 0.828458
0.699702 0.905043 0.859251
0.964874 0.948669 0.871519
0.998886 0.95314 0.870375
0.998734 0.953445 0.873198
0 0.626749 0.780423
0 0.633768 0.786358
0 0.675502 0.806241
0 0.720897 0.82121
0.0654459 0.810712 0.834363
0.784298 0.920348 0.869108
0.981033 0.951583 0.878264
0.998047 0.953948 0.87924
0.997726 0.954055 0.881209
0 0 0.519112
0 0 0.521309
0.000915541 0 0.53344
0.172778 0.000122072 0.569787
0.522591 0 0.630014
0.737057 0 0.660441
0.795529 0 0.672892
0.803769 0 0.677531
0.803769 0 0.677531
0 0 0.53904
0 0 0.541909
0.00062562 0.00244144 0.55404
0.176257 0.0624704 0.591485
0.529427 0.0222629 0.64744
0.748363 0 0.675288
0.804135 0 0.686671
0.807889 0 0.687587
0.807065 0 0.68571
0 0.0233463 0.569085
0 0.0096437 0.567407
0 0.0429541 0.582116
0.118242 0.169772 0.625315
0.540307 0.17055 0.680751
0.764401 0.0695964 0.698207
0.818647 0.111116 0.708553
0.822522 0.118303 0.709972
0.820905 0.107561 0.708141
0 0.228901 0.641459
0 0.22916 0.641123
0 0.230091 0.650172
0.0280308 0.285969 0.679438
0.538613 0.318929 0.727047
0.798444 0.278492 0.741436
0.854902 0.282887 0.747097
0.85684 0.283223 0.746792
0.855497 0.277378 0.745357
0 0.424552 0.718715
0 0.44033 0.723613
0 0.45156 0.730632
0 0.481193 0.751095
0.404562 0.561074 0.787427
0.838926 0.565591 0.814282
0.922347 0.555215 0.816449
0.927001 0.556542 0.816892
0.927062 0.556909 0.816938
0 0.548211 0.758083
0 0.562646 0.764248
0 0.5906 0.778607
0 0.634119 0.797559
0.0272679 0.732341 0.822797
0.801709 0.842847 0.861357
0.974395 0.848402 0.869062
0.985565 0.849577 0.869459
0.987243 0.8598 0.870878
0 0.601282 0.775509
0 0.604761 0.777157
0 0.63711 0.793454
0 0.682536 0.81239
0.0283513 0.778561 0.833097
0.71664 0.903838 0.867521
0.969909 0.942336 0.882048
0.998413 0.94435 0.881758
0.998779 0.946471 0.882094
0 0.630625 0.7888
0 0.631327 0.789227
0 0.66244 0.804303
0 0.706813 0.819669
0.0120699 0.784131 0.835126
0.686366 0.903655 0.867185
0.958267 0.948699 0.883238
0.996674 0.95404 0.884733
0.996674 0.95404 0.884733
0 0.630625 0.788815
0 0.638529 0.793408
0 0.677791 0.81001
0 0.722042 0.824781
0.0746929 0.81088 0.837781
0.782681 0.920501 0.873442
0.979004 0.951583 0.884123
0.996674 0.95404 0.884733
0.996674 0.95404 0.884733
0 0 0.522988
0 0 0.526726
0.000442512 0 0.536156
0.130343 0.0016022 0.562676
0.45771 3.0518e-05 0.620661
0.715557 0 0.65713
0.792447 0 0.671595
0.803769 0 0.677531
0.803769 0 0.677531
0 0 0.543893
0 0 0.548547
1.5259e-05 0.00357061 0.559258
0.129839 0.0846113 0.589944
0.480217 0.0434577 0.643885
0.734585 1.5259e-05 0.67422
0.80264 1.5259e-05 0.685725
0.807553 0 0.686854
0.806821 0 0.68513
0 0.00993362 0.566033
0 0.00979629 0.567864
0 0.0475013 0.582498
0.0675669 0.166781 0.619867
0.503044 0.174792 0.67657
0.753887 0.0728466 0.696956
0.816876 0.0965438 0.707256
0.821927 0.113649 0.709285
0.820356 0.10341 0.7075
0 0.20415 0.631006
0 0.204623 0.631815
0 0.215106 0.643549
0.0134432 0.267628 0.671855
0.505974 0.309331 0.720653
0.788846 0.272984 0.739025
0.852293 0.275242 0.744884
0.856504 0.281651 0.746426
0.854398 0.273457 0.744213
0 0.427146 0.719417
0 0.44184 0.724269
0 0.444862 0.727489
0.000167849 0.469749 0.746914
0.384344 0.550423 0.783673
0.832319 0.560174 0.812696
0.921157 0.550225 0.815518
0.926604 0.555138 0.816495
0.927794 0.55935 0.817655
0 0.552346 0.759304
0 0.563272 0.763027
0 0.584024 0.773632
0 0.61828 0.789532
0.0250553 0.719829 0.82089
0.809247 0.844648 0.861967
0.974563 0.849699 0.869245
0.986114 0.852842 0.869932
0.987976 0.864485 0.871504
0 0.600855 0.775433
0 0.605097 0.777371
0 0.636881 0.793515
0 0.683101 0.812451
0.0226444 0.779797 0.833188
0.714809 0.904219 0.867628
0.969421 0.942824 0.882124
0.998489 0.945251 0.88191
0.99884 0.947097 0.882246
0 0.630625 0.788815
0 0.631479 0.789303
0 0.663355 0.804685
0 0.708629 0.820233
0.019379 0.788281 0.835554
0.700526 0.906096 0.868101
0.95996 0.948959 0.88333
0.996674 0.95404 0.884733
0.996674 0.95404 0.884733
0 0.630625 0.788815
0 0.64036 0.794324
0 0.679728 0.810727
0 0.723415 0.825071
0.090898 0.815641 0.838392
0.795682 0.922713 0.874235
0.981231 0.951858 0.884199
0.996674 0.95404 0.884733
0.996674 0.95404 0.884733
